; generated by PrusaSlicer 2.6.1+win64 on 2023-10-02 at 00:31:01 UTC


;
;
; 

; external perimeters extrusion width = 0.45mm
; perimeters extrusion width = 0.45mm
; infill extrusion width = 0.45mm
; solid infill extrusion width = 0.45mm
; top infill extrusion width = 0.40mm
; first layer extrusion width = 0.42mm

; external perimeters extrusion width = 0.45mm
; perimeters extrusion width = 0.45mm
; infill extrusion width = 0.45mm
; solid infill extrusion width = 0.45mm
; top infill extrusion width = 0.40mm
; first layer extrusion width = 0.42mm

; external perimeters extrusion width = 0.45mm
; perimeters extrusion width = 0.45mm
; infill extrusion width = 0.45mm
; solid infill extrusion width = 0.45mm
; top infill extrusion width = 0.40mm
; first layer extrusion width = 0.42mm

; external perimeters extrusion width = 0.45mm
; perimeters extrusion width = 0.45mm
; infill extrusion width = 0.45mm
; solid infill extrusion width = 0.45mm
; top infill extrusion width = 0.40mm
; first layer extrusion width = 0.42mm

; external perimeters extrusion width = 0.45mm
; perimeters extrusion width = 0.45mm
; infill extrusion width = 0.45mm
; solid infill extrusion width = 0.45mm
; top infill extrusion width = 0.40mm
; first layer extrusion width = 0.42mm

; external perimeters extrusion width = 0.45mm
; perimeters extrusion width = 0.45mm
; infill extrusion width = 0.45mm
; solid infill extrusion width = 0.45mm
; top infill extrusion width = 0.40mm
; first layer extrusion width = 0.42mm

; external perimeters extrusion width = 0.45mm
; perimeters extrusion width = 0.45mm
; infill extrusion width = 0.45mm
; solid infill extrusion width = 0.45mm
; top infill extrusion width = 0.40mm
; first layer extrusion width = 0.42mm

; external perimeters extrusion width = 0.45mm
; perimeters extrusion width = 0.45mm
; infill extrusion width = 0.45mm
; solid infill extrusion width = 0.45mm
; top infill extrusion width = 0.40mm
; first layer extrusion width = 0.42mm

M73 P0 R13


; Pre-Processed for Cancel-Object support by preprocess_cancellation v0.2.0
; 8 known objects
EXCLUDE_OBJECT_DEFINE NAME=0_54_mm_stl_id_5_copy_0 CENTER=146.066,120.295 POLYGON=[[137.406,116.362],[137.406,124.737],[154.316,124.737],[154.316,116.362]]
EXCLUDE_OBJECT_DEFINE NAME=0_2_mm_stl_id_0_copy_0 CENTER=147.006,134.561 POLYGON=[[138.492,130.711],[138.492,138.716],[155.038,138.716],[155.038,130.711]]
EXCLUDE_OBJECT_DEFINE NAME=0_5_mm_stl_id_3_copy_0 CENTER=125.951,133.799 POLYGON=[[117.281,129.995],[117.281,138.37],[134.191,138.37],[134.191,129.995]]
EXCLUDE_OBJECT_DEFINE NAME=0_35_mm_stl_id_7_copy_0 CENTER=124.891,119.439 POLYGON=[[116.384,115.515],[116.384,123.89],[133.294,123.89],[133.294,115.515]]
EXCLUDE_OBJECT_DEFINE NAME=0_4_mm_stl_id_6_copy_0 CENTER=105.116,119.724 POLYGON=[[96.475,115.866],[96.475,124.241],[113.385,124.241],[113.385,115.866]]
EXCLUDE_OBJECT_DEFINE NAME=0_4_mm_stl_id_2_copy_0 CENTER=105.087,133.866 POLYGON=[[96.447,130.008],[96.447,138.383],[113.356,138.383],[113.356,130.008]]
EXCLUDE_OBJECT_DEFINE NAME=0_3_mm_stl_id_1_copy_0 CENTER=84.309,134.363 POLYGON=[[75.5,130.46],[75.5,138.835],[92.418,138.835],[92.418,130.46]]
EXCLUDE_OBJECT_DEFINE NAME=0_35_mm_stl_id_4_copy_0 CENTER=84.223,119.674 POLYGON=[[75.717,115.751],[75.717,124.125],[92.627,124.125],[92.627,115.751]]
;TYPE:Custom
M104 S230 ; set extruder temp
M140 S85 ; set bed temp
M190 S85 ; wait for bed temp
M109 S230 ; wait for extruder temp
G28;
G1 Z4.0 F3000 ;Move Z Axis up
G92 E0 ;Reset Extruder
G1 X5.1 Y20 Z0.28 F5000.0 ;Move to start position
G1 X5.1 Y30.0 Z0.28 F1500.0 E1 ;Draw a short bit in case the extruder turns in the wrong direction
G1 X5.1 Y200.0 Z0.28 F1500.0 E15 ;Draw the first line
G1 X5.4 Y200.0 Z0.28 F5000.0 ;Move to side a little
M73 P1 R12
G1 X5.4 Y20 Z0.28 F1500.0 E30 ;Draw the second line
G92 E0 ;Reset Extruder
G1 Z2.0 F3000 ;Move Z Axis up
G21 ; set units to millimeters
G90 ; use absolute coordinates
M83 ; use relative distances for extrusion
; Filament gcode
M107
;LAYER_CHANGE
;Z:0.2
;HEIGHT:0.2
;BEFORE_LAYER_CHANGE
G92 E0.0
;0.2


G1 E-1 F2400
G1 Z.2 F720
;AFTER_LAYER_CHANGE
;0.2
G1 Z.4
M73 P2 R12
G1 X75.597 Y113.533 F10800
G1 Z.2 F720
G1 E1 F2400
M204 S800
;TYPE:Skirt/Brim
;WIDTH:0.42
G1 F1200
G1 X76.85 Y113.167 E.04093
G1 X132.243 Y112.915 E1.73683
G1 X153.265 Y113.762 E.65966
G1 X154.555 Y114.206 E.04278
G1 X155.335 Y115.157 E.03856
G1 X156.663 Y118.106 E.10141
G1 X156.895 Y119.012 E.02932
G1 X157.822 Y134.004 E.47096
G1 X157.736 Y134.55 E.01733
G1 X157.509 Y135.235 E.02263
G1 X155.934 Y138.182 E.10477
G1 X155.522 Y138.734 E.0216
G1 X153.45 Y140.806 E.09188
G1 X151.769 Y141.503 E.05706
G1 X78.961 Y141.437 E2.28284
G1 X77.282 Y140.741 E.05699
M73 P3 R12
G1 X75.21 Y138.669 E.09188
G1 X74.8 Y138.119 E.02151
G1 X73.159 Y135.023 E.10987
G1 X72.976 Y134.398 E.02042
G1 X72.897 Y133.672 E.0229
G1 X73.138 Y118.409 E.47862
G1 X73.37 Y117.503 E.02932
G1 X74.7 Y114.561 E.10123
G1 X75.557 Y113.578 E.04089
M204 S1000
; printing object 0.54 mm.stl id:5 copy 0
EXCLUDE_OBJECT_START NAME=0_54_mm_stl_id_5_copy_0
;WIPE_START
G1 F8640
G1 X76.85 Y113.167 E-.35803
G1 X79.283 Y113.156 E-.64197
;WIPE_END
G1 Z.4 F720
G1 X139.057 Y120.261 F10800
G1 Z.2 F720
G1 E1 F2400
M204 S800
;TYPE:Perimeter
;WIDTH:0.419999
G1 F1200
G1 X138.976 Y120.236 E.00266
G1 X138.495 Y120.204 E.01511
G1 X138.269 Y120.101 E.00779
G1 X138.042 Y119.843 E.01077
G1 X137.969 Y119.592 E.0082
G1 X138.021 Y119.253 E.01075
G1 X138.168 Y119.026 E.00848
G1 X138.4 Y118.867 E.00882
G1 X138.897 Y118.793 E.01575
G1 X139.16 Y118.701 E.00874
G1 X139.34 Y118.508 E.00827
G1 X139.413 Y118.21 E.00962
G1 X139.369 Y116.943 E.03975
G1 X151.096 Y116.943 E.36769
G1 X152.354 Y116.925 E.03945
G1 X152.31 Y118.2 E.04
G1 X152.383 Y118.499 E.00965
G1 X152.563 Y118.692 E.00827
G1 X152.797 Y118.78 E.00784
G1 X153.172 Y118.814 E.01181
G1 X153.425 Y118.931 E.00874
G1 X153.653 Y119.144 E.00978
G1 X153.756 Y119.482 E.01108
G1 X153.752 Y119.594 E.00351
G1 X153.63 Y119.914 E.01074
G1 X153.453 Y120.091 E.00785
G1 X153.227 Y120.194 E.00779
G1 X152.811 Y120.223 E.01308
G1 X152.507 Y120.298 E.00982
G1 X152.377 Y120.4 E.00518
G1 X152.282 Y120.533 E.00512
G1 X152.22 Y120.771 E.00771
G1 X152.158 Y122.552 E.05588
G1 X150.535 Y124.175 E.07197
G1 X141.187 Y124.175 E.2931
G1 X139.564 Y122.552 E.07197
G1 X139.502 Y120.768 E.05597
G1 X139.409 Y120.489 E.00922
G1 X139.216 Y120.308 E.0083
G1 X139.114 Y120.278 E.00333
M204 S1000
G1 X138.95 Y120.613 F10800
M204 S800
;TYPE:External perimeter
G1 F1200
G1 X138.401 Y120.575 E.01725
G1 X138.051 Y120.415 E.01207
G1 X137.864 Y120.229 E.00827
G1 X137.665 Y119.939 E.01103
G1 X137.584 Y119.49 E.01431
G1 X137.667 Y119.106 E.01232
G1 X137.81 Y118.885 E.00825
G1 X138.051 Y118.628 E.01105
G1 X138.359 Y118.486 E.01063
G1 X138.864 Y118.417 E.01598
G1 X138.993 Y118.35 E.00456
G1 X139.036 Y118.223 E.0042
G1 X138.978 Y116.566 E.05199
G1 X151.096 Y116.566 E.37995
G1 X152.745 Y116.548 E.05171
G1 X152.702 Y118.294 E.05476
G1 X152.771 Y118.377 E.00338
G1 X153.331 Y118.467 E.01778
M73 P4 R12
G1 X153.667 Y118.638 E.01182
G1 X153.889 Y118.837 E.00935
G1 X154.037 Y119.097 E.00938
G1 X154.132 Y119.455 E.01161
G1 X154.107 Y119.775 E.01006
G1 X153.945 Y120.132 E.01229
G1 X153.672 Y120.406 E.01213
G1 X153.321 Y120.566 E.01209
G1 X152.836 Y120.599 E.01524
G1 X152.649 Y120.661 E.00618
G1 X152.597 Y120.785 E.00422
G1 X152.529 Y122.714 E.06052
G1 X150.691 Y124.552 E.0815
G1 X141.031 Y124.552 E.30288
G1 X139.193 Y122.714 E.0815
G1 X139.126 Y120.794 E.06024
G1 X139.095 Y120.697 E.00319
G1 X139.002 Y120.643 E.00337
M204 S1000
G1 X138.866 Y120.221 F10800
;WIPE_START
G1 F8640
G1 X138.401 Y120.575 E-.15961
G1 X138.051 Y120.415 E-.10155
G1 X137.864 Y120.229 E-.0696
G1 X137.665 Y119.939 E-.09281
G1 X137.584 Y119.49 E-.1204
G1 X137.667 Y119.106 E-.10367
G1 X137.81 Y118.885 E-.06946
G1 X138.051 Y118.628 E-.09297
G1 X138.359 Y118.486 E-.0895
G1 X138.736 Y118.434 E-.10043
;WIPE_END
G1 Z.4 F720
G1 X152.152 Y117.843 F10800
G1 Z.2 F720
G1 E1 F2400
M204 S800
;TYPE:Solid infill
;WIDTH:0.426425
G1 F1200
G1 X151.592 Y117.283 E.02525
G1 X151.05 Y117.283 E.01728
G1 X151.97 Y118.203 E.04149
G1 X152.037 Y118.564 E.01171
G1 X152.182 Y118.803 E.00891
G1 X152.38 Y118.981 E.00849
G1 X152.738 Y119.115 E.01219
G1 X152.897 Y119.13 E.00509
G1 X153.39 Y119.622 E.02221
G1 X153.346 Y119.718 E.00337
G1 X153.256 Y119.808 E.00406
G1 X153.142 Y119.86 E.004
G1 X153.089 Y119.864 E.00169
G1 X150.508 Y117.283 E.1164
G1 X149.965 Y117.283 E.01732
G1 X152.603 Y119.921 E.11897
G1 X152.345 Y119.998 E.00859
G1 X152.228 Y120.088 E.00471
G1 X149.423 Y117.283 E.1265
G1 X148.88 Y117.283 E.01732
G1 X151.986 Y120.388 E.14005
G1 X151.908 Y120.564 E.00614
G1 X151.879 Y120.823 E.00831
G1 X148.338 Y117.283 E.15967
G1 X147.796 Y117.283 E.01728
G1 X151.86 Y121.347 E.18328
G1 X151.842 Y121.871 E.01672
G1 X147.253 Y117.283 E.20693
G1 X146.711 Y117.283 E.01728
G1 X151.824 Y122.395 E.23056
G1 X151.558 Y122.672 E.01225
G1 X146.169 Y117.283 E.24303
G1 X145.626 Y117.283 E.01732
G1 X151.287 Y122.943 E.25527
G1 X151.016 Y123.214 E.01222
G1 X145.084 Y117.283 E.26749
G1 X144.542 Y117.283 E.01728
G1 X150.745 Y123.486 E.27974
G1 X150.473 Y123.757 E.01224
G1 X143.999 Y117.283 E.29196
G1 X143.457 Y117.283 E.01728
G1 X150.01 Y123.836 E.29552
G1 X149.468 Y123.836 E.01728
G1 X142.914 Y117.283 E.29554
G1 X142.372 Y117.283 E.01728
G1 X148.925 Y123.836 E.29552
G1 X148.383 Y123.836 E.01728
M73 P5 R12
G1 X141.83 Y117.283 E.29552
G1 X141.287 Y117.283 E.01732
G1 X147.84 Y123.836 E.29552
G1 X147.298 Y123.836 E.01728
G1 X140.745 Y117.283 E.29552
G1 X140.203 Y117.283 E.01728
G1 X146.756 Y123.836 E.29552
G1 X146.213 Y123.836 E.01732
G1 X139.722 Y117.344 E.29275
G1 X139.742 Y117.906 E.01793
G1 X145.671 Y123.836 E.2674
G1 X145.129 Y123.836 E.01728
G1 X139.714 Y118.421 E.2442
G1 X139.686 Y118.572 E.0049
G1 X139.55 Y118.799 E.00844
G1 X144.586 Y123.836 E.22713
G1 X144.044 Y123.836 E.01728
G1 X139.238 Y119.029 E.21676
G1 X138.985 Y119.125 E.00863
G1 X138.807 Y119.141 E.0057
G1 X143.502 Y123.836 E.21173
G1 X142.959 Y123.836 E.01732
G1 X139.836 Y120.712 E.14086
G1 X139.814 Y120.573 E.00449
G1 X139.696 Y120.306 E.00931
G1 X139.589 Y120.172 E.00547
G1 X139.379 Y120.008 E.0085
G1 X139.026 Y119.902 E.01175
G1 X138.283 Y119.16 E.03348
M204 S1000
;WIPE_START
G1 F8640
G1 X139.026 Y119.902 E-.2771
G1 X139.379 Y120.008 E-.09726
G1 X139.589 Y120.172 E-.07031
G1 X139.696 Y120.306 E-.04525
G1 X139.814 Y120.573 E-.07703
G1 X139.836 Y120.712 E-.03714
G1 X140.897 Y121.773 E-.39591
;WIPE_END
G1 Z.4 F720
G1 X139.683 Y121.102 F10800
G1 Z.2 F720
G1 E1 F2400
M204 S800
G1 F1200
G1 X142.417 Y123.836 E.1233
G1 X141.875 Y123.836 E.01728
G1 X139.879 Y121.84 E.09001
G1 X139.899 Y122.402 E.01793
G1 X141.502 Y124.005 E.07229
M204 S1000
; stop printing object 0.54 mm.stl id:5 copy 0
EXCLUDE_OBJECT_END NAME=0_54_mm_stl_id_5_copy_0
; printing object 0.2 mm.stl id:0 copy 0
EXCLUDE_OBJECT_START NAME=0_2_mm_stl_id_0_copy_0
;WIPE_START
G1 F8640
G1 X139.899 Y122.402 E-.59823
G1 X139.879 Y121.84 E-.1484
G1 X140.558 Y122.519 E-.25337
;WIPE_END
G1 Z.4 F720
G1 X139.965 Y134.424 F10800
G1 Z.2 F720
G1 E1 F2400
M204 S800
;TYPE:Perimeter
;WIDTH:0.419999
G1 F1200
G1 X139.884 Y134.4 E.00265
G1 X139.403 Y134.367 E.01512
G1 X139.177 Y134.264 E.00779
G1 X138.95 Y134.007 E.01075
G1 X138.877 Y133.756 E.0082
G1 X138.929 Y133.417 E.01075
G1 X139.076 Y133.189 E.00851
G1 X139.308 Y133.031 E.0088
G1 X139.805 Y132.956 E.01576
G1 X140.068 Y132.865 E.00873
G1 X140.248 Y132.671 E.0083
G1 X140.321 Y132.373 E.00962
G1 X140.277 Y131.107 E.03972
G1 X152.004 Y131.107 E.36769
G1 X153.262 Y131.089 E.03945
G1 X153.218 Y132.364 E.04
G1 X153.291 Y132.663 E.00965
G1 X153.471 Y132.855 E.00825
G1 X153.705 Y132.944 E.00785
G1 X153.965 Y132.967 E.00818
G1 X154.201 Y133.028 E.00764
G1 X154.412 Y133.153 E.00769
G1 X154.578 Y133.349 E.00805
G1 X154.662 Y133.616 E.00878
G1 X154.66 Y133.757 E.00442
G1 X154.538 Y134.077 E.01074
G1 X154.361 Y134.254 E.00785
G1 X154.135 Y134.358 E.0078
G1 X153.719 Y134.386 E.01307
G1 X153.415 Y134.462 E.00983
G1 X153.285 Y134.563 E.00516
G1 X153.19 Y134.697 E.00515
G1 X153.128 Y134.935 E.00771
G1 X153.066 Y136.716 E.05588
G1 X151.443 Y138.338 E.07194
M73 P6 R12
G1 X142.095 Y138.338 E.2931
G1 X140.473 Y136.716 E.07192
G1 X140.41 Y134.931 E.056
G1 X140.317 Y134.652 E.00922
G1 X140.124 Y134.472 E.00827
G1 X140.022 Y134.441 E.00334
M204 S1000
G1 X139.858 Y134.776 F10800
M204 S800
;TYPE:External perimeter
G1 F1200
G1 X139.309 Y134.739 E.01725
G1 X138.959 Y134.579 E.01207
G1 X138.772 Y134.392 E.00829
G1 X138.573 Y134.102 E.01103
G1 X138.492 Y133.653 E.01431
G1 X138.575 Y133.27 E.01229
G1 X138.718 Y133.048 E.00828
G1 X138.959 Y132.792 E.01102
G1 X139.267 Y132.65 E.01063
G1 X139.772 Y132.581 E.01598
G1 X139.901 Y132.513 E.00457
G1 X139.944 Y132.386 E.0042
G1 X139.886 Y130.73 E.05195
G1 X152.004 Y130.73 E.37995
G1 X153.653 Y130.711 E.05171
G1 X153.61 Y132.457 E.05476
G1 X153.679 Y132.541 E.00341
G1 X154.143 Y132.604 E.01468
G1 X154.513 Y132.742 E.01238
G1 X154.808 Y132.997 E.01223
G1 X154.966 Y133.262 E.00967
G1 X155.038 Y133.588 E.01047
G1 X155.015 Y133.939 E.01103
G1 X154.853 Y134.296 E.01229
G1 X154.58 Y134.569 E.01211
G1 X154.229 Y134.729 E.01209
G1 X153.744 Y134.762 E.01524
G1 X153.557 Y134.824 E.00618
G1 X153.505 Y134.948 E.00422
G1 X153.437 Y136.877 E.06052
G1 X151.599 Y138.716 E.08152
G1 X141.939 Y138.716 E.30288
G1 X140.101 Y136.877 E.08152
G1 X140.034 Y134.958 E.06021
G1 X140.003 Y134.86 E.00322
G1 X139.91 Y134.806 E.00337
M204 S1000
G1 X139.774 Y134.385 F10800
;WIPE_START
G1 F8640
G1 X139.309 Y134.739 E-.15958
G1 X138.959 Y134.579 E-.10155
G1 X138.772 Y134.392 E-.06979
G1 X138.573 Y134.102 E-.09281
G1 X138.492 Y133.653 E-.1204
G1 X138.575 Y133.27 E-.10342
G1 X138.718 Y133.048 E-.06969
G1 X138.959 Y132.792 E-.09278
G1 X139.267 Y132.65 E-.0895
G1 X139.644 Y132.598 E-.10048
;WIPE_END
G1 Z.4 F720
G1 X153.06 Y132.006 F10800
G1 Z.2 F720
G1 E1 F2400
M204 S800
;TYPE:Solid infill
;WIDTH:0.426425
G1 F1200
G1 X152.5 Y131.446 E.02525
G1 X151.958 Y131.446 E.01728
G1 X152.878 Y132.366 E.04149
G1 X152.945 Y132.727 E.01171
G1 X153.09 Y132.967 E.00894
G1 X153.288 Y133.144 E.00847
G1 X153.646 Y133.279 E.0122
G1 X153.805 Y133.293 E.00509
G1 X154.298 Y133.786 E.02223
G1 X154.254 Y133.881 E.00334
G1 X154.164 Y133.971 E.00406
G1 X154.05 Y134.023 E.004
G1 X153.997 Y134.027 E.00169
G1 X151.416 Y131.446 E.1164
G1 X150.873 Y131.446 E.01732
G1 X153.511 Y134.084 E.11897
G1 X153.253 Y134.161 E.00859
G1 X153.136 Y134.252 E.00473
G1 X150.331 Y131.446 E.12652
G1 X149.788 Y131.446 E.01732
G1 X152.894 Y134.551 E.14005
G1 X152.816 Y134.727 E.00614
G1 X152.787 Y134.987 E.00834
G1 X149.246 Y131.446 E.15969
G1 X148.704 Y131.446 E.01728
G1 X152.768 Y135.511 E.1833
G1 X152.75 Y136.035 E.01672
G1 X148.161 Y131.446 E.20695
G1 X147.619 Y131.446 E.01728
G1 X152.732 Y136.559 E.23058
G1 X152.466 Y136.835 E.01222
G1 X147.077 Y131.446 E.24303
G1 X146.534 Y131.446 E.01732
G1 X152.195 Y137.107 E.2553
G1 X151.924 Y137.378 E.01222
G1 X145.992 Y131.446 E.26752
G1 X145.45 Y131.446 E.01728
G1 X151.653 Y137.649 E.27974
G1 X151.381 Y137.92 E.01224
M73 P7 R12
G1 X144.907 Y131.446 E.29196
G1 X144.365 Y131.446 E.01728
G1 X150.918 Y137.999 E.29552
G1 X150.376 Y137.999 E.01728
G1 X143.823 Y131.446 E.29552
G1 X143.28 Y131.446 E.01732
G1 X149.833 Y137.999 E.29552
G1 X149.291 Y137.999 E.01728
G1 X142.738 Y131.446 E.29552
G1 X142.195 Y131.446 E.01732
G1 X148.749 Y137.999 E.29554
G1 X148.206 Y137.999 E.01732
G1 X141.653 Y131.446 E.29552
G1 X141.111 Y131.446 E.01728
G1 X147.664 Y137.999 E.29552
G1 X147.121 Y137.999 E.01732
G1 X140.63 Y131.508 E.29273
G1 X140.65 Y132.07 E.01793
G1 X146.579 Y137.999 E.26738
G1 X146.037 Y137.999 E.01728
G1 X140.622 Y132.585 E.24418
G1 X140.594 Y132.736 E.0049
G1 X140.458 Y132.963 E.00844
G1 X145.494 Y137.999 E.22711
G1 X144.952 Y137.999 E.01728
G1 X140.146 Y133.193 E.21674
G1 X139.893 Y133.288 E.00862
G1 X139.715 Y133.304 E.0057
G1 X144.41 Y137.999 E.21173
G1 X143.867 Y137.999 E.01732
G1 X140.744 Y134.876 E.14084
G1 X140.722 Y134.736 E.00452
G1 X140.604 Y134.469 E.00931
G1 X140.497 Y134.335 E.00547
