; generated by PrusaSlicer 2.6.1+win64 on 2023-10-10 at 00:38:57 UTC

; 

; external perimeters extrusion width = 0.40mm
; perimeters extrusion width = 0.46mm
; infill extrusion width = 0.46mm
; solid infill extrusion width = 0.56mm
; top infill extrusion width = 0.40mm
; support material extrusion width = 0.46mm
; first layer extrusion width = 0.50mm

M190 S60 ; set bed temperature and wait for it to be reached


; Pre-Processed for Cancel-Object support by preprocess_cancellation v0.2.0
; 4 known objects
EXCLUDE_OBJECT_DEFINE NAME=anchor_STL_id_0_copy_0 CENTER=97.397,102.826 POLYGON=[[84.3,89.3],[84.3,117.966],[109.3,117.966],[109.3,89.3]]
EXCLUDE_OBJECT_DEFINE NAME=anchor_STL_id_0_copy_1 CENTER=128.797,102.826 POLYGON=[[115.7,89.3],[115.7,117.966],[140.7,117.966],[140.7,89.3]]
EXCLUDE_OBJECT_DEFINE NAME=anchor_STL_id_0_copy_2 CENTER=128.797,134.226 POLYGON=[[115.7,120.7],[115.7,149.366],[140.7,149.366],[140.7,120.7]]
EXCLUDE_OBJECT_DEFINE NAME=anchor_STL_id_0_copy_3 CENTER=97.397,134.226 POLYGON=[[84.3,120.7],[84.3,149.366],[109.3,149.366],[109.3,120.7]]
M104 S200 ; set temperature
;TYPE:Custom
G28 ; home all axes
G1 Z5 F5000 ; lift nozzle
M109 S200 ; set temperature and wait for it to be reached
G21 ; set units to millimeters
G90 ; use absolute coordinates
M82 ; use absolute distances for extrusion
G92 E0
; Filament gcode
M107
;LAYER_CHANGE
;Z:0.26
;HEIGHT:0.26
G1 Z.26 F18000
G1 E-.5 F2400
G92 E0
M204 S3500
G1 X81.87 Y87.179 F18000
G1 E.5 F2400
M204 S1000
;TYPE:Skirt/Brim
;WIDTH:0.5
G1 F1800
G1 X82.711 Y86.427 E.55417
G1 X83.906 Y85.734 E.6205
G1 X85.226 Y85.324 E.68687
G1 X86.168 Y85.218 E.73239
G1 X138.832 Y85.218 E3.26112
G1 X140.199 Y85.421 E3.32748
G1 X141.094 Y85.734 E3.37301
G1 X142.08 Y86.279 E3.42711
G1 X142.821 Y86.87 E3.47262
G1 X143.573 Y87.711 E3.52679
G1 X144.266 Y88.906 E3.59312
G1 X144.676 Y90.226 E3.65949
G1 X144.782 Y91.168 E3.70501
G1 X144.782 Y143.832 E6.23374
G1 X144.579 Y145.199 E6.3001
G1 X144.077 Y146.487 E6.36648
G1 X141.453 Y150.602 E6.60082
G1 X140.463 Y151.58 E6.66764
G1 X139.17 Y152.423 E6.74175
G1 X137.958 Y152.914 E6.80454
G1 X136.976 Y153.12 E6.85272
G1 X135.783 Y153.255 E6.91037
G1 X102.599 Y153.244 E8.50375
G1 X101.827 Y153.162 E8.54103
G1 X84.843 Y149.589 E9.37439
G1 X83.513 Y149.077 E9.44282
G1 X82.92 Y148.721 E9.47603
G1 X82.179 Y148.13 E9.52154
G1 X81.279 Y147.08 E9.58794
G1 X80.734 Y146.094 E9.64204
G1 X80.324 Y144.774 E9.70841
G1 X80.212 Y143.614 E9.76437
G1 X80.218 Y91.168 E12.28264
G1 X80.324 Y90.226 E12.32816
G1 X80.728 Y88.922 E12.39371
G1 X81.279 Y87.92 E12.44862
G1 X81.833 Y87.225 E12.4913
M204 S3500
G1 X82.18 Y87.502 F18000
M204 S1000
G1 F1800
G1 X82.201 Y87.475 E12.49294
G1 X82.968 Y86.79 E12.54232
G1 X84.076 Y86.144 E12.6039
G1 X85.3 Y85.762 E12.66547
G1 X86.193 Y85.661 E12.70862
G1 X138.807 Y85.661 E15.23495
G1 X139.676 Y85.758 E15.27694
G1 X140.687 Y86.046 E15.32742
G1 X141.496 Y86.436 E15.37054
G1 X142.525 Y87.201 E15.43211
G1 X143.21 Y87.968 E15.48149
G1 X143.856 Y89.076 E15.54307
G1 X144.238 Y90.3 E15.60464
G1 X144.339 Y91.193 E15.64779
G1 X144.339 Y143.807 E18.17412
G1 X144.152 Y145.076 E18.23571
G1 X143.688 Y146.272 E18.29731
G1 X141.089 Y150.347 E18.52939
G1 X140.213 Y151.214 E18.58857
G1 X138.937 Y152.045 E18.66169
G1 X137.862 Y152.48 E18.71737
G1 X135.783 Y152.811 E18.81845
G1 X102.602 Y152.8 E20.41168
G1 X101.918 Y152.727 E20.44471
G1 X84.963 Y149.162 E21.27663
G1 X83.728 Y148.688 E21.34015
G1 X83.177 Y148.359 E21.37096
G1 X82.475 Y147.799 E21.41408
G1 X81.641 Y146.823 E21.47572
G1 X81.144 Y145.924 E21.52504
G1 X80.762 Y144.7 E21.58661
G1 X80.656 Y143.614 E21.639
G1 X80.656 Y91.386 E24.1468
G1 X80.762 Y90.3 E24.19919
G1 X81.046 Y89.313 E24.24851
G1 X81.641 Y88.177 E24.31009
G1 X82.142 Y87.549 E24.34866
M204 S3500
; printing object anchor.STL id:0 copy 0
EXCLUDE_OBJECT_START NAME=anchor_STL_id_0_copy_0
G1 E23.84866 F2400
G92 E0
G1 X104.759 Y114.728 F18000
G1 E.5 F2400
M204 S1000
;TYPE:Support material
G1 F1800
G1 X105.081 Y115.05 E.52187
G1 X107.222 Y115.05 E.62467
G1 X107.516 Y115.034 E.63881
G1 X107.547 Y115.03 E.64031
G1 X107.815 Y114.985 E.65336
G1 X107.642 Y115.835 E.69501
G1 X107.273 Y116.392 E.72709
G1 X106.868 Y116.971 E.76102
G1 X106.294 Y117.364 E.79442
G1 X105.725 Y117.716 E.82655
G1 X105.004 Y117.874 E.86199
G1 X104.383 Y117.966 E.89213
G1 X103.604 Y117.834 E.93007
G1 X103.245 Y117.9 E.9476
G1 X102.623 Y117.956 E.97759
G1 X101.886 Y117.802 E1.01374
G1 X101.282 Y117.597 E1.04437
G1 X100.673 Y117.184 E1.0797
G1 X100.194 Y116.744 E1.11093
G1 X99.793 Y116.141 E1.1457
G1 X99.527 Y115.536 E1.17743
G1 X99.431 Y115.05 E1.20122
G1 X102.108 Y115.05 E1.32976
G1 X102.43 Y114.728 E1.35163
G1 X102.43 Y112.51 E1.45813
G1 X104.759 Y112.51 E1.56996
G1 X104.759 Y114.661 E1.67324
M204 S3500
G1 X107.165 Y116.194 F18000
M204 S1000
G1 F1800
G1 X107.165 Y115.45 E1.70896
G1 X106.671 Y115.45 E1.73268
G1 X106.671 Y116.555 E1.78574
G1 X106.582 Y116.682 E1.79319
G1 X106.178 Y116.959 E1.81671
G1 X106.178 Y115.45 E1.88917
G1 X105.684 Y115.45 E1.91289
G1 X105.684 Y117.271 E2.00033
G1 X105.572 Y117.34 E2.00665
G1 X105.191 Y117.424 E2.02538
G1 X105.191 Y115.45 E2.12016
G1 X104.916 Y115.45 E2.13336
G1 X104.697 Y115.231 E2.14823
G1 X104.697 Y117.516 E2.25795
G1 X104.388 Y117.562 E2.27295
G1 X104.203 Y117.53 E2.28196
G1 X104.203 Y112.91 E2.5038
G1 X103.71 Y112.91 E2.52747
G1 X103.71 Y117.446 E2.74527
G1 X103.601 Y117.427 E2.75058
G1 X103.216 Y117.499 E2.76939
G1 X103.216 Y112.91 E2.98974
G1 X102.83 Y112.91 E3.00827
G1 X102.83 Y114.893 E3.10349
G1 X102.723 Y115 E3.11076
G1 X102.723 Y117.545 E3.23296
G1 X102.647 Y117.552 E3.23662
G1 X102.229 Y117.465 E3.25712
G1 X102.229 Y115.45 E3.35387
G1 X101.736 Y115.45 E3.37754
G1 X101.736 Y117.328 E3.46771
G1 X101.462 Y117.235 E3.4816
G1 X101.242 Y117.086 E3.49436
G1 X101.242 Y115.45 E3.57291
G1 X100.748 Y115.45 E3.59663
G1 X100.748 Y116.711 E3.65718
G1 X100.5 Y116.482 E3.67339
G1 X100.255 Y116.113 E3.69466
G1 X100.255 Y115.25 E3.7361
M204 S3500
G1 E3.2361 F2400
G92 E0
G1 X100.742 Y110.822 F18000
G1 E.5 F2400
M204 S1000
;TYPE:Perimeter
G1 F1800
G1 X100.742 Y113.362 E.62196
G1 X86.418 Y113.362 E1.30975
G1 X86.258 Y113.353 E1.31744
G1 X86.144 Y113.333 E1.323
G1 X86.004 Y113.294 E1.32998
G1 X85.889 Y113.246 E1.33596
G1 X85.776 Y113.184 E1.34215
G1 X85.672 Y113.11 E1.34828
G1 X85.576 Y113.024 E1.35447
G1 X85.49 Y112.928 E1.36066
G1 X85.416 Y112.824 E1.36679
G1 X85.354 Y112.711 E1.37298
G1 X85.304 Y112.592 E1.37918
G1 X85.269 Y112.469 E1.38532
G1 X85.247 Y112.342 E1.39151
G1 X85.238 Y112.182 E1.3992
G1 X85.238 Y91.418 E2.39621
G1 X85.247 Y91.258 E2.4039
G1 X85.269 Y91.131 E2.41009
G1 X85.305 Y91.008 E2.41624
G1 X85.349 Y90.901 E2.4218
G1 X85.418 Y90.773 E2.42878
G1 X85.49 Y90.672 E2.43474
G1 X85.576 Y90.576 E2.44093
G1 X85.672 Y90.49 E2.44712
G1 X85.776 Y90.416 E2.45325
G1 X85.889 Y90.354 E2.45944
G1 X85.996 Y90.309 E2.46501
G1 X86.135 Y90.268 E2.47197
G1 X86.258 Y90.247 E2.47796
G1 X86.418 Y90.238 E2.48565
G1 X107.182 Y90.238 E3.48266
G1 X107.33 Y90.247 E3.48978
G1 X107.473 Y90.27 E3.49673
G1 X107.592 Y90.305 E3.50269
G1 X107.711 Y90.354 E3.50887
G1 X107.824 Y90.416 E3.51506
G1 X107.928 Y90.49 E3.52119
G1 X108.024 Y90.576 E3.52738
G1 X108.11 Y90.672 E3.53357
G1 X108.184 Y90.776 E3.5397
G1 X108.246 Y90.889 E3.54589
G1 X108.296 Y91.008 E3.55209
G1 X108.331 Y91.131 E3.55823
G1 X108.353 Y91.258 E3.56442
G1 X108.362 Y91.418 E3.57211
G1 X108.362 Y112.182 E4.56912
G1 X108.353 Y112.342 E4.57681
G1 X108.331 Y112.469 E4.583
G1 X108.296 Y112.592 E4.58914
G1 X108.246 Y112.711 E4.59534
G1 X108.184 Y112.824 E4.60153
G1 X108.11 Y112.928 E4.60766
G1 X108.024 Y113.024 E4.61385
G1 X107.928 Y113.11 E4.62004
G1 X107.824 Y113.184 E4.62617
G1 X107.711 Y113.246 E4.63236
G1 X107.592 Y113.296 E4.63856
G1 X107.469 Y113.331 E4.6447
G1 X107.342 Y113.353 E4.65089
G1 X107.182 Y113.362 E4.65858
G1 X106.447 Y113.362 E4.69387
G1 X106.447 Y110.822 E4.81583
G1 X100.802 Y110.822 E5.08688
M204 S3500
G1 X101.186 Y111.266 F18000
M204 S1000
G1 F1800
G1 X101.186 Y113.806 E5.20884
G1 X86.406 Y113.806 E5.91852
G1 X86.208 Y113.795 E5.92804
G1 X86.046 Y113.767 E5.93593
G1 X85.858 Y113.715 E5.9453
G1 X85.696 Y113.647 E5.95374
G1 X85.54 Y113.561 E5.96229
G1 X85.394 Y113.458 E5.97087
G1 X85.261 Y113.339 E5.97944
G1 X85.142 Y113.206 E5.98801
G1 X85.039 Y113.06 E5.99659
G1 X84.953 Y112.904 E6.00514
G1 X84.885 Y112.739 E6.01371
G1 X84.835 Y112.568 E6.02226
G1 X84.805 Y112.392 E6.03083
G1 X84.794 Y112.194 E6.04035
G1 X84.794 Y91.405 E7.03856
G1 X84.805 Y91.208 E7.04803
G1 X84.835 Y91.032 E7.0566
G1 X84.885 Y90.861 E7.06515
G1 X84.947 Y90.709 E7.07303
G1 X85.04 Y90.538 E7.08238
G1 X85.142 Y90.394 E7.09085
G1 X85.261 Y90.261 E7.09942
G1 X85.394 Y90.142 E7.10799
G1 X85.54 Y90.039 E7.11657
G1 X85.696 Y89.953 E7.12512
G1 X85.847 Y89.89 E7.13298
G1 X86.034 Y89.835 E7.14234
G1 X86.208 Y89.805 E7.15082
G1 X86.406 Y89.794 E7.16034
G1 X107.194 Y89.794 E8.1585
G1 X107.378 Y89.804 E8.16735
G1 X107.57 Y89.836 E8.1767
G1 X107.739 Y89.885 E8.18515
G1 X107.904 Y89.953 E8.19372
G1 X108.06 Y90.039 E8.20227
G1 X108.206 Y90.142 E8.21085
G1 X108.339 Y90.261 E8.21942
G1 X108.458 Y90.394 E8.22799
G1 X108.561 Y90.54 E8.23657
G1 X108.647 Y90.696 E8.24512
G1 X108.715 Y90.861 E8.25369
G1 X108.765 Y91.032 E8.26224
G1 X108.795 Y91.208 E8.27081
G1 X108.806 Y91.406 E8.28033
G1 X108.806 Y112.194 E9.27849
G1 X108.795 Y112.392 E9.28801
G1 X108.765 Y112.568 E9.29658
G1 X108.715 Y112.739 E9.30513
G1 X108.647 Y112.904 E9.3137
G1 X108.561 Y113.06 E9.32225
G1 X108.458 Y113.206 E9.33083
G1 X108.339 Y113.339 E9.3394
G1 X108.206 Y113.458 E9.34797
G1 X108.06 Y113.561 E9.35655
G1 X107.904 Y113.647 E9.3651
G1 X107.739 Y113.715 E9.37367
G1 X107.568 Y113.765 E9.38222
G1 X107.392 Y113.795 E9.39079
G1 X107.194 Y113.806 E9.40031
G1 X106.003 Y113.806 E9.4575
G1 X106.003 Y111.266 E9.57946
G1 X101.246 Y111.266 E9.80787
M204 S3500
G1 X101.63 Y111.71 F18000
M204 S1000
;TYPE:External perimeter
G1 F1800
G1 X101.63 Y114.25 E9.92983
G1 X86.393 Y114.25 E10.66146
G1 X86.158 Y114.237 E10.67276
G1 X85.949 Y114.201 E10.68294
G1 X85.713 Y114.135 E10.69471
G1 X85.503 Y114.048 E10.70562
G1 X85.303 Y113.938 E10.71658
G1 X85.117 Y113.806 E10.72753
G1 X84.947 Y113.653 E10.73851
G1 X84.794 Y113.483 E10.74949
G1 X84.662 Y113.297 E10.76044
G1 X84.552 Y113.097 E10.7714
G1 X84.465 Y112.886 E10.78236
G1 X84.401 Y112.667 E10.79332
G1 X84.363 Y112.442 E10.80428
G1 X84.35 Y112.207 E10.81558
G1 X84.35 Y91.393 E11.81499
G1 X84.363 Y91.158 E11.82629
G1 X84.401 Y90.933 E11.83725
G1 X84.465 Y90.714 E11.84821
G1 X84.546 Y90.517 E11.85844
G1 X84.663 Y90.302 E11.87019
G1 X84.794 Y90.117 E11.88107
G1 X84.947 Y89.947 E11.89205
G1 X85.117 Y89.794 E11.90303
G1 X85.303 Y89.662 E11.91398
G1 X85.503 Y89.552 E11.92494
G1 X85.699 Y89.471 E11.93512
G1 X85.934 Y89.401 E11.94689
G1 X86.158 Y89.363 E11.9578
G1 X86.393 Y89.35 E11.9691
G1 X107.207 Y89.35 E12.96851
G1 X107.426 Y89.362 E12.97904
G1 X107.668 Y89.402 E12.99082
G1 X107.886 Y89.465 E13.00172
G1 X108.097 Y89.552 E13.01268
G1 X108.297 Y89.662 E13.02364
G1 X108.483 Y89.794 E13.03459
G1 X108.653 Y89.947 E13.04557
G1 X108.806 Y90.117 E13.05655
G1 X108.938 Y90.303 E13.0675
G1 X109.048 Y90.503 E13.07846
G1 X109.135 Y90.714 E13.08942
G1 X109.199 Y90.933 E13.10038
G1 X109.237 Y91.158 E13.11134
G1 X109.25 Y91.393 E13.12264
G1 X109.25 Y112.207 E14.12205
G1 X109.237 Y112.442 E14.13335
G1 X109.199 Y112.667 E14.14431
G1 X109.135 Y112.886 E14.15527
G1 X109.048 Y113.097 E14.16623
G1 X108.938 Y113.297 E14.17719
G1 X108.805 Y113.483 E14.18817
G1 X108.653 Y113.653 E14.19912
G1 X108.483 Y113.806 E14.2101
G1 X108.297 Y113.938 E14.22105
G1 X108.097 Y114.048 E14.23201
G1 X107.886 Y114.135 E14.24297
G1 X107.667 Y114.199 E14.25393
G1 X107.442 Y114.237 E14.26489
G1 X107.207 Y114.25 E14.27619
G1 X105.559 Y114.25 E14.35532
G1 X105.559 Y111.71 E14.47728
G1 X101.69 Y111.71 E14.66306
M204 S3500
G1 X101.237 Y111.634 F18000
G1 E14.16306 F2400
G92 E0
G1 X108.215 Y91.242 F18000
G1 E.5 F2400
M204 S1000
;TYPE:Solid infill
;WIDTH:0.506144
G1 F1800
G1 X107.359 Y90.387 E.5589
M204 S3500
G1 X106.707 Y90.372 F18000
M204 S1000
G1 F1800
G1 X108.228 Y91.893 E.66361
M204 S3500
G1 X108.228 Y92.53 F18000
M204 S1000
G1 F1800
G1 X106.07 Y90.372 E.81218
M204 S3500
G1 X105.434 Y90.372 F18000
M204 S1000
G1 F1800
G1 X108.228 Y93.166 E1.00453
M204 S3500
G1 X108.228 Y93.803 F18000
M204 S1000
G1 F1800
G1 X104.797 Y90.372 E1.24074
M204 S3500
G1 X104.16 Y90.372 F18000
M204 S1000
G1 F1800
G1 X108.228 Y94.44 E1.5208
M204 S3500
G1 X108.228 Y95.077 F18000
M204 S1000
G1 F1800
G1 X103.523 Y90.372 E1.84471
M204 S3500
G1 X102.886 Y90.372 F18000
M204 S1000
G1 F1800
G1 X108.228 Y95.714 E2.21248
M204 S3500
G1 X108.228 Y96.351 F18000
M204 S1000
G1 F1800
G1 X102.249 Y90.372 E2.6241
M204 S3500
G1 X101.612 Y90.372 F18000
M204 S1000
G1 F1800
G1 X108.228 Y96.988 E3.07958
M204 S3500
G1 X108.228 Y97.625 F18000
M204 S1000
G1 F1800
G1 X100.975 Y90.372 E3.57891
M204 S3500
G1 X100.338 Y90.372 F18000
M204 S1000
G1 F1800
G1 X108.228 Y98.262 E4.12209
M204 S3500
G1 X108.228 Y98.898 F18000
M204 S1000
G1 F1800
G1 X99.702 Y90.372 E4.70906
M204 S3500
G1 X99.065 Y90.372 F18000
M204 S1000
G1 F1800
G1 X108.228 Y99.535 E5.33988
M204 S3500
G1 X108.228 Y100.172 F18000
M204 S1000
G1 F1800
G1 X98.428 Y90.372 E6.01456
M204 S3500
G1 X97.791 Y90.372 F18000
M204 S1000
G1 F1800
G1 X108.228 Y100.809 E6.73309
M204 S3500
G1 X108.228 Y101.446 F18000
M204 S1000
G1 F1800
G1 X97.154 Y90.372 E7.49548
M204 S3500
G1 X96.517 Y90.372 F18000
M204 S1000
G1 F1800
G1 X108.228 Y102.083 E8.30172
M204 S3500
G1 X108.228 Y102.72 F18000
M204 S1000
G1 F1800
G1 X95.88 Y90.372 E9.15181
M204 S3500
G1 X95.243 Y90.372 F18000
M204 S1000
G1 F1800
G1 X108.228 Y103.357 E10.04576
M204 S3500
G1 X108.228 Y103.994 F18000
M204 S1000
G1 F1800
G1 X94.606 Y90.372 E10.98356
M204 S3500
G1 X93.97 Y90.372 F18000
M204 S1000
G1 F1800
G1 X108.228 Y104.63 E11.96515
M204 S3500
G1 X108.228 Y105.267 F18000
M204 S1000
G1 F1800
G1 X93.333 Y90.372 E12.99059
M204 S3500
G1 X92.696 Y90.372 F18000
M204 S1000
G1 F1800
G1 X108.228 Y105.904 E14.05989
M204 S3500
G1 X108.228 Y106.541 F18000
M204 S1000
G1 F1800
G1 X92.059 Y90.372 E15.17304
M204 S3500
G1 X91.422 Y90.372 F18000
M204 S1000
G1 F1800
G1 X108.228 Y107.178 E16.33004
M204 S3500
G1 X108.228 Y107.815 F18000
M204 S1000
G1 F1800
G1 X90.785 Y90.372 E17.5309
M204 S3500
G1 X90.148 Y90.372 F18000
M204 S1000
G1 F1800
G1 X108.228 Y108.452 E18.77561
M204 S3500
G1 X108.228 Y109.089 F18000
M204 S1000
G1 F1800
G1 X89.511 Y90.372 E20.06418
M204 S3500
G1 X88.874 Y90.372 F18000
M204 S1000
G1 F1800
G1 X108.228 Y109.726 E21.3966
M204 S3500
G1 X108.228 Y110.362 F18000
M204 S1000
G1 F1800
G1 X88.238 Y90.372 E22.77281
M204 S3500
G1 X87.601 Y90.372 F18000
M204 S1000
G1 F1800
G1 X108.228 Y110.999 E24.19287
M204 S3500
G1 X108.228 Y111.636 F18000
M204 S1000
G1 F1800
G1 X86.964 Y90.372 E25.65678
M204 S3500
G1 X86.332 Y90.377 F18000
M204 S1000
G1 F1800
G1 X108.223 Y112.268 E27.16386
M204 S3500
G1 X108.071 Y112.753 F18000
M204 S1000
G1 F1800
G1 X106.581 Y111.262 E27.26647
M204 S3500
G1 X106.581 Y111.899 F18000
M204 S1000
G1 F1800
G1 X107.753 Y113.071 E27.34716
M204 S3500
G1 X107.268 Y113.223 F18000
M204 S1000
G1 F1800
G1 X106.581 Y112.536 E27.39446
M204 S3500
G1 X106.007 Y110.688 F18000
M204 S1000
G1 F1800
G1 X85.847 Y90.529 E28.78233
M204 S3500
G1 X85.529 Y90.848 F18000
M204 S1000
G1 F1800
G1 X105.37 Y110.688 E30.14824
M204 S3500
G1 X104.733 Y110.688 F18000
M204 S1000
G1 F1800
G1 X85.377 Y91.332 E31.4808
M204 S3500
G1 X85.372 Y91.964 F18000
M204 S1000
G1 F1800
G1 X104.096 Y110.688 E32.76985
M204 S3500
G1 X103.459 Y110.688 F18000
M204 S1000
G1 F1800
G1 X85.372 Y92.601 E34.01504
M204 S3500
G1 X85.372 Y93.238 F18000
M204 S1000
G1 F1800
G1 X102.822 Y110.688 E35.21638
M204 S3500
G1 X102.185 Y110.688 F18000
M204 S1000
G1 F1800
G1 X85.372 Y93.875 E36.37387
M204 S3500
G1 X85.372 Y94.511 F18000
M204 S1000
G1 F1800
G1 X101.549 Y110.688 E37.48757
M204 S3500
G1 X100.912 Y110.688 F18000
M204 S1000
G1 F1800
G1 X85.372 Y95.148 E38.55742
M204 S3500
G1 X85.372 Y95.785 F18000
M204 S1000
G1 F1800
G1 X100.608 Y111.022 E39.60637
M204 S3500
