; generated by PrusaSlicer 2.6.1+win64 on 2023-10-08 at 03:23:44 UTC


;
;

;
;
; 

; external perimeters extrusion width = 0.40mm
; perimeters extrusion width = 0.40mm
; infill extrusion width = 0.64mm
; solid infill extrusion width = 0.56mm
; top infill extrusion width = 0.40mm
; first layer extrusion width = 0.50mm

M73 P0 R98


; Pre-Processed for Cancel-Object support by preprocess_cancellation v0.2.0
; 3 known objects
EXCLUDE_OBJECT_DEFINE NAME=B1_card_color_3_card_stl_id_0_copy_1 CENTER=112.091,176.225 POLYGON=[[68.463,114.421],[68.463,213.344],[157.536,213.344],[157.536,114.421]]
EXCLUDE_OBJECT_DEFINE NAME=B1_card_color_3_card_stl_id_0_copy_2 CENTER=158.329,71.181 POLYGON=[[114.7,9.377],[114.7,108.3],[203.773,108.3],[203.773,9.377]]
EXCLUDE_OBJECT_DEFINE NAME=B1_card_color_3_card_stl_id_0_copy_0 CENTER=62.857,71.181 POLYGON=[[19.227,9.377],[19.227,108.3],[108.3,108.3],[108.3,9.377]]
;TYPE:Custom
M104 S0 ; Stops PS/SS from sending temp waits separately
M140 S0
M117
PRINT_START BED=60 HOTEND=215
PURGE_LINE

;; If you are passing variables to PRINT_START, comment out above line and uncomment the last 3 lines instead. (I already did this)
;; Guide: https://github.com/AndrewEllis93/Print-Tuning-Guide/blob/main/articles/passing_slicer_variables.md
;; Make sure the variable names match (for example if you use "EXTRUDER" instead of "HOTEND")
G21 ; set units to millimeters
G90 ; use absolute coordinates
M83 ; use relative distances for extrusion
; Filament gcode
M107
;LAYER_CHANGE
;Z:0.26
;HEIGHT:0.26
G1 E-.5 F2400
G1 Z.26 F18000
M204 S10000
G1 X17.068 Y10.991
G1 E.5 F2400
M204 S2000
;TYPE:Skirt/Brim
;WIDTH:0.5
G1 F1800
G1 X17.858 Y9.836 E.06719
G1 X18.591 Y8.994 E.0536
G1 X19.41 Y8.231 E.05375
G1 X20.607 Y7.362 E.07102
G1 X21.585 Y6.819 E.05371
G1 X23.337 Y6.146 E.09012
G1 X24.427 Y5.895 E.05371
G1 X25.898 Y5.741 E.07102
G1 X196.931 Y5.736 E8.21238
G1 X198.769 Y5.932 E.08875
G1 X200.197 Y6.314 E.07098
G1 X201.736 Y6.982 E.08056
G1 X202.696 Y7.558 E.05376
G1 X203.59 Y8.231 E.05373
G1 X204.916 Y9.558 E.09008
G1 X206.07 Y11.236 E.09779
G1 X206.833 Y12.95 E.09009
G1 X207.309 Y14.931 E.09783
G1 X207.407 Y16.045 E.0537
G1 X207.417 Y101.25 E4.09124
G1 X207.252 Y103.1 E.08918
G1 X207.001 Y104.191 E.05375
G1 X206.498 Y105.586 E.0712
G1 X160.261 Y210.631 E5.51087
G1 X159.701 Y211.719 E.05876
G1 X158.907 Y212.881 E.06758
G1 X158.172 Y213.726 E.05378
G1 X157.353 Y214.488 E.05371
G1 X156.157 Y215.358 E.07101
G1 X155.178 Y215.901 E.05375
G1 X153.618 Y216.516 E.08052
G1 X152.532 Y216.788 E.05376
G1 X150.666 Y216.984 E.09009
G1 X75.423 Y216.987 E3.6129
G1 X73.752 Y216.842 E.08054
G1 X72.382 Y216.516 E.06762
G1 X70.821 Y215.901 E.08056
G1 X69.843 Y215.358 E.05371
G1 X68.646 Y214.488 E.07105
G1 X67.299 Y213.136 E.09164
G1 X66.496 Y212.043 E.06512
G1 X65.771 Y210.705 E.07307
G1 X16.536 Y105.661 E5.57038
G1 X16.167 Y104.725 E.04831
G1 X15.859 Y103.649 E.05374
G1 X15.665 Y102.547 E.05373
G1 X15.583 Y101.25 E.0624
G1 X15.583 Y16.425 E4.07299
M73 P0 R97
G1 X15.691 Y14.931 E.07192
G1 X15.999 Y13.484 E.07104
G1 X16.472 Y12.158 E.0676
G1 X17.041 Y11.044 E.06006
M204 S4000
; printing object B1-card-color_3-card.stl id:0 copy 1
EXCLUDE_OBJECT_START NAME=B1_card_color_3_card_stl_id_0_copy_1
G1 E-.5 F2400
M204 S10000
G1 X113 Y119.862 F18000
G1 E.5 F2400
M204 S2000
;TYPE:Perimeter
;WIDTH:0.499999
G1 F1800
G1 X113.264 Y119.983 E.01394
G1 X113.722 Y120.052 E.02224
G1 X129.681 Y120.052 E.76629
G1 X130.61 Y120.125 E.04474
G1 X131.144 Y120.239 E.02622
G1 X131.683 Y120.414 E.02721
G1 X132.201 Y120.644 E.02721
G1 X132.692 Y120.928 E.02724
G1 X133.151 Y121.261 E.02723
G1 X133.572 Y121.64 E.0272
G1 X133.951 Y122.061 E.0272
G1 X134.284 Y122.52 E.02723
G1 X151.157 Y151.725 E1.61953
G1 X151.424 Y152.249 E.02824
G1 X151.721 Y153.088 E.04274
G1 X151.83 Y153.603 E.02528
G1 X151.9 Y154.49 E.04272
G1 X151.873 Y155.015 E.02524
G1 X151.714 Y155.871 E.04181
G1 X151.554 Y156.321 E.02293
G1 X151.321 Y156.91 E.03041
G1 X143.167 Y171.053 E.78388
G1 X143.027 Y171.376 E.0169
G1 X142.971 Y171.773 E.01925
G1 X142.733 Y171.942 E.01402
G1 X142.445 Y172.303 E.02217
G1 X134.285 Y186.418 E.78286
G1 X133.951 Y186.877 E.02726
G1 X133.572 Y187.298 E.0272
G1 X133.151 Y187.678 E.02723
G1 X132.708 Y187.999 E.02627
G1 X131.926 Y188.424 E.04274
G1 X131.417 Y188.619 E.02617
G1 X130.869 Y188.766 E.02724
G1 X130.309 Y188.855 E.02723
G1 X129.701 Y188.887 E.02923
G1 X102.356 Y188.887 E1.31301
G1 X101.915 Y188.951 E.0214
G1 X101.634 Y189.079 E.01483
G1 X101.354 Y188.951 E.01478
G1 X100.912 Y188.887 E.02144
G1 X96.298 Y188.887 E.22155
G1 X95.69 Y188.855 E.02923
G1 X95.147 Y188.769 E.0264
G1 X94.376 Y188.545 E.03855
G1 X93.792 Y188.291 E.03058
G1 X93.307 Y188.011 E.02689
G1 X92.865 Y187.69 E.02623
G1 X92.219 Y187.077 E.04276
G1 X91.876 Y186.653 E.02619
G1 X91.544 Y186.142 E.02926
G1 X83.554 Y172.303 E.7673
G1 X83.345 Y172.02 E.01689
G1 X83.029 Y171.773 E.01926
G1 X83.001 Y171.483 E.01399
G1 X82.833 Y171.053 E.02217
G1 X74.699 Y156.946 E.7819
G1 X74.366 Y156.142 E.04179
G1 X74.167 Y155.316 E.0408
G1 X74.099 Y154.449 E.04176
G1 X74.127 Y153.923 E.02529
G1 X74.289 Y153.048 E.04273
G1 X74.452 Y152.548 E.02525
G1 X74.853 Y151.707 E.04474
G1 X91.544 Y122.797 E1.60289
G1 X91.875 Y122.286 E.02923
G1 X92.232 Y121.846 E.02721
G1 X92.619 Y121.459 E.02628
G1 X93.084 Y121.102 E.02815
G1 X93.588 Y120.766 E.02909
G1 X94.071 Y120.523 E.02596
G1 X94.593 Y120.324 E.02682
G1 X95.137 Y120.179 E.02703
G1 X95.773 Y120.083 E.03088
G1 X96.277 Y120.052 E.02425
G1 X112.278 Y120.052 E.76831
G1 X112.627 Y120.012 E.01687
G1 X112.944 Y119.884 E.01642
M204 S4000
M204 S10000
G1 X113 Y119.334 F18000
M204 S2000
G1 F1800
G1 X113.395 Y119.559 E.02183
G1 X113.722 Y119.608 E.01588
G1 X129.699 Y119.608 E.76716
G1 X130.674 Y119.685 E.04696
G1 X131.259 Y119.809 E.02871
G1 X131.843 Y119.999 E.02949
G1 X132.403 Y120.248 E.02943
G1 X132.934 Y120.555 E.02945
G1 X133.431 Y120.915 E.02947
G1 X133.886 Y121.326 E.02944
G1 X134.297 Y121.782 E.02948
G1 X134.657 Y122.278 E.02943
G1 X151.547 Y151.513 E1.62119
G1 X151.833 Y152.073 E.03019
G1 X152.149 Y152.967 E.04553
G1 X152.271 Y153.539 E.02808
G1 X152.345 Y154.484 E.04551
G1 X152.315 Y155.068 E.02808
G1 X152.144 Y155.986 E.04484
G1 X151.973 Y156.469 E.0246
G1 X151.715 Y157.117 E.03349
G1 X143.551 Y171.275 E.78474
G1 X143.431 Y171.582 E.01583
G1 X143.428 Y172.037 E.02185
G1 X143.036 Y172.267 E.02182
G1 X142.83 Y172.525 E.01585
G1 X134.658 Y186.661 E.78402
G1 X134.297 Y187.157 E.02946
G1 X133.886 Y187.613 E.02948
G1 X133.431 Y188.023 E.02941
G1 X132.946 Y188.376 E.0288
G1 X132.112 Y188.828 E.04555
G1 X131.554 Y189.042 E.0287
G1 X130.961 Y189.201 E.02948
G1 X130.355 Y189.297 E.02946
G1 X129.713 Y189.331 E.03087
G1 X102.356 Y189.331 E1.31358
G1 X102.041 Y189.377 E.01529
G1 X101.634 Y189.601 E.02231
G1 X101.228 Y189.377 E.02226
G1 X100.912 Y189.331 E.01533
G1 X96.286 Y189.331 E.22212
G1 X95.644 Y189.297 E.03087
G1 X95.049 Y189.203 E.02892
G1 X94.225 Y188.963 E.04121
G1 X93.592 Y188.688 E.03314
G1 X93.065 Y188.384 E.02921
G1 X92.58 Y188.032 E.02877
G1 X91.892 Y187.379 E.04555
G1 X91.516 Y186.914 E.02871
G1 X91.165 Y186.374 E.03092
G1 X83.17 Y172.526 E.76779
G1 X82.964 Y172.267 E.01589
G1 X82.571 Y172.037 E.02186
G1 X82.568 Y171.582 E.02185
G1 X82.448 Y171.275 E.01583
G1 X74.299 Y157.142 E.78334
G1 X73.942 Y156.279 E.04484
G1 X73.727 Y155.385 E.04415
G1 X73.654 Y154.455 E.04479
G1 X73.685 Y153.871 E.02808
G1 X73.857 Y152.939 E.04551
G1 X74.038 Y152.383 E.02808
G1 X74.459 Y151.5 E.04697
G1 X91.165 Y122.564 E1.60434
G1 X91.516 Y122.025 E.03088
G1 X91.902 Y121.548 E.02946
G1 X92.325 Y121.125 E.02872
G1 X92.813 Y120.75 E.02955
G1 X93.366 Y120.381 E.03192
G1 X93.89 Y120.117 E.02817
G1 X94.456 Y119.901 E.02909
G1 X95.045 Y119.744 E.02927
G1 X95.736 Y119.64 E.03355
G1 X96.271 Y119.608 E.02573
G1 X112.278 Y119.608 E.7686
G1 X112.604 Y119.559 E.01583
G1 X112.947 Y119.364 E.01895
M204 S4000
M204 S10000
G1 X112.92 Y118.686 F18000
M204 S2000
;WIDTH:0.61711
G1 F1800
G1 X113 Y118.56 E.00906
G1 X113.09 Y118.702 E.0102
;WIDTH:0.578074
G1 X113.18 Y118.845 E.00954
;WIDTH:0.539037
G1 X113.27 Y118.987 E.00878
;WIDTH:0.499999
G1 X113.442 Y119.102 E.00993
G1 X113.722 Y119.164 E.01377
G1 X129.716 Y119.164 E.76797
G1 X130.738 Y119.244 E.04922
G1 X131.375 Y119.379 E.03127
G1 X132.002 Y119.583 E.03166
G1 X132.605 Y119.852 E.0317
G1 X133.177 Y120.182 E.03171
G1 X133.711 Y120.57 E.03169
G1 X134.201 Y121.011 E.03165
G1 X134.643 Y121.502 E.03172
G1 X135.03 Y122.036 E.03167
G1 X151.938 Y151.301 E1.62287
G1 X152.242 Y151.897 E.03213
G1 X152.578 Y152.846 E.04834
G1 X152.711 Y153.475 E.03087
G1 X152.79 Y154.478 E.04831
G1 X152.757 Y155.12 E.03087
G1 X152.575 Y156.101 E.04791
G1 X152.392 Y156.617 E.02629
G1 X152.108 Y157.324 E.03658
G1 X143.936 Y171.497 E.78556
G1 X143.876 Y171.635 E.00723
G1 X143.864 Y171.977 E.01643
;WIDTH:0.537198
G1 X143.96 Y172.136 E.00967
;WIDTH:0.574396
G1 X144.056 Y172.296 E.01046
;WIDTH:0.611594
G1 X144.152 Y172.455 E.01116
G1 X143.966 Y172.452 E.01118
;WIDTH:0.574396
G1 X143.78 Y172.448 E.01043
;WIDTH:0.537198
G1 X143.594 Y172.444 E.00968
;WIDTH:0.499999
G1 X143.407 Y172.536 E.01001
G1 X143.214 Y172.747 E.01373
G1 X135.031 Y186.903 E.78511
G1 X134.643 Y187.437 E.03169
G1 X134.201 Y187.928 E.03172
G1 X133.711 Y188.369 E.03165
G1 X133.183 Y188.752 E.03132
G1 X132.299 Y189.232 E.0483
G1 X131.691 Y189.466 E.03128
G1 X131.054 Y189.636 E.03166
G1 X130.402 Y189.74 E.0317
G1 X129.725 Y189.775 E.03255
G1 X102.356 Y189.775 E1.31416
G1 X102.212 Y189.791 E.00696
G1 X101.914 Y189.943 E.01606
;WIDTH:0.537198
G1 X101.821 Y190.109 E.0099
;WIDTH:0.574396
G1 X101.727 Y190.275 E.01069
;WIDTH:0.611594
G1 X101.634 Y190.441 E.01143
G1 X101.541 Y190.275 E.01143
;WIDTH:0.574396
G1 X101.448 Y190.109 E.01067
;WIDTH:0.537198
G1 X101.355 Y189.943 E.0099
;WIDTH:0.499999
G1 X101.183 Y189.833 E.0098
G1 X100.912 Y189.775 E.01331
G1 X96.275 Y189.775 E.22265
G1 X95.597 Y189.74 E.0326
G1 X94.952 Y189.637 E.03136
G1 X94.074 Y189.382 E.0439
G1 X93.392 Y189.086 E.0357
G1 X92.823 Y188.757 E.03156
G1 X92.295 Y188.374 E.03132
G1 X91.565 Y187.681 E.04833
G1 X91.156 Y187.176 E.0312
G1 X90.786 Y186.607 E.03259
G1 X82.785 Y172.748 E.76839
G1 X82.695 Y172.626 E.00728
G1 X82.406 Y172.445 E.01637
;WIDTH:0.537198
G1 X82.219 Y172.448 E.00973
;WIDTH:0.574396
G1 X82.033 Y172.452 E.01043
;WIDTH:0.611594
G1 X81.847 Y172.455 E.01118
G1 X81.943 Y172.296 E.01116
;WIDTH:0.574396
G1 X82.039 Y172.136 E.01046
;WIDTH:0.537198
G1 X82.136 Y171.977 E.00969
;WIDTH:0.499999
G1 X82.149 Y171.77 E.00996
G1 X82.063 Y171.497 E.01374
G1 X73.9 Y157.339 E.78472
G1 X73.518 Y156.417 E.04792
G1 X73.287 Y155.455 E.0475
G1 X73.209 Y154.461 E.04787
G1 X73.243 Y153.819 E.03087
G1 X73.426 Y152.829 E.04834
G1 X73.625 Y152.218 E.03085
G1 X74.066 Y151.293 E.0492
G1 X90.786 Y122.332 E1.60571
G1 X91.156 Y121.763 E.03259
G1 X91.571 Y121.251 E.03165
G1 X92.032 Y120.79 E.0313
G1 X92.543 Y120.398 E.03092
G1 X93.144 Y119.996 E.03472
G1 X93.71 Y119.711 E.03043
G1 X94.319 Y119.479 E.03129
G1 X94.952 Y119.31 E.03146
G1 X95.689 Y119.198 E.03579
G1 X96.266 Y119.164 E.02775
G1 X112.278 Y119.164 E.76884
G1 X112.427 Y119.146 E.00721
G1 X112.73 Y118.987 E.01643
;WIDTH:0.539037
G1 X112.82 Y118.845 E.00878
;WIDTH:0.578074
G1 X112.888 Y118.737 E.00721
M204 S4000
G1 E-.5 F2400
M204 S10000
G1 X69.397 Y178.372 F18000
G1 E.5 F2400
M204 S2000
;WIDTH:0.489806
G1 F1800
G1 X69.54 Y178.633 E.01396
;WIDTH:0.456361
G1 X69.684 Y178.893 E.01287
;WIDTH:0.422916
G1 X69.815 Y179.015 E.0071
G1 X69.684 Y179.137 E.0071
;WIDTH:0.448052
G1 X69.536 Y179.493 E.01635
;WIDTH:0.473188
G1 X69.388 Y179.849 E.01739
G1 X69.376 Y179.432 E.01882
;WIDTH:0.448052
G1 X69.363 Y179.015 E.01769
;WIDTH:0.456361
G1 X69.38 Y178.694 E.01392
;WIDTH:0.489806
G1 X69.393 Y178.432 E.01231
M204 S4000
G1 E-.5 F2400
M204 S10000
G1 X93.423 Y203.424 F18000
G1 E.5 F2400
M204 S2000
;WIDTH:0.644879
G1 F1800
G1 X93.687 Y203.222 E.02117
G1 X93.724 Y203.129 E.00637
;WIDTH:0.645082
G1 X95.818 Y203.128 E.13339
G1 X95.818 Y203.718 E.03758
G1 X93.723 Y203.718 E.13345
;WIDTH:0.644879
G1 X93.687 Y203.625 E.00635
G1 X93.47 Y203.46 E.01736
M204 S4000
G1 E-.5 F2400
M204 S10000
G1 X88.603 Y203.637 F18000
G1 E.5 F2400
M204 S2000
;WIDTH:0.48355
G1 F1800
G1 X88.603 Y203.21 E.01974
G1 X92.501 Y203.21 E.18024
;WIDTH:0.499999
G1 X93.022 Y203.088 E.02569
G1 X93.31 Y202.868 E.0174
G1 X93.411 Y202.612 E.01321
G1 X96.335 Y202.612 E.1404
G1 X96.335 Y204.235 E.07793
G1 X93.411 Y204.235 E.1404
G1 X93.31 Y203.979 E.01321
G1 X93.022 Y203.759 E.0174
G1 X92.501 Y203.637 E.02569
;WIDTH:0.48355
G1 X89.945 Y203.637 E.11818
;WIDTH:0.493523
G1 X89.754 Y203.649 E.00906
;WIDTH:0.525885
G1 X89.473 Y203.731 E.01487
G1 X89.391 Y203.686 E.00475
G1 X88.663 Y203.641 E.03706
M204 S4000
G1 E-.5 F2400
M204 S10000
G1 X97.006 Y204.679 F18000
G1 E.5 F2400
M204 S2000
;WIDTH:0.499999
G1 F1800
G1 X93.143 Y204.679 E.18549
G1 X92.986 Y204.283 E.02045
G1 X92.814 Y204.151 E.01041
G1 X92.501 Y204.073 E.01549
G1 X89.945 Y204.073 E.12273
G1 X89.83 Y204.083 E.00554
G1 X89.548 Y204.204 E.01473
G1 X89.473 Y204.354 E.00805
G1 X89.398 Y204.204 E.00805
G1 X89.233 Y204.115 E.009
G1 X89.001 Y204.073 E.01132
G1 X88.167 Y204.073 E.04005
G1 X88.167 Y202.774 E.06237
G1 X92.501 Y202.774 E.2081
G1 X92.814 Y202.696 E.01549
G1 X92.986 Y202.564 E.01041
G1 X93.143 Y202.168 E.02045
G1 X96.887 Y202.167 E.17977
G1 X96.779 Y202.296 E.00808
G1 X96.779 Y204.451 E.10348
G1 X96.964 Y204.636 E.01256
M204 S4000
G1 E-.5 F2400
M204 S10000
G1 X101.209 Y208.762 F18000
G1 E.5 F2400
M204 S2000
;WIDTH:0.583696
G1 F1800
G1 X101.209 Y208.616 E.00833
;WIDTH:0.619887
G1 X101.202 Y208.431 E.01129
;WIDTH:0.656078
G1 X101.194 Y208.247 E.01195
;WIDTH:0.692269
G1 X101.187 Y208.063 E.01267
G1 X101.089 Y207.924 E.0117
G1 X101.187 Y207.785 E.0117
G1 X101.194 Y207.674 E.00765
;WIDTH:0.656078
G1 X101.202 Y207.562 E.00729
;WIDTH:0.619887
G1 X101.209 Y207.451 E.00678
;WIDTH:0.583696
G1 X101.209 Y205.345 E.12018
G1 X101.024 Y205.16 E.01493
G1 X101.501 Y205.16 E.02722
G1 X101.645 Y205.086 E.00924
;WIDTH:0.546587
G1 X101.79 Y205.013 E.00861
;WIDTH:0.509479
G1 X101.934 Y204.94 E.00792
G1 X101.868 Y205.075 E.00737
;WIDTH:0.546587
G1 X101.803 Y205.21 E.00795
;WIDTH:0.583696
G1 X101.737 Y205.345 E.00857
G1 X101.737 Y207.451 E.12018
;WIDTH:0.619887
G1 X101.744 Y207.562 E.00678
;WIDTH:0.656078
G1 X101.752 Y207.674 E.00729
;WIDTH:0.692269
G1 X101.759 Y207.785 E.00765
G1 X101.857 Y207.924 E.0117
G1 X101.759 Y208.063 E.0117
G1 X101.726 Y208.221 E.0111
;WIDTH:0.647767
G1 X101.731 Y208.492 E.01734
;WIDTH:0.615731
G1 X101.737 Y208.762 E.01635
;WIDTH:0.583696
G1 X101.669 Y208.792 E.00424
;WIDTH:0.588897
G1 X101.547 Y208.974 E.01263
;WIDTH:0.611594
G1 X101.473 Y209.266 E.0181
G1 X101.399 Y208.974 E.0181
;WIDTH:0.588897
G1 X101.277 Y208.792 E.01263
;WIDTH:0.583696
G1 X101.264 Y208.787 E.00079
M204 S4000
G1 E-.5 F2400
M204 S10000
G1 X102.195 Y212.419 F18000
G1 E.5 F2400
M204 S2000
;WIDTH:0.473188
G1 F1800
G1 X101.834 Y212.442 E.01632
;WIDTH:0.42825
G1 X101.473 Y212.464 E.01456
;WIDTH:0.418812
G1 X101.296 Y212.447 E.00698
;WIDTH:0.454313
G1 X101.119 Y212.429 E.00766
;WIDTH:0.489814
G1 X100.942 Y212.411 E.00835
G1 X101.087 Y212.33 E.00779
;WIDTH:0.454313
G1 X101.231 Y212.25 E.0071
;WIDTH:0.418812
G1 X101.376 Y212.169 E.00652
;WIDTH:0.383311
G1 X101.473 Y212.068 E.00496
G1 X101.57 Y212.169 E.00496
;WIDTH:0.42825
G1 X101.883 Y212.294 E.01357
;WIDTH:0.473188
G1 X102.14 Y212.397 E.01249
M204 S4000
G1 E-.5 F2400
M204 S10000
G1 X89.709 Y207.628 F18000
G1 E.5 F2400
M204 S2000
;TYPE:External perimeter
;WIDTH:0.645923
G1 F1800
G1 X89.709 Y206.666 E.06137
;WIDTH:0.606582
G1 X89.709 Y205.703 E.05733
;WIDTH:0.56724
G1 X89.709 Y204.74 E.05324
;WIDTH:0.527898
G1 X89.813 Y204.561 E.01056
;WIDTH:0.499999
G1 X89.945 Y204.518 E.00667
G1 X92.501 Y204.518 E.12273
G1 X92.663 Y204.588 E.00847
G1 X92.723 Y204.74 E.00785
G1 X92.723 Y205.123 E.01839
G1 X93.901 Y205.123 E.05656
G1 X96.552 Y205.123 E.12729
;WIDTH:0.502597
G1 X97.445 Y205.122 E.04313
G1 X100.501 Y205.122 E.1476
G1 X100.723 Y205.345 E.0152
;WIDTH:0.499999
G1 X100.723 Y207.451 E.10112
G1 X100.66 Y207.606 E.00803
;WIDTH:0.527897
