; generated by PrusaSlicer 2.6.1+win64 on 2023-10-09 at 01:17:07 UTC

; 

; external perimeters extrusion width = 0.40mm
; perimeters extrusion width = 0.46mm
; infill extrusion width = 0.46mm
; solid infill extrusion width = 0.56mm
; top infill extrusion width = 0.40mm
; support material extrusion width = 0.46mm
; first layer extrusion width = 0.50mm

; external perimeters extrusion width = 0.40mm
; perimeters extrusion width = 0.46mm
; infill extrusion width = 0.46mm
; solid infill extrusion width = 0.56mm
; top infill extrusion width = 0.40mm
; support material extrusion width = 0.46mm
; first layer extrusion width = 0.50mm

; external perimeters extrusion width = 0.40mm
; perimeters extrusion width = 0.46mm
; infill extrusion width = 0.46mm
; solid infill extrusion width = 0.56mm
; top infill extrusion width = 0.40mm
; support material extrusion width = 0.46mm
; first layer extrusion width = 0.50mm

M190 S60 ; set bed temperature and wait for it to be reached


; Pre-Processed for Cancel-Object support by preprocess_cancellation v0.2.0
; 3 known objects
EXCLUDE_OBJECT_DEFINE NAME=B1_arm_forearm_R_id_2_copy_0 CENTER=80.338,123.756 POLYGON=[[74.445,91.412],[74.445,146.016],[93.119,146.016],[93.119,91.412]]
EXCLUDE_OBJECT_DEFINE NAME=B1_frame_Standard_id_0_copy_0 CENTER=111.759,114.281 POLYGON=[[97.912,62.913],[97.912,172.084],[127.094,172.084],[127.094,62.913]]
EXCLUDE_OBJECT_DEFINE NAME=B1_arm_forearm_L_id_1_copy_0 CENTER=139.644,117.225 POLYGON=[[126.875,85.117],[126.875,139.726],[145.549,139.726],[145.549,85.117]]
M104 S200 ; set temperature
;TYPE:Custom
G28 ; home all axes
G1 Z5 F5000 ; lift nozzle
M109 S200 ; set temperature and wait for it to be reached
G21 ; set units to millimeters
G90 ; use absolute coordinates
M82 ; use absolute distances for extrusion
G92 E0
; Filament gcode
M107
;LAYER_CHANGE
;Z:0.26
;HEIGHT:0.26
G1 Z.26 F18000
G1 E-2 F2400
G92 E0
M204 S3500
G1 X81.158 Y80.666 F18000
G1 E2 F2400
M204 S1000
;TYPE:Skirt/Brim
;WIDTH:0.5
G1 F1800
G1 X101.895 Y59.803 E3.41244
G1 X103.618 Y58.575 E3.51403
G1 X105.545 Y57.648 E3.61671
G1 X106.76 Y57.253 E3.67806
G1 X107.918 Y57 E3.73497
G1 X110.142 Y56.824 E3.84209
G1 X111.377 Y56.896 E3.90149
G1 X112.512 Y57.076 E3.95667
G1 X114.03 Y57.48 E4.0321
G1 X115.58 Y58.123 E4.11268
G1 X117.162 Y59.05 E4.20072
G1 X145.155 Y80.768 E5.90194
G1 X146.25 Y82.136 E5.98608
G1 X146.585 Y83.21 E6.0401
G1 X147.859 Y91.411 E6.43861
G1 X151.593 Y128.209 E8.21459
G1 X151.588 Y129.91 E8.29627
G1 X150.484 Y138.023 E8.68942
G1 X150.151 Y139.412 E8.758
G1 X149.448 Y140.977 E8.84038
G1 X127.356 Y174.107 E10.7524
G1 X126.326 Y175.274 E10.82714
G1 X124.961 Y176.313 E10.90951
G1 X124.173 Y176.746 E10.95268
G1 X123.187 Y177.138 E11.00363
G1 X121.342 Y177.531 E11.09421
G1 X120.014 Y177.556 E11.15799
G1 X118.615 Y177.356 E11.22585
G1 X117.302 Y176.939 E11.292
G1 X116.115 Y176.34 E11.35584
G1 X73.511 Y150.291 E13.75361
G1 X72.492 Y149.561 E13.8138
G1 X71.373 Y148.448 E13.88958
G1 X70.82 Y147.705 E13.93405
G1 X70.246 Y146.709 E13.98925
G1 X69.764 Y145.465 E14.05331
G1 X69.465 Y144.007 E14.12477
G1 X68.406 Y136.205 E14.50283
G1 X68.4 Y134.504 E14.58451
G1 X72.135 Y97.706 E16.36049
G1 X73.409 Y89.506 E16.75895
G1 X74.488 Y87.376 E16.8736
G1 X81.115 Y80.709 E17.32497
M204 S3500
G1 X81.43 Y81.022 F18000
M204 S1000
G1 F1800
G1 X102.181 Y60.143 E18.73843
G1 X103.84 Y58.96 E18.83627
G1 X105.701 Y58.063 E18.93547
G1 X106.877 Y57.681 E18.99484
G1 X107.994 Y57.438 E19.04973
G1 X110.139 Y57.268 E19.15305
G1 X111.327 Y57.338 E19.21019
G1 X112.438 Y57.514 E19.2642
G1 X113.886 Y57.9 E19.33616
G1 X115.204 Y58.431 E19.40439
G1 X116.906 Y59.413 E19.49874
G1 X144.88 Y81.117 E21.19882
G1 X145.891 Y82.418 E21.27793
G1 X146.146 Y83.28 E21.32109
G1 X147.417 Y91.456 E21.71839
G1 X151.151 Y128.252 E23.49427
G1 X151.192 Y129.148 E23.53734
G1 X151.128 Y130.02 E23.57932
G1 X150.048 Y137.938 E23.96303
G1 X149.734 Y139.259 E24.02823
G1 X149.064 Y140.755 E24.10694
G1 X127.006 Y173.834 E26.01602
G1 X126.026 Y174.946 E26.08719
G1 X124.742 Y175.926 E26.16475
G1 X123.986 Y176.343 E26.20621
G1 X123.033 Y176.721 E26.25544
G1 X121.295 Y177.09 E26.34075
G1 X120.044 Y177.113 E26.40083
G1 X118.719 Y176.924 E26.4651
G1 X117.474 Y176.53 E26.5278
G1 X116.347 Y175.961 E26.58842
G1 X73.743 Y149.912 E28.98619
G1 X72.761 Y149.208 E29.04421
G1 X71.703 Y148.15 E29.11605
G1 X71.2 Y147.474 E29.15651
G1 X70.644 Y146.51 E29.20994
G1 X70.191 Y145.345 E29.26996
G1 X69.904 Y143.94 E29.33882
G1 X68.849 Y136.165 E29.71557
G1 X68.843 Y134.547 E29.79326
G1 X72.577 Y97.751 E31.56914
G1 X73.848 Y89.575 E31.96644
G1 X74.804 Y87.689 E32.06797
G1 X81.388 Y81.064 E32.51645
M204 S3500
G1 E30.51645 F2400
G92 E0
G1 X125.954 Y101.731 F18000
G1 E2 F2400
M204 S1000
G1 F1800
G1 X125.963 Y101.711 E2.00105
G1 X126.02 Y101.618 E2.00629
G1 X126.033 Y101.6 E2.00736
G1 X126.226 Y101.389 E2.02109
G1 X126.242 Y101.375 E2.02211
G1 X126.33 Y101.31 E2.02736
G1 X126.349 Y101.299 E2.02841
G1 X126.942 Y101.023 E2.05982
G1 X126.963 Y101.015 E2.0609
G1 X127.069 Y100.989 E2.06614
G1 X127.09 Y100.986 E2.06716
G1 X127.376 Y100.974 E2.0809
G1 X127.398 Y100.975 E2.08196
G1 X127.506 Y100.992 E2.08721
G1 X127.527 Y100.997 E2.08825
G1 X131.971 Y102.614 E2.31532
G1 X131.991 Y102.624 E2.31639
G1 X132.084 Y102.681 E2.32163
G1 X132.102 Y102.694 E2.3227
G1 X132.312 Y102.887 E2.3364
G1 X132.327 Y102.903 E2.33745
G1 X132.392 Y102.991 E2.3427
G1 X132.403 Y103.01 E2.34375
G1 X132.679 Y103.603 E2.37516
G1 X132.801 Y103.95 E2.39282
G1 X133.141 Y103.625 E2.4154
G1 X133.296 Y103.507 E2.42475
G1 X133.117 Y101.16 E2.53777
G1 X133.117 Y101.138 E2.53883
G1 X133.13 Y101.029 E2.5441
G1 X133.135 Y101.008 E2.54514
G1 X133.224 Y100.736 E2.55888
G1 X133.233 Y100.716 E2.55993
G1 X133.286 Y100.621 E2.56515
G1 X133.299 Y100.603 E2.56622
G1 X133.725 Y100.107 E2.59761
G1 X133.741 Y100.092 E2.59866
G1 X133.827 Y100.024 E2.60392
G1 X133.845 Y100.012 E2.60496
G1 X134.1 Y99.883 E2.61868
G1 X134.121 Y99.875 E2.61976
G1 X134.226 Y99.846 E2.62499
G1 X134.247 Y99.842 E2.62602
G1 X142.876 Y99.183 E3.04156
G1 X142.898 Y99.184 E3.04262
G1 X143.007 Y99.197 E3.04789
G1 X143.028 Y99.202 E3.04893
G1 X143.3 Y99.291 E3.06267
G1 X143.32 Y99.3 E3.06372
G1 X143.415 Y99.353 E3.06894
G1 X143.433 Y99.366 E3.07001
G1 X143.929 Y99.792 E3.1014
G1 X143.944 Y99.807 E3.10242
G1 X144.012 Y99.893 E3.10768
G1 X144.023 Y99.912 E3.10873
G1 X144.153 Y100.167 E3.12247
G1 X144.161 Y100.187 E3.1235
G1 X144.19 Y100.293 E3.12878
G1 X144.194 Y100.314 E3.12981
G1 X144.883 Y109.348 E3.56485
G1 X144.883 Y109.369 E3.56586
G1 X144.87 Y109.478 E3.57113
G1 X144.865 Y109.499 E3.57217
G1 X144.776 Y109.771 E3.58591
G1 X144.767 Y109.791 E3.58696
G1 X144.714 Y109.886 E3.59218
G1 X144.701 Y109.904 E3.59325
G1 X144.224 Y110.46 E3.62843
G1 X144.342 Y110.624 E3.63813
G1 X144.414 Y110.738 E3.6446
G1 X144.543 Y110.978 E3.65768
G1 X144.597 Y111.098 E3.664
G1 X144.769 Y111.574 E3.6883
G1 X144.807 Y111.711 E3.69513
G1 X144.823 Y111.794 E3.69919
G1 X147.271 Y128.544 E4.51201
G1 X147.302 Y129.059 E4.53678
G1 X147.302 Y129.168 E4.54201
G1 X147.276 Y129.476 E4.55685
G1 X147.256 Y129.601 E4.56293
G1 X147.146 Y130.07 E4.58606
G1 X147.093 Y130.232 E4.59424
G1 X146.878 Y130.714 E4.61958
G1 X146.828 Y130.803 E4.62448
G1 X146.682 Y131.036 E4.63768
G1 X146.604 Y131.143 E4.64404
G1 X146.303 Y131.496 E4.66632
G1 X146.193 Y131.608 E4.67386
G1 X145.996 Y131.781 E4.68645
G1 X145.933 Y131.831 E4.69031
G1 X145.604 Y132.067 E4.70975
G1 X145.344 Y132.292 E4.72626
G1 X145.118 Y132.545 E4.74255
G1 X144.912 Y132.827 E4.75932
G1 X144.858 Y132.888 E4.76323
G1 X144.756 Y132.982 E4.76989
G1 X144.699 Y133.025 E4.77332
G1 X144.307 Y133.263 E4.79534
G1 X144.338 Y133.597 E4.81145
G1 X144.541 Y133.706 E4.82251
G1 X145.256 Y134.143 E4.86275
G1 X145.295 Y134.171 E4.86506
G1 X145.37 Y134.233 E4.86973
G1 X145.405 Y134.266 E4.87204
G1 X145.565 Y134.442 E4.88346
G1 X145.604 Y134.492 E4.8865
G1 X145.658 Y134.571 E4.89109
G1 X145.689 Y134.627 E4.89416
G1 X145.947 Y135.16 E4.92259
G1 X146.013 Y135.333 E4.93148
G1 X146.152 Y135.808 E4.95524
G1 X146.188 Y135.987 E4.96401
G1 X146.252 Y136.53 E4.99026
G1 X146.255 Y136.641 E4.99559
G1 X146.242 Y137.059 E5.01567
G1 X146.222 Y137.24 E5.02441
G1 X146.1 Y137.851 E5.05433
G1 X146.066 Y137.964 E5.06
G1 X145.915 Y138.374 E5.08098
G1 X145.88 Y138.454 E5.08517
G1 X145.76 Y138.696 E5.09814
G1 X145.707 Y138.789 E5.10328
G1 X145.424 Y139.218 E5.12796
G1 X145.337 Y139.332 E5.13485
G1 X144.951 Y139.747 E5.16206
G1 X144.866 Y139.825 E5.1676
G1 X144.531 Y140.094 E5.18823
G1 X144.442 Y140.158 E5.19349
G1 X144.221 Y140.298 E5.20605
G1 X144.115 Y140.358 E5.2119
G1 X143.647 Y140.58 E5.23677
G1 X143.494 Y140.637 E5.24461
G1 X143.021 Y140.773 E5.26824
G1 X142.859 Y140.807 E5.27619
G1 X142.429 Y140.864 E5.29702
G1 X142.335 Y140.87 E5.30154
G1 X142.03 Y140.876 E5.31619
G1 X141.938 Y140.871 E5.32061
G1 X141.396 Y140.816 E5.34677
G1 X141.276 Y140.791 E5.35266
G1 X140.761 Y140.652 E5.37827
G1 X140.627 Y140.602 E5.38514
G1 X140.148 Y140.384 E5.41041
G1 X140.047 Y140.328 E5.41596
G1 X139.662 Y140.079 E5.43798
G1 X139.598 Y140.031 E5.44182
G1 X139.395 Y139.868 E5.45432
G1 X139.316 Y139.796 E5.45945
G1 X138.946 Y139.413 E5.48502
G1 X138.842 Y139.286 E5.4929
G1 X138.562 Y138.88 E5.51658
G1 X138.489 Y138.758 E5.52341
G1 X138.253 Y138.26 E5.54987
G1 X138.201 Y138.122 E5.55695
G1 X138.048 Y137.58 E5.58399
G1 X138.028 Y137.473 E5.58922
G1 X137.968 Y137.007 E5.61178
G1 X137.963 Y136.893 E5.61726
G1 X137.974 Y136.368 E5.64247
G1 X137.987 Y136.249 E5.64822
G1 X138.064 Y135.804 E5.6699
G1 X138.089 Y135.703 E5.6749
G1 X138.219 Y135.27 E5.69661
G1 X138.235 Y135.227 E5.69881
G1 X138.274 Y135.142 E5.7033
G1 X138.295 Y135.102 E5.70547
G1 X138.425 Y134.897 E5.71713
G1 X138.452 Y134.861 E5.71929
G1 X138.512 Y134.79 E5.72375
G1 X138.544 Y134.756 E5.72599
G1 X139.145 Y134.215 E5.76482
G1 X139.345 Y134.056 E5.77709
G1 X139.306 Y133.64 E5.79715
G1 X139.101 Y133.563 E5.80766
G1 X139.042 Y133.535 E5.8108
G1 X138.9 Y133.449 E5.81877
G1 X138.844 Y133.405 E5.82219
G1 X138.408 Y133 E5.85076
G1 X138.133 Y132.805 E5.86695
G1 X138.038 Y132.751 E5.8722
G1 X137.727 Y132.612 E5.88856
G1 X137.106 Y132.429 E5.91965
G1 X136.978 Y132.383 E5.92618
G1 X136.496 Y132.165 E5.95158
G1 X136.401 Y132.111 E5.95683
G1 X136.156 Y131.953 E5.97083
G1 X136.054 Y131.876 E5.97697
G1 X135.694 Y131.563 E5.99988
G1 X135.659 Y131.529 E6.00222
G1 X135.562 Y131.423 E6.00912
G1 X135.269 Y131.049 E6.03193
G1 X135.22 Y130.979 E6.03603
G1 X135.147 Y130.857 E6.04286
G1 X134.93 Y130.426 E6.06603
G1 X134.877 Y130.297 E6.07273
G1 X134.85 Y130.217 E6.07678
G1 X134.724 Y129.761 E6.0995
G1 X134.709 Y129.692 E6.10289
G1 X134.688 Y129.556 E6.1095
G1 X134.29 Y124.465 E6.3547
G1 X134.292 Y124.394 E6.35811
G1 X134.308 Y124.261 E6.36454
G1 X134.323 Y124.191 E6.36798
G1 X134.423 Y123.882 E6.38357
G1 X134.455 Y123.808 E6.38744
G1 X134.523 Y123.688 E6.39406
G1 X134.569 Y123.621 E6.39796
G1 X135.126 Y122.972 E6.43903
G1 X134.366 Y113.009 E6.91881
G1 X134.368 Y112.546 E6.94104
G1 X134.383 Y112.371 E6.94947
G1 X134.482 Y111.857 E6.9746
G1 X134.511 Y111.755 E6.97969
G1 X134.594 Y111.511 E6.99207
G1 X134.7 Y111.255 E7.00537
G1 X134.071 Y110.716 E7.04514
G1 X134.056 Y110.7 E7.04619
G1 X133.988 Y110.614 E7.05145
G1 X133.977 Y110.596 E7.05246
G1 X133.847 Y110.341 E7.0662
G1 X133.84 Y110.32 E7.06726
G1 X133.81 Y110.215 E7.0725
G1 X133.806 Y110.193 E7.07357
G1 X133.691 Y108.683 E7.14628
G1 X132.5 Y108.242 E7.20726
G1 X132.48 Y108.233 E7.20831
G1 X132.387 Y108.176 E7.21355
G1 X132.37 Y108.163 E7.21458
G1 X132.161 Y107.969 E7.22827
G1 X132.146 Y107.953 E7.22932
G1 X132.082 Y107.865 E7.23454
G1 X132.071 Y107.846 E7.23559
G1 X131.797 Y107.255 E7.26687
G1 X131.79 Y107.234 E7.26793
G1 X131.707 Y106.892 E7.28483
G1 X131.42 Y107.103 E7.30193
G1 X131.401 Y107.114 E7.30298
G1 X130.809 Y107.39 E7.33434
G1 X130.788 Y107.397 E7.3354
G1 X130.682 Y107.423 E7.34064
G1 X130.66 Y107.426 E7.34171
G1 X130.374 Y107.439 E7.35546
G1 X130.353 Y107.438 E7.35647
G1 X130.245 Y107.421 E7.36172
G1 X130.223 Y107.416 E7.3628
G1 X125.78 Y105.798 E7.58984
G1 X125.76 Y105.789 E7.59089
G1 X125.666 Y105.732 E7.59617
G1 X125.649 Y105.719 E7.5972
G1 X125.438 Y105.526 E7.61093
G1 X125.424 Y105.51 E7.61195
G1 X125.359 Y105.421 E7.61724
G1 X125.348 Y105.403 E7.61825
G1 X125.071 Y104.81 E7.64968
G1 X125.064 Y104.789 E7.65074
G1 X125.038 Y104.683 E7.65598
G1 X125.035 Y104.661 E7.65705
G1 X125.023 Y104.376 E7.67075
G1 X125.024 Y104.354 E7.67181
G1 X125.04 Y104.246 E7.67705
G1 X125.046 Y104.225 E7.6781
G1 X125.933 Y101.787 E7.80267
M204 S3500
G1 E5.80267 F2400
G92 E0
G1 X133.077 Y104.387 F18000
G1 E2 F2400
M204 S1000
G1 F1800
G1 X133.094 Y104.341 E2.00235
G1 X133.105 Y104.318 E2.00357
G1 X133.175 Y104.211 E2.00971
G1 X133.191 Y104.192 E2.0109
G1 X133.434 Y103.96 E2.02703
G1 X133.454 Y103.944 E2.02826
G1 X133.565 Y103.879 E2.03444
G1 X133.588 Y103.869 E2.03564
G1 X133.765 Y103.814 E2.04454
G1 X133.562 Y101.159 E2.1724
G1 X133.567 Y101.115 E2.17453
G1 X133.636 Y100.906 E2.1851
G1 X133.657 Y100.867 E2.18723
G1 X134.041 Y100.421 E2.21549
G1 X134.075 Y100.394 E2.21757
G1 X134.272 Y100.294 E2.22818
G1 X134.314 Y100.283 E2.23026
G1 X142.877 Y99.629 E2.64262
G1 X142.921 Y99.634 E2.64475
G1 X143.13 Y99.703 E2.65532
G1 X143.168 Y99.724 E2.6574
G1 X143.615 Y100.107 E2.68566
G1 X143.642 Y100.142 E2.68778
G1 X143.742 Y100.338 E2.69835
G1 X143.753 Y100.381 E2.70048
G1 X144.438 Y109.349 E3.13235
G1 X144.433 Y109.392 E3.13443
G1 X144.364 Y109.602 E3.14504
G1 X144.343 Y109.64 E3.14712
G1 X143.959 Y110.086 E3.17538
G1 X143.925 Y110.113 E3.17746
G1 X143.548 Y110.304 E3.19775
G1 X143.973 Y110.87 E3.23174
G1 X144.026 Y110.955 E3.23655
G1 X144.148 Y111.181 E3.24888
G1 X144.189 Y111.272 E3.25367
G1 X144.348 Y111.715 E3.27627
G1 X144.376 Y111.819 E3.28144
G1 X144.385 Y111.864 E3.28364
G1 X146.83 Y128.598 E4.09568
G1 X146.858 Y129.077 E4.11872
G1 X146.857 Y129.155 E4.12247
G1 X146.834 Y129.429 E4.13567
G1 X146.819 Y129.523 E4.14024
G1 X146.716 Y129.958 E4.1617
G1 X146.677 Y130.076 E4.16767
G1 X146.484 Y130.508 E4.19039
G1 X146.448 Y130.573 E4.19396
G1 X146.318 Y130.782 E4.20578
G1 X146.26 Y130.862 E4.21052
G1 X145.97 Y131.202 E4.23198
G1 X145.893 Y131.28 E4.23724
G1 X145.715 Y131.437 E4.24864
G1 X145.67 Y131.473 E4.25141
G1 X145.329 Y131.718 E4.27157
G1 X145.032 Y131.975 E4.29043
G1 X144.772 Y132.265 E4.30913
G1 X144.561 Y132.555 E4.32635
G1 X144.546 Y132.571 E4.3274
G1 X144.465 Y132.646 E4.3327
G1 X144.447 Y132.659 E4.33377
G1 X144.2 Y132.808 E4.34762
G1 X144.181 Y132.818 E4.34865
G1 X144.077 Y132.855 E4.35395
G1 X144.056 Y132.861 E4.355
G1 X143.827 Y132.895 E4.36612
G1 X143.917 Y133.877 E4.41347
G1 X144.316 Y134.089 E4.43516
G1 X145.005 Y134.51 E4.47393
G1 X145.08 Y134.57 E4.47854
G1 X145.091 Y134.581 E4.47929
G1 X145.231 Y134.735 E4.48928
G1 X145.241 Y134.747 E4.49003
G1 X145.293 Y134.827 E4.49461
G1 X145.543 Y135.345 E4.52223
G1 X145.59 Y135.466 E4.52846
G1 X145.723 Y135.924 E4.55136
G1 X145.748 Y136.048 E4.55743
G1 X145.808 Y136.553 E4.58185
G1 X145.81 Y136.635 E4.58579
G1 X145.798 Y137.037 E4.6051
G1 X145.784 Y137.163 E4.61119
G1 X145.671 Y137.735 E4.63919
G1 X145.647 Y137.818 E4.64334
G1 X145.501 Y138.213 E4.66356
G1 X145.477 Y138.269 E4.66649
G1 X145.365 Y138.493 E4.67852
G1 X145.332 Y138.551 E4.68172
G1 X145.058 Y138.967 E4.70564
G1 X145.004 Y139.038 E4.70992
G1 X144.633 Y139.438 E4.73612
G1 X144.574 Y139.491 E4.73993
G1 X144.267 Y139.737 E4.75882
G1 X144.198 Y139.786 E4.76288
G1 X143.988 Y139.92 E4.77484
G1 X143.917 Y139.96 E4.77875
G1 X143.48 Y140.168 E4.80199
G1 X143.361 Y140.213 E4.8081
G1 X142.906 Y140.344 E4.83083
G1 X142.793 Y140.368 E4.83638
G1 X142.379 Y140.422 E4.85643
G1 X142.321 Y140.426 E4.85922
G1 X142.043 Y140.432 E4.87257
G1 X141.976 Y140.429 E4.87579
G1 X141.471 Y140.378 E4.90016
G1 X141.384 Y140.361 E4.90442
G1 X140.887 Y140.226 E4.92915
G1 X140.804 Y140.195 E4.9334
G1 X140.341 Y139.984 E4.95783
G1 X140.271 Y139.945 E4.96168
G1 X139.92 Y139.718 E4.98175
G1 X139.873 Y139.683 E4.98456
G1 X139.679 Y139.526 E4.99654
G1 X139.629 Y139.481 E4.99977
G1 X139.283 Y139.124 E5.02364
G1 X139.202 Y139.026 E5.02974
