; generated by PrusaSlicer 2.6.1+win64 on 2023-10-05 at 18:11:47 UTC


;
;
; 

; external perimeters extrusion width = 0.45mm
; perimeters extrusion width = 0.45mm
; infill extrusion width = 0.45mm
; solid infill extrusion width = 0.45mm
; top infill extrusion width = 0.40mm
; support material extrusion width = 0.35mm
; first layer extrusion width = 0.42mm

M73 P0 R10


; Pre-Processed for Cancel-Object support by preprocess_cancellation v0.2.0
; 1 known objects
EXCLUDE_OBJECT_DEFINE NAME=BO_Hanger_stl_id_0_copy_0 CENTER=110.162,111.735 POLYGON=[[95.759,95.765],[95.759,124.24],[124.235,124.24],[124.235,95.765]]
;TYPE:Custom
M104 S230 ; set extruder temp
M140 S85 ; set bed temp
M190 S85 ; wait for bed temp
M109 S230 ; wait for extruder temp
G28;
G1 Z4.0 F3000 ;Move Z Axis up
G92 E0 ;Reset Extruder
G1 X5.1 Y20 Z0.28 F5000.0 ;Move to start position
G1 X5.1 Y30.0 Z0.28 F1500.0 E1 ;Draw a short bit in case the extruder turns in the wrong direction
G1 X5.1 Y200.0 Z0.28 F1500.0 E15 ;Draw the first line
G1 X5.4 Y200.0 Z0.28 F5000.0 ;Move to side a little
M73 P1 R10
G1 X5.4 Y20 Z0.28 F1500.0 E30 ;Draw the second line
G92 E0 ;Reset Extruder
G1 Z2.0 F3000 ;Move Z Axis up
G21 ; set units to millimeters
G90 ; use absolute coordinates
M83 ; use relative distances for extrusion
; Filament gcode
M107
;LAYER_CHANGE
;Z:0.2
;HEIGHT:0.2
;BEFORE_LAYER_CHANGE
G92 E0.0
;0.2


M73 P2 R10
G1 E-1 F2400
G1 Z.2 F720
;AFTER_LAYER_CHANGE
;0.2
G1 Z.4
G1 X97.963 Y97.688 F10800
G1 Z.2 F720
G1 E1 F2400
M204 S800
;TYPE:Skirt/Brim
;WIDTH:0.42
G1 F1200
G1 X99.283 Y96.523 E.0552
G1 X100.846 Y95.417 E.06004
G1 X102.521 Y94.491 E.06001
G1 X103.536 Y94.041 E.03481
G1 X105.2 Y93.465 E.05521
G1 X107.065 Y93.034 E.06002
G1 X108.967 Y92.813 E.06004
G1 X110.367 Y92.79 E.0439
G1 X111.987 Y92.897 E.0509
G1 X113.873 Y93.223 E.06001
G1 X115.711 Y93.757 E.06001
G1 X117.341 Y94.425 E.05523
G1 X118.876 Y95.25 E.05464
G1 X119.951 Y95.948 E.04019
G1 X121.449 Y97.139 E.06
G1 X122.703 Y98.376 E.05523
G1 X123.426 Y99.219 E.03482
G1 X124.54 Y100.775 E.06
G1 X125.406 Y102.309 E.05523
G1 X126.165 Y104.066 E.06001
G1 X126.724 Y105.897 E.06003
G1 X126.954 Y106.983 E.03481
G1 X127.174 Y108.731 E.05524
G1 X127.209 Y110.644 E.05999
G1 X127.132 Y111.752 E.03482
G1 X126.832 Y113.642 E.06
G1 X126.372 Y115.343 E.05525
G1 X125.678 Y117.126 E.05999
G1 X124.791 Y118.822 E.06001
M73 P3 R10
G1 X124.192 Y119.757 E.03482
G1 X123.121 Y121.156 E.05524
G1 X121.802 Y122.543 E.06001
G1 X120.97 Y123.278 E.03481
G1 X119.429 Y124.413 E.06001
G1 X117.771 Y125.37 E.06002
G1 X116.161 Y126.084 E.05522
G1 X114.338 Y126.668 E.06002
G1 X113.255 Y126.913 E.03481
G1 X111.358 Y127.17 E.06002
G1 X109.598 Y127.219 E.0552
G1 X108.489 Y127.157 E.03483
G1 X106.595 Y126.883 E.06
G1 X104.742 Y126.401 E.06003
G1 X103.095 Y125.778 E.05521
G1 X101.387 Y124.915 E.06
G1 X100.444 Y124.329 E.03481
G1 X98.913 Y123.18 E.06002
G1 X97.625 Y121.978 E.05524
G1 X96.372 Y120.531 E.06002
G1 X95.566 Y119.387 E.04388
G1 X94.742 Y117.987 E.05093
G1 X93.95 Y116.244 E.06003
G1 X93.397 Y114.572 E.05522
G1 X92.992 Y112.701 E.06002
G1 X92.854 Y111.6 E.03479
G1 X92.782 Y109.687 E.06002
G1 X92.924 Y107.778 E.06002
G1 X93.24 Y106.046 E.0552
G1 X93.53 Y104.974 E.03482
G1 X94.19 Y103.177 E.06002
G1 X94.97 Y101.598 E.05522
G1 X95.995 Y99.982 E.06
G1 X96.67 Y99.1 E.03482
G1 X97.922 Y97.732 E.05814
M204 S1000
G1 X98.2 Y97.986 F10800
M204 S800
G1 F1200
G1 X99.629 Y96.731 E.05963
G1 X101.053 Y95.732 E.05454
G1 X102.693 Y94.827 E.05873
G1 X103.67 Y94.394 E.03351
G1 X105.314 Y93.824 E.05456
G1 X107.138 Y93.404 E.05869
G1 X108.998 Y93.189 E.05871
G1 X110.356 Y93.167 E.04258
G1 X111.935 Y93.271 E.04962
G1 X113.78 Y93.589 E.0587
G1 X115.578 Y94.11 E.05869
G1 X117.188 Y94.77 E.05456
G1 X118.686 Y95.575 E.05332
G1 X119.726 Y96.251 E.03889
G1 X121.192 Y97.415 E.05869
G1 X122.431 Y98.637 E.05456
G1 X123.127 Y99.448 E.03351
G1 X124.217 Y100.97 E.0587
G1 X125.131 Y102.604 E.0587
G1 X125.814 Y104.204 E.05455
G1 X126.36 Y105.995 E.05871
G1 X126.581 Y107.041 E.03352
G1 X126.798 Y108.767 E.05454
G1 X126.832 Y110.639 E.0587
G1 X126.757 Y111.705 E.03351
G1 X126.465 Y113.554 E.05869
G1 X126.011 Y115.234 E.05456
G1 X125.331 Y116.979 E.05872
G1 X124.462 Y118.637 E.05869
G1 X123.886 Y119.537 E.0335
G1 X122.828 Y120.918 E.05455
G1 X121.538 Y122.275 E.05871
G1 X120.736 Y122.981 E.0335
G1 X119.23 Y124.093 E.0587
G1 X117.726 Y124.97 E.05459
G1 X116.018 Y125.735 E.05868
G1 X114.235 Y126.305 E.05869
G1 X113.192 Y126.541 E.03353
G1 X111.337 Y126.793 E.0587
G1 X109.598 Y126.842 E.05455
G1 X108.531 Y126.782 E.03351
M73 P4 R10
G1 X106.678 Y126.516 E.0587
G1 X104.866 Y126.045 E.0587
G1 X103.238 Y125.43 E.05457
G1 X101.568 Y124.584 E.0587
G1 X100.66 Y124.02 E.03351
G1 X99.162 Y122.897 E.0587
G1 X97.89 Y121.71 E.05455
G1 X96.665 Y120.294 E.05871
G1 X95.883 Y119.183 E.0426
G1 X95.08 Y117.82 E.0496
G1 X94.305 Y116.116 E.05869
G1 X93.758 Y114.464 E.05456
G1 X93.363 Y112.634 E.0587
G1 X93.23 Y111.573 E.03353
G1 X93.159 Y109.703 E.05867
G1 X93.28 Y107.967 E.05456
G1 X93.609 Y106.124 E.0587
G1 X93.888 Y105.092 E.03352
G1 X94.533 Y103.334 E.05871
G1 X95.368 Y101.659 E.05868
G1 X96.307 Y100.194 E.05456
G1 X96.957 Y99.345 E.03353
G1 X98.159 Y98.03 E.05586
M204 S1000
; printing object BO_Hanger.stl id:0 copy 0
EXCLUDE_OBJECT_START NAME=BO_Hanger_stl_id_0_copy_0
;WIPE_START
G1 F8640
G1 X99.629 Y96.731 E-.51767
G1 X101.053 Y95.732 E-.45903
G1 X101.13 Y95.689 E-.0233
;WIPE_END
G1 Z.4 F720
G1 X103.468 Y97.984 F10800
G1 Z.2 F720
G1 E1 F2400
M204 S800
;TYPE:Perimeter
;WIDTH:0.419999
G1 F1200
G1 X104.113 Y97.654 E.02272
G1 X104.809 Y97.346 E.02386
G1 X105.52 Y97.077 E.02384
G1 X106.246 Y96.848 E.02387
G1 X106.982 Y96.66 E.02382
G1 X107.729 Y96.513 E.02387
G1 X108.482 Y96.407 E.02384
G1 X109.24 Y96.344 E.02385
G1 X110 Y96.323 E.02384
G1 X110.597 Y96.339 E.01873
G1 X111.113 Y96.378 E.01622
G1 X111.926 Y96.464 E.02563
G1 X112.656 Y96.588 E.02322
G1 X113.392 Y96.755 E.02366
G1 X114.121 Y96.964 E.02378
G1 X114.838 Y97.212 E.02379
G1 X115.541 Y97.501 E.02383
G1 X116.226 Y97.828 E.0238
G1 X116.893 Y98.193 E.02384
G1 X117.539 Y98.594 E.02384
G1 X118.161 Y99.03 E.02382
G1 X118.758 Y99.501 E.02384
G1 X119.328 Y100.003 E.02381
G1 X119.869 Y100.537 E.02383
G1 X120.38 Y101.1 E.02384
G1 X120.859 Y101.691 E.02385
G1 X121.304 Y102.307 E.02383
G1 X121.714 Y102.947 E.02383
G1 X122.088 Y103.609 E.02384
G1 X122.425 Y104.291 E.02385
G1 X122.723 Y104.99 E.02383
G1 X122.982 Y105.705 E.02384
G1 X123.201 Y106.433 E.02384
G1 X123.379 Y107.172 E.02383
G1 X123.515 Y107.92 E.02384
G1 X123.61 Y108.674 E.02383
G1 X123.663 Y109.433 E.02386
G1 X123.673 Y110.193 E.02383
G1 X123.668 Y110.573 E.01192
G1 X123.615 Y111.332 E.02386
G1 X123.52 Y112.086 E.02383
G1 X123.384 Y112.835 E.02387
G1 X123.206 Y113.574 E.02383
G1 X122.987 Y114.302 E.02384
G1 X122.728 Y115.018 E.02387
G1 X122.429 Y115.717 E.02384
G1 X122.093 Y116.399 E.02384
G1 X121.718 Y117.061 E.02386
G1 X121.308 Y117.702 E.02386
G1 X120.863 Y118.318 E.02383
G1 X120.384 Y118.909 E.02385
G1 X119.873 Y119.472 E.02384
G1 X119.331 Y120.006 E.02386
G1 X118.761 Y120.509 E.02384
G1 X118.163 Y120.98 E.02387
G1 X117.541 Y121.417 E.02383
G1 X116.895 Y121.818 E.02384
G1 X116.228 Y122.183 E.02384
G1 X115.541 Y122.51 E.02386
G1 X114.837 Y122.799 E.02386
G1 X114.119 Y123.048 E.02383
G1 X113.387 Y123.257 E.02387
G1 X112.646 Y123.425 E.02382
G1 X111.895 Y123.551 E.02388
G1 X111.14 Y123.635 E.02382
G1 X110.38 Y123.678 E.02387
G1 X109.62 Y123.678 E.02383
G1 X108.86 Y123.635 E.02387
G1 X108.104 Y123.551 E.02385
G1 X107.354 Y123.425 E.02385
G1 X106.613 Y123.257 E.02382
G1 X105.881 Y123.048 E.02387
G1 X105.163 Y122.799 E.02383
G1 X104.459 Y122.51 E.02386
G1 X103.772 Y122.183 E.02386
G1 X103.105 Y121.818 E.02384
G1 X102.459 Y121.417 E.02384
G1 X101.836 Y120.98 E.02386
G1 X101.239 Y120.509 E.02384
G1 X100.669 Y120.006 E.02384
G1 X100.127 Y119.472 E.02386
G1 X99.616 Y118.909 E.02384
G1 X99.137 Y118.318 E.02385
G1 X98.692 Y117.702 E.02383
G1 X98.282 Y117.061 E.02386
G1 X97.907 Y116.399 E.02386
G1 X97.571 Y115.717 E.02384
G1 X97.272 Y115.018 E.02384
G1 X97.013 Y114.302 E.02387
G1 X96.794 Y113.574 E.02384
G1 X96.616 Y112.835 E.02383
G1 X96.48 Y112.086 E.02387
G1 X96.385 Y111.332 E.02383
G1 X96.332 Y110.573 E.02386
G1 X96.321 Y109.813 E.02383
G1 X96.353 Y109.053 E.02385
G1 X96.427 Y108.296 E.02385
G1 X96.543 Y107.544 E.02386
G1 X96.7 Y106.8 E.02384
G1 X96.899 Y106.066 E.02384
G1 X97.138 Y105.344 E.02385
G1 X97.417 Y104.636 E.02386
G1 X97.734 Y103.945 E.02384
G1 X98.09 Y103.273 E.02384
G1 X98.482 Y102.621 E.02385
M73 P5 R10
G1 X98.91 Y101.993 E.02383
G1 X99.373 Y101.389 E.02386
G1 X99.868 Y100.811 E.02386
G1 X100.394 Y100.263 E.02382
G1 X100.95 Y99.744 E.02385
G1 X101.535 Y99.257 E.02387
G1 X102.145 Y98.803 E.02384
G1 X102.643 Y98.473 E.01873
G1 X103.416 Y98.013 E.0282
M204 S1000
G1 X103.297 Y97.648 F10800
M204 S800
;TYPE:External perimeter
G1 F1200
G1 X103.951 Y97.314 E.02303
G1 X104.666 Y96.997 E.02452
G1 X105.397 Y96.721 E.0245
G1 X106.142 Y96.485 E.0245
G1 X106.899 Y96.292 E.02449
G1 X107.666 Y96.141 E.02451
G1 X108.44 Y96.032 E.02451
G1 X109.219 Y95.967 E.02451
G1 X110 Y95.946 E.0245
G1 X110.616 Y95.963 E.01932
G1 X111.141 Y96.001 E.0165
G1 X111.978 Y96.091 E.02639
G1 X112.729 Y96.218 E.02388
G1 X113.485 Y96.39 E.02431
G1 X114.234 Y96.604 E.02442
G1 X114.971 Y96.86 E.02446
G1 X115.693 Y97.156 E.02447
G1 X116.398 Y97.492 E.02449
G1 X117.083 Y97.867 E.02449
G1 X117.746 Y98.279 E.02447
G1 X118.386 Y98.728 E.02451
G1 X119 Y99.211 E.02449
G1 X119.585 Y99.728 E.02448
G1 X120.142 Y100.276 E.0245
G1 X120.666 Y100.855 E.02448
G1 X121.158 Y101.462 E.0245
G1 X121.616 Y102.095 E.0245
G1 X122.037 Y102.753 E.02449
G1 X122.421 Y103.433 E.02449
G1 X122.767 Y104.133 E.02448
G1 X123.074 Y104.852 E.02451
G1 X123.34 Y105.587 E.02451
G1 X123.565 Y106.335 E.02449
G1 X123.747 Y107.094 E.02447
G1 X123.888 Y107.863 E.02451
G1 X123.985 Y108.638 E.02449
G1 X124.04 Y109.417 E.02449
G1 X124.05 Y110.198 E.02449
G1 X124.045 Y110.589 E.01226
G1 X123.991 Y111.369 E.02451
G1 X123.893 Y112.144 E.02449
G1 X123.753 Y112.913 E.02451
G1 X123.57 Y113.673 E.02451
G1 X123.345 Y114.421 E.02449
G1 X123.079 Y115.156 E.02451
G1 X122.772 Y115.875 E.02451
G1 X122.426 Y116.575 E.02448
G1 X122.042 Y117.256 E.02451
G1 X121.62 Y117.914 E.02451
G1 X121.162 Y118.547 E.0245
G1 X120.67 Y119.155 E.02452
G1 X120.145 Y119.733 E.02448
G1 X119.589 Y120.282 E.0245
G1 X119.003 Y120.799 E.0245
G1 X118.389 Y121.283 E.02451
G1 X117.749 Y121.732 E.02451
G1 X117.085 Y122.144 E.0245
M73 P5 R9
G1 X116.399 Y122.519 E.02451
G1 X115.694 Y122.855 E.02449
G1 X114.971 Y123.152 E.02451
G1 X114.232 Y123.408 E.02452
G1 X113.481 Y123.622 E.02448
G1 X112.718 Y123.795 E.02453
G1 X111.948 Y123.924 E.02448
G1 X111.171 Y124.011 E.02451
G1 X110.391 Y124.055 E.0245
G1 X109.609 Y124.055 E.02452
G1 X108.829 Y124.011 E.0245
G1 X108.052 Y123.924 E.02451
G1 X107.282 Y123.795 E.02448
G1 X106.519 Y123.622 E.02453
G1 X105.768 Y123.408 E.02448
G1 X105.029 Y123.152 E.02452
G1 X104.306 Y122.855 E.02451
G1 X103.601 Y122.519 E.02449
G1 X102.915 Y122.144 E.02451
G1 X102.251 Y121.732 E.0245
G1 X101.611 Y121.283 E.02451
G1 X100.997 Y120.799 E.02451
G1 X100.411 Y120.282 E.0245
G1 X99.855 Y119.733 E.0245
G1 X99.33 Y119.155 E.02448
G1 X98.838 Y118.547 E.02452
G1 X98.38 Y117.914 E.0245
G1 X97.958 Y117.256 E.02451
G1 X97.574 Y116.575 E.02451
G1 X97.228 Y115.875 E.02448
G1 X96.921 Y115.156 E.02451
G1 X96.655 Y114.421 E.02451
G1 X96.43 Y113.673 E.02449
G1 X96.247 Y112.913 E.02451
G1 X96.107 Y112.144 E.02451
G1 X96.009 Y111.369 E.02449
G1 X95.955 Y110.589 E.02451
G1 X95.944 Y109.807 E.02452
G1 X95.977 Y109.027 E.02448
G1 X96.053 Y108.249 E.02451
G1 X96.172 Y107.476 E.02452
G1 X96.333 Y106.712 E.02448
G1 X96.537 Y105.957 E.02452
G1 X96.783 Y105.215 E.02451
G1 X97.07 Y104.488 E.02451
G1 X97.396 Y103.778 E.0245
G1 X97.761 Y103.087 E.0245
G1 X98.165 Y102.418 E.0245
G1 X98.605 Y101.772 E.02451
G1 X99.08 Y101.151 E.02451
G1 X99.588 Y100.558 E.02448
G1 X100.129 Y99.994 E.0245
G1 X100.701 Y99.461 E.02451
G1 X101.301 Y98.96 E.02451
G1 X101.928 Y98.494 E.02449
G1 X102.443 Y98.154 E.01935
G1 X103.244 Y97.676 E.02925
M204 S1000
G1 X103.638 Y97.856 F10800
;WIPE_START
G1 F8640
G1 X103.951 Y97.314 E-.2096
G1 X104.666 Y96.997 E-.20639
G1 X105.397 Y96.721 E-.20619
G1 X106.142 Y96.485 E-.20623
G1 X106.772 Y96.324 E-.17159
;WIPE_END
G1 Z.4 F720
G1 X117.931 Y99.071 F10800
G1 Z.2 F720
G1 E1 F2400
M204 S800
;TYPE:Solid infill
;WIDTH:0.423976
G1 F1200
G1 X119.881 Y101.04 E.0878
G1 X120.364 Y101.603 E.0235
G1 X120.814 Y102.191 E.02346
G1 X121.392 Y103.071 E.03336
G1 X116.926 Y98.605 E.20012
G1 X116.401 Y98.298 E.01927
G1 X115.746 Y97.963 E.02331
G1 X122.032 Y104.25 E.28169
G1 X122.271 Y104.769 E.0181
M73 P6 R9
G1 X122.439 Y105.195 E.01451
G1 X114.807 Y97.564 E.34196
G1 X113.98 Y97.275 E.02776
G1 X122.731 Y106.026 E.39213
G1 X122.942 Y106.776 E.02469
G1 X113.23 Y97.064 E.43519
G1 X112.538 Y96.911 E.02246
G1 X123.094 Y107.467 E.47301
G1 X123.202 Y108.114 E.02078
G1 X111.89 Y96.802 E.50688
G1 X111.282 Y96.732 E.01939
G1 X123.274 Y108.725 E.53738
G1 X123.318 Y109.308 E.01852
G1 X110.706 Y96.696 E.56513
G1 X110.137 Y96.666 E.01805
G1 X123.339 Y109.867 E.59155
G1 X123.331 Y110.399 E.01686
M73 P7 R9
G1 X109.606 Y96.673 E.61503
G1 X109.091 Y96.697 E.01634
G1 X123.304 Y110.911 E.6369
G1 X123.264 Y111.409 E.01583
G1 X108.593 Y96.739 E.65737
G1 X108.117 Y96.801 E.01521
G1 X123.203 Y111.888 E.67602
G1 X123.127 Y112.35 E.01484
G1 X107.651 Y96.874 E.69347
G1 X107.201 Y96.963 E.01453
G1 X123.042 Y112.804 E.70982
G1 X122.937 Y113.238 E.01415
M73 P8 R9
G1 X106.765 Y97.066 E.72466
G1 X106.336 Y97.175 E.01402
G1 X122.824 Y113.664 E.73884
G1 X122.7 Y114.078 E.01369
G1 X105.926 Y97.305 E.75161
G1 X105.522 Y97.439 E.01349
G1 X122.562 Y114.479 E.76355
G1 X122.418 Y114.875 E.01335
G1 X105.131 Y97.587 E.77464
G1 X104.749 Y97.744 E.01309
M73 P9 R9
G1 X122.258 Y115.254 E.78459
G1 X122.095 Y115.629 E.01296
G1 X104.375 Y97.909 E.79402
G1 X104.013 Y98.086 E.01277
G1 X121.916 Y115.99 E.80224
G1 X121.733 Y116.345 E.01265
G1 X103.657 Y98.269 E.80997
G1 X103.316 Y98.467 E.01249
G1 X121.539 Y116.69 E.81656
G1 X121.337 Y117.027 E.01245
M73 P10 R9
G1 X102.979 Y98.669 E.82261
G1 X102.648 Y98.877 E.01239
G1 X121.127 Y117.356 E.82803
G1 X120.908 Y117.676 E.01229
G1 X102.325 Y99.092 E.83271
G1 X102.015 Y99.322 E.01223
G1 X120.682 Y117.989 E.83645
G1 X120.447 Y118.292 E.01215
G1 X101.708 Y99.554 E.83966
G1 X101.414 Y99.799 E.01213
M73 P11 R9
G1 X120.206 Y118.59 E.84203
G1 X119.954 Y118.877 E.0121
G1 X101.123 Y100.047 E.84378
G1 X100.845 Y100.307 E.01206
G1 X119.698 Y119.16 E.84479
G1 X119.431 Y119.432 E.01208
G1 X100.569 Y100.57 E.84519
G1 X100.305 Y100.845 E.01208
G1 X119.159 Y119.699 E.84483
G1 X118.876 Y119.955 E.01209
M73 P12 R9
G1 X100.046 Y101.125 E.84376
G1 X99.797 Y101.415 E.01211
G1 X118.59 Y120.208 E.8421
G1 X118.291 Y120.448 E.01215
G1 X99.554 Y101.71 E.83961
G1 X99.32 Y102.016 E.01221
G1 X117.99 Y120.685 E.83657
G1 X117.674 Y120.909 E.01227
M73 P13 R9
G1 X99.093 Y102.327 E.83262
G1 X98.875 Y102.648 E.01229
G1 X117.358 Y121.131 E.82821
G1 X117.025 Y121.338 E.01242
G1 X98.664 Y102.977 E.82274
G1 X98.462 Y103.313 E.01242
G1 X116.692 Y121.543 E.81687
G1 X116.343 Y121.733 E.01259
G1 X98.269 Y103.659 E.80988
G1 X98.083 Y104.012 E.01264
M73 P14 R9
G1 X115.991 Y121.92 E.80244
G1 X115.626 Y122.094 E.01281
G1 X97.909 Y104.377 E.79389
G1 X97.74 Y104.746 E.01286
G1 X115.254 Y122.261 E.78481
G1 X114.872 Y122.418 E.01309
G1 X97.586 Y105.132 E.77457
G1 X97.437 Y105.521 E.0132
M73 P14 R8
G1 X114.479 Y122.564 E.76366
G1 X114.079 Y122.703 E.01342
M73 P15 R8
G1 X97.303 Y105.926 E.75174
G1 X97.176 Y106.339 E.01369
G1 X113.663 Y122.825 E.73875
G1 X113.241 Y122.942 E.01388
G1 X97.062 Y106.763 E.72497
G1 X96.962 Y107.202 E.01427
G1 X112.801 Y123.041 E.70973
G1 X112.351 Y123.13 E.01453
G1 X96.87 Y107.649 E.69369
G1 X96.798 Y108.116 E.01497
M73 P16 R8
G1 X111.89 Y123.208 E.67626
G1 X111.407 Y123.264 E.01541
G1 X96.739 Y108.595 E.65728
G1 X96.691 Y109.087 E.01566
G1 X110.912 Y123.308 E.63723
G1 X110.402 Y123.336 E.01618
G1 X96.67 Y109.604 E.61532
