; generated by PrusaSlicer 2.6.1+win64 on 2023-10-06 at 02:27:21 UTC


;
;
; 

; external perimeters extrusion width = 0.45mm
; perimeters extrusion width = 0.45mm
; infill extrusion width = 0.45mm
; solid infill extrusion width = 0.45mm
; top infill extrusion width = 0.40mm
; support material extrusion width = 0.35mm
; first layer extrusion width = 0.42mm

M73 P0 R39


; Pre-Processed for Cancel-Object support by preprocess_cancellation v0.2.0
; 1 known objects
EXCLUDE_OBJECT_DEFINE NAME=Single_Attachment_Mount_id_0_copy_0 CENTER=99.980,116.781 POLYGON=[[78.285,109.419],[78.285,137.4],[124.35,137.4],[124.35,109.419]]
;TYPE:Custom
M104 S200 ; set extruder temp
M140 S60 ; set bed temp
M190 S60 ; wait for bed temp
M109 S200 ; wait for extruder temp
G28;
G1 Z4.0 F3000 ;Move Z Axis up
G92 E0 ;Reset Extruder
G1 X5.1 Y20 Z0.28 F5000.0 ;Move to start position
G1 X5.1 Y30.0 Z0.28 F1500.0 E1 ;Draw a short bit in case the extruder turns in the wrong direction
G1 X5.1 Y200.0 Z0.28 F1500.0 E15 ;Draw the first line
G1 X5.4 Y200.0 Z0.28 F5000.0 ;Move to side a little
M73 P0 R38
G1 X5.4 Y20 Z0.28 F1500.0 E30 ;Draw the second line
G92 E0 ;Reset Extruder
G1 Z2.0 F3000 ;Move Z Axis up
G21 ; set units to millimeters
G90 ; use absolute coordinates
M83 ; use relative distances for extrusion
; Filament gcode
M107
;LAYER_CHANGE
;Z:0.3
;HEIGHT:0.3
;BEFORE_LAYER_CHANGE
G92 E0.0
;0.3


G1 E-.5 F2400
G1 Z.3 F720
;AFTER_LAYER_CHANGE
;0.3
G1 X88.038 Y107.431 F10800
G1 E.5 F2400
M204 S800
;TYPE:Skirt/Brim
;WIDTH:0.42
G1 F1200
G1 X89.6 Y106.839 E.07409
G1 X115.43 Y106.839 E1.14568
G1 X116.992 Y107.431 E.07409
G1 X124.441 Y114.029 E.44137
G1 X125.005 Y114.593 E.03538
G1 X125.592 Y115.341 E.04217
G1 X126.076 Y116.16 E.0422
G1 X126.499 Y117.181 E.04902
G1 X126.781 Y118.382 E.05472
G1 X126.86 Y119.367 E.04383
G1 X126.511 Y120.68 E.06026
G1 X125.454 Y121.6 E.06215
G1 X84.656 Y139.556 E1.9771
G1 X83.708 Y139.756 E.04297
G1 X80.938 Y139.734 E.12287
G1 X77.945 Y139.304 E.13412
G1 X76.714 Y138.729 E.06026
G1 X76.006 Y137.57 E.06024
G1 X75.935 Y136.802 E.03421
G1 X76.311 Y131.626 E.23019
G1 X78.236 Y118.461 E.59014
G1 X78.581 Y117.035 E.06507
G1 X78.886 Y116.298 E.03538
G1 X79.333 Y115.501 E.04053
G1 X80.245 Y114.358 E.06486
G1 X87.993 Y107.471 E.4598
M204 S1000
; printing object Single Attachment Mount id:0 copy 0
EXCLUDE_OBJECT_START NAME=Single_Attachment_Mount_id_0_copy_0
;WIPE_START
G1 F8640
G1 X89.6 Y106.839 E-.45569
G1 X89.768 Y106.839 E-.04431
;WIPE_END
G1 X79.543 Y132.126 F10800
G1 E.5 F2400
M204 S800
;TYPE:Support material interface
;WIDTH:0.35
M73 P1 R38
G1 F1200
G1 X79.444 Y132.126 E.00353
G1 X79.444 Y136.74 E.16437
G1 X79.696 Y136.74 E.00898
G1 X79.696 Y132.126 E.16437
G1 X80.204 Y132.126 E.0181
G1 X80.204 Y136.74 E.16437
G1 X80.711 Y136.74 E.01806
G1 X80.711 Y134.001 E.09757
G1 X80.876 Y134.169 E.00839
G1 X81.075 Y134.289 E.00828
M204 S1000
G1 X80.77 Y133.358 F10800
M204 S800
;TYPE:Support material
;WIDTH:0.42
G1 F1200
G1 X81.013 Y133.592 E.01496
G1 X81.107 Y133.646 E.00481
G1 X81.335 Y133.715 E.01057
G1 X82.5 Y133.725 E.05168
G1 X82.5 Y133.976 E.01113
G1 X82.465 Y134.011 E.0022
G1 X81.438 Y134.011 E.04555
G1 X81.275 Y133.983 E.00734
G1 X81.124 Y133.902 E.0076
G1 X80.98 Y133.757 E.00906
G1 X80.846 Y133.552 E.01086
G1 X80.778 Y133.385 E.008
M204 S1000
G1 X82.232 Y134.374 F10800
M204 S800
;TYPE:Support material interface
;WIDTH:0.35
G1 F1200
G1 X82.232 Y134.433 E.0021
G1 X81.725 Y134.433 E.01806
G1 X81.725 Y134.374 E.0021
G1 X81.423 Y134.374 E.01076
G1 X81.218 Y134.343 E.00739
G1 X81.218 Y134.433 E.00321
G1 X81.112 Y134.433 E.00378
G1 X81.092 Y134.718 E.01018
G1 X81.218 Y134.736 E.00453
G1 X81.218 Y136.74 E.07139
G1 X81.725 Y136.74 E.01806
G1 X81.725 Y134.764 E.07039
G1 X82.232 Y134.764 E.01806
G1 X82.232 Y136.74 E.07039
G1 X82.739 Y136.74 E.01806
G1 X82.739 Y134.64 E.07481
G1 X82.947 Y134.433 E.01045
G1 X82.739 Y134.433 E.00741
G1 X82.739 Y134.251 E.00648
G1 X82.864 Y134.126 E.0063
G1 X82.864 Y132.126 E.07125
G1 X83.246 Y132.126 E.01361
G1 X83.246 Y136.74 E.16437
G1 X83.753 Y136.74 E.01806
G1 X83.753 Y132.126 E.16437
G1 X84.058 Y132.126 E.01087
G1 X84.058 Y136.74 E.16437
G1 X83.907 Y136.74 E.00538
M204 S1000
G1 X84.004 Y137.103 F10800
M204 S800
;TYPE:Support material
;WIDTH:0.42
G1 F1200
G1 X83.708 Y137.4 E.0186
G1 X81.329 Y137.4 E.10552
G1 X81.108 Y137.384 E.00983
G1 X79.182 Y137.103 E.08633
G1 X83.951 Y137.103 E.21153
M204 S1000
G1 X84.422 Y136.686 F10800
M204 S800
G1 F1200
G1 X84.422 Y131.796 E.2169
G1 X89.311 Y131.796 E.21685
G1 X84.46 Y136.648 E.30432
M204 S1000
G1 X88.29 Y132.591 F10800
M204 S800
G1 F1200
G1 X88.29 Y132.116 E.02107
G1 X87.895 Y132.116 E.01752
G1 X87.895 Y132.76 E.02856
G1 X87.5 Y133.155 E.02478
G1 X87.5 Y132.116 E.04608
G1 X87.105 Y132.116 E.01752
G1 X87.105 Y133.55 E.0636
G1 X86.71 Y133.945 E.02478
G1 X86.71 Y132.116 E.08112
G1 X86.315 Y132.116 E.01752
G1 X86.315 Y134.341 E.09869
G1 X85.92 Y134.736 E.02478
G1 X85.92 Y132.116 E.11621
G1 X85.524 Y132.116 E.01756
G1 X85.524 Y135.131 E.13373
G1 X85.129 Y135.526 E.02478
G1 X85.129 Y131.956 E.15835
M204 S1000
;WIPE_START
G1 F8640
G1 X85.129 Y133.851 E-.5
;WIPE_END
G1 X79.081 Y134.586 F10800
G1 E.5 F2400
M204 S800
G1 F1200
G1 X79.081 Y137.089 E.11102
G1 X78.285 Y136.973 E.03568
G1 X78.66 Y131.796 E.23023
G1 X79.081 Y131.796 E.01867
G1 X79.081 Y134.533 E.1214
M204 S1000
;WIPE_START
G1 F8640
G1 X79.081 Y132.638 E-.5
;WIPE_END
G1 X81.729 Y119.093 F10800
G1 E.5 F2400
M204 S800
;TYPE:Perimeter
;WIDTH:0.42
G1 F1200
G1 X81.694 Y119.162 E.00343
G1 X81.756 Y118.711 E.02019
G1 X81.97 Y118.006 E.03268
G1 X82.317 Y117.357 E.03264
G1 X82.79 Y116.782 E.03302
G1 X83.231 Y116.416 E.02542
G1 X83.89 Y116.028 E.03392
G1 X84.614 Y115.784 E.03389
G1 X85.195 Y115.695 E.02607
G1 X90.224 Y115.685 E.22306
G1 X90.315 Y115.677 E.00405
G1 X90.591 Y115.538 E.01371
G1 X90.694 Y115.403 E.00753
G1 X90.756 Y115.152 E.01147
G1 X90.756 Y109.96 E.23029
G1 X114.274 Y109.96 E1.04314
G1 X114.287 Y115.269 E.23548
G1 X114.439 Y115.538 E.0137
G1 X114.602 Y115.644 E.00862
G1 X114.806 Y115.685 E.00923
G1 X119.827 Y115.695 E.22271
G1 X120.454 Y115.798 E.02818
G1 X121.02 Y115.97 E.02624
G1 X121.592 Y116.276 E.02877
G1 X122.007 Y116.572 E.02261
G1 X122.367 Y116.919 E.02218
G1 X122.681 Y117.313 E.02235
G1 X122.94 Y117.747 E.02242
G1 X123.14 Y118.216 E.02261
G1 X123.267 Y118.679 E.02129
G1 X82.208 Y118.679 E1.82116
G1 X81.883 Y118.789 E.01522
G1 X81.756 Y119.039 E.01244
M204 S1000
G1 X82.03 Y119.212 F10800
M204 S800
;TYPE:External perimeter
G1 F1200
G1 X82.03 Y132.835 E.60424
G1 X81.706 Y132.835 E.01437
G1 X81.495 Y132.804 E.00946
G1 X81.389 Y132.596 E.01035
G1 X81.325 Y132.082 E.02297
G1 X81.325 Y119.457 E.55998
G1 X81.406 Y118.641 E.03637
G1 X81.64 Y117.87 E.03574
G1 X82.02 Y117.159 E.03576
G1 X82.533 Y116.533 E.0359
G1 X82.934 Y116.182 E.02364
G1 X83.623 Y115.753 E.036
G1 X84.118 Y115.549 E.02375
G1 X84.637 Y115.409 E.02384
G1 X85.171 Y115.339 E.02389
G1 X90.223 Y115.33 E.22408
G1 X90.345 Y115.281 E.00583
G1 X90.401 Y115.152 E.00624
G1 X90.4 Y109.604 E.24608
G1 X114.63 Y109.604 E1.07472
G1 X114.63 Y115.152 E.24608
G1 X114.685 Y115.281 E.00622
G1 X114.807 Y115.33 E.00583
G1 X119.707 Y115.339 E.21734
G1 X120.004 Y115.363 E.01322
G1 X120.798 Y115.519 E.03589
G1 X121.29 Y115.711 E.02343
G1 X121.984 Y116.107 E.03544
G1 X122.374 Y116.422 E.02224
G1 X122.738 Y116.804 E.0234
G1 X123.05 Y117.227 E.02331
G1 X123.304 Y117.684 E.02319
G1 X123.498 Y118.166 E.02305
G1 X123.628 Y118.665 E.02287
G1 X123.672 Y119.034 E.01648
G1 X82.421 Y119.034 E1.82968
G1 X82.099 Y119.071 E.01438
G1 X82.057 Y119.158 E.00429
M204 S1000
G1 X81.634 Y119.269 F10800
;WIPE_START
G1 F8640
G1 X82.053 Y121.053 E-.5
;WIPE_END
G1 X81.706 Y132.511 F10800
G1 E.5 F2400
M204 S800
;TYPE:Perimeter
;WIDTH:0.385452
G1 F1200
G1 X81.692 Y132.286 E.00903
;WIDTH:0.413389
G1 X81.678 Y132.06 E.00986
G1 X81.678 Y119.474 E.54787
G1 X81.694 Y119.162 E.0136
M204 S1000
;WIPE_START
G1 F8640
G1 X81.678 Y119.474 E-.08244
G1 X81.678 Y121.056 E-.41756
;WIPE_END
G1 X121.291 Y116.296 F10800
G1 E.5 F2400
M204 S800
;TYPE:Solid infill
;WIDTH:0.421791
G1 F1200
G1 X122.178 Y117.184 E.05595
G1 X122.448 Y117.535 E.01974
G1 X122.673 Y117.924 E.02003
G1 X122.85 Y118.359 E.02094
G1 X120.682 Y116.193 E.13661
G1 X120.493 Y116.129 E.0089
G1 X120.037 Y116.054 E.0206
G1 X122.342 Y118.359 E.14531
G1 X121.837 Y118.359 E.02251
G1 X119.492 Y116.014 E.14784
G1 X118.986 Y116.013 E.02256
G1 X121.331 Y118.359 E.14787
G1 X120.826 Y118.359 E.02251
G1 X118.479 Y116.012 E.14796
G1 X117.973 Y116.011 E.02256
G1 X120.32 Y118.359 E.14799
G1 X119.815 Y118.359 E.02251
G1 X117.467 Y116.01 E.14806
G1 X116.96 Y116.009 E.0226
G1 X119.31 Y118.359 E.14815
G1 X118.804 Y118.359 E.02256
G1 X116.454 Y116.008 E.14818
G1 X115.948 Y116.008 E.02256
G1 X118.299 Y118.359 E.14821
G1 X117.793 Y118.359 E.02256
G1 X115.281 Y115.846 E.1584
M204 S1000
;WIPE_START
G1 F8640
G1 X116.621 Y117.186 E-.5
;WIPE_END
G1 X114.114 Y110.636 F10800
G1 E.5 F2400
M204 S800
G1 F1200
G1 X113.758 Y110.28 E.02244
G1 X113.253 Y110.28 E.02251
G1 X113.954 Y110.981 E.04419
G1 X113.954 Y111.487 E.02256
G1 X112.747 Y110.28 E.07609
G1 X112.242 Y110.28 E.02251
G1 X113.954 Y111.992 E.10793
G1 X113.954 Y112.498 E.02256
G1 X111.736 Y110.28 E.13983
G1 X111.231 Y110.28 E.02251
G1 X113.954 Y113.003 E.17167
G1 X113.954 Y113.509 E.02256
M73 P2 R38
G1 X110.725 Y110.28 E.20357
G1 X110.22 Y110.28 E.02251
G1 X113.954 Y114.014 E.2354
G1 X113.954 Y114.519 E.02251
G1 X109.715 Y110.28 E.26724
G1 X109.209 Y110.28 E.02256
G1 X113.954 Y115.025 E.29914
G1 X113.974 Y115.341 E.01411
G1 X114.054 Y115.556 E.01023
G1 X114.218 Y115.772 E.01209
G1 X114.478 Y115.942 E.01385
G1 X114.792 Y116.005 E.01428
G1 X114.935 Y116.006 E.00637
G1 X117.288 Y118.359 E.14834
G1 X116.782 Y118.359 E.02256
G1 X108.704 Y110.28 E.50929
G1 X108.198 Y110.28 E.02256
G1 X116.277 Y118.359 E.50932
G1 X115.771 Y118.359 E.02256
G1 X107.693 Y110.28 E.50929
G1 X107.187 Y110.28 E.02256
G1 X115.266 Y118.359 E.50932
G1 X114.76 Y118.359 E.02256
G1 X106.682 Y110.28 E.50929
G1 X106.176 Y110.28 E.02256
G1 X114.255 Y118.359 E.50932
G1 X113.75 Y118.359 E.02251
G1 X105.671 Y110.28 E.50932
G1 X105.165 Y110.28 E.02256
G1 X113.244 Y118.359 E.50932
G1 X112.739 Y118.359 E.02251
G1 X104.66 Y110.28 E.50932
G1 X104.155 Y110.28 E.02251
G1 X112.233 Y118.359 E.50929
G1 X111.728 Y118.359 E.02251
G1 X103.649 Y110.28 E.50932
G1 X103.144 Y110.28 E.02251
G1 X111.222 Y118.359 E.50929
G1 X110.717 Y118.359 E.02251
G1 X102.638 Y110.28 E.50932
G1 X102.133 Y110.28 E.02251
G1 X110.211 Y118.359 E.50929
G1 X109.706 Y118.359 E.02251
G1 X101.627 Y110.28 E.50932
G1 X101.122 Y110.28 E.02251
G1 X109.2 Y118.359 E.50929
G1 X108.695 Y118.359 E.02251
G1 X100.616 Y110.28 E.50932
G1 X100.111 Y110.28 E.02251
G1 X108.19 Y118.359 E.50932
G1 X107.684 Y118.359 E.02256
G1 X99.605 Y110.28 E.50932
G1 X99.1 Y110.28 E.02251
G1 X107.179 Y118.359 E.50932
G1 X106.673 Y118.359 E.02256
G1 X98.595 Y110.28 E.50929
G1 X98.089 Y110.28 E.02256
G1 X106.168 Y118.359 E.50932
G1 X105.662 Y118.359 E.02256
M73 P2 R37
G1 X97.584 Y110.28 E.50929
G1 X97.078 Y110.28 E.02256
G1 X105.157 Y118.359 E.50932
G1 X104.651 Y118.359 E.02256
G1 X96.573 Y110.28 E.50929
G1 X96.067 Y110.28 E.02256
G1 X104.146 Y118.359 E.50932
G1 X103.64 Y118.359 E.02256
G1 X95.562 Y110.28 E.50929
G1 X95.056 Y110.28 E.02256
G1 X103.135 Y118.359 E.50932
G1 X102.63 Y118.359 E.02251
G1 X94.551 Y110.28 E.50932
G1 X94.045 Y110.28 E.02256
G1 X102.124 Y118.359 E.50932
G1 X101.619 Y118.359 E.02251
G1 X93.54 Y110.28 E.50932
G1 X93.035 Y110.28 E.02251
G1 X101.113 Y118.359 E.50929
G1 X100.608 Y118.359 E.02251
G1 X92.529 Y110.28 E.50932
G1 X92.024 Y110.28 E.02251
G1 X100.102 Y118.359 E.50929
G1 X99.597 Y118.359 E.02251
G1 X91.518 Y110.28 E.50932
G1 X91.076 Y110.28 E.0197
G1 X91.076 Y110.343 E.00281
G1 X99.091 Y118.359 E.50532
G1 X98.586 Y118.359 E.02251
M73 P3 R37
G1 X91.076 Y110.849 E.47345
G1 X91.076 Y111.354 E.02251
G1 X98.08 Y118.359 E.44158
G1 X97.575 Y118.359 E.02251
G1 X91.076 Y111.86 E.40972
G1 X91.076 Y112.365 E.02251
G1 X97.07 Y118.359 E.37788
G1 X96.564 Y118.359 E.02256
G1 X91.076 Y112.871 E.34598
G1 X91.076 Y113.376 E.02251
G1 X96.059 Y118.359 E.31414
G1 X95.553 Y118.359 E.02256
G1 X91.076 Y113.882 E.28224
G1 X91.076 Y114.387 E.02251
G1 X95.048 Y118.359 E.25041
G1 X94.542 Y118.359 E.02256
G1 X91.076 Y114.893 E.21851
G1 X91.076 Y115.16 E.0119
G1 X91.046 Y115.368 E.00937
G1 X94.037 Y118.359 E.18856
G1 X93.531 Y118.359 E.02256
G1 X90.869 Y115.697 E.16782
G1 X90.812 Y115.772 E.0042
G1 X90.587 Y115.919 E.01198
G1 X93.026 Y118.359 E.15379
G1 X92.521 Y118.359 E.02251
G1 X90.167 Y116.006 E.14837
G1 X89.663 Y116.006 E.02247
G1 X92.015 Y118.359 E.14831
G1 X91.51 Y118.359 E.02251
G1 X89.158 Y116.007 E.14828
G1 X88.654 Y116.008 E.02247
G1 X91.004 Y118.359 E.14818
G1 X90.499 Y118.359 E.02251
G1 X88.149 Y116.009 E.14815
G1 X87.645 Y116.01 E.02247
G1 X89.993 Y118.359 E.14806
G1 X89.488 Y118.359 E.02251
G1 X87.14 Y116.011 E.14803
G1 X86.636 Y116.012 E.02247
G1 X88.982 Y118.359 E.14793
G1 X88.477 Y118.359 E.02251
G1 X86.131 Y116.013 E.1479
G1 X85.627 Y116.014 E.02247
G1 X87.971 Y118.359 E.1478
G1 X87.466 Y118.359 E.02251
G1 X85.133 Y116.026 E.14708
G1 X84.695 Y116.093 E.01975
G1 X86.961 Y118.359 E.14286
G1 X86.455 Y118.359 E.02256
G1 X84.301 Y116.204 E.13583
G1 X83.943 Y116.352 E.01727
G1 X85.95 Y118.359 E.12653
G1 X85.444 Y118.359 E.02256
G1 X83.63 Y116.545 E.11436
G1 X83.321 Y116.741 E.01631
G1 X84.939 Y118.359 E.102
G1 X84.433 Y118.359 E.02256
G1 X83.052 Y116.977 E.08709
G1 X82.819 Y117.25 E.016
G1 X83.928 Y118.359 E.06991
G1 X83.422 Y118.359 E.02256
G1 X82.591 Y117.528 E.05239
G1 X82.414 Y117.855 E.01658
G1 X82.917 Y118.359 E.03174
G1 X82.411 Y118.359 E.02256
G1 X82.119 Y118.066 E.01844
M204 S1000
; stop printing object Single Attachment Mount id:0 copy 0
EXCLUDE_OBJECT_END NAME=Single_Attachment_Mount_id_0_copy_0
M106 S84.15
;LAYER_CHANGE
;Z:0.5
;HEIGHT:0.2
;BEFORE_LAYER_CHANGE
G92 E0.0
;0.5


;WIPE_START
G1 F8640
G1 X82.411 Y118.359 E-.10916
G1 X82.917 Y118.359 E-.13353
G1 X82.414 Y117.855 E-.1879
G1 X82.539 Y117.624 E-.06941
;WIPE_END
G1 Z.5 F720
;AFTER_LAYER_CHANGE
;0.5
G1 X79.546 Y115.235 F10800
G1 E.5 F2400
;TYPE:Skirt/Brim
;WIDTH:0.42
G1 F3000
G1 X80.245 Y114.358 E.03516
G1 X88.038 Y107.431 E.32692
G1 X89.6 Y106.839 E.05237
G1 X115.43 Y106.839 E.80988
G1 X116.992 Y107.431 E.05237
G1 X124.441 Y114.029 E.312
G1 X125.005 Y114.593 E.02501
G1 X125.592 Y115.341 E.02981
G1 X126.076 Y116.16 E.02983
G1 X126.499 Y117.181 E.03465
G1 X126.781 Y118.382 E.03868
G1 X126.86 Y119.367 E.03098
G1 X126.511 Y120.68 E.0426
G1 X125.454 Y121.6 E.04394
G1 X84.656 Y139.556 E1.39761
G1 X83.708 Y139.756 E.03038
G1 X80.938 Y139.734 E.08685
G1 X77.945 Y139.304 E.09481
G1 X76.714 Y138.729 E.0426
G1 X76.006 Y137.57 E.04258
G1 X75.935 Y136.802 E.02418
G1 X76.311 Y131.626 E.16272
G1 X78.236 Y118.461 E.41717
G1 X78.581 Y117.035 E.046
G1 X78.886 Y116.298 E.02501
G1 X79.333 Y115.501 E.02865
G1 X79.508 Y115.282 E.00879
; printing object Single Attachment Mount id:0 copy 0
EXCLUDE_OBJECT_START NAME=Single_Attachment_Mount_id_0_copy_0
;WIPE_START
G1 F8640
G1 X80.245 Y114.358 E-.3119
G1 X80.778 Y113.884 E-.1881
;WIPE_END
G1 X79.543 Y132.126 F10800
G1 E.5 F2400
;TYPE:Support material interface
;WIDTH:0.35
G1 X79.444 Y132.126 E.00253
G1 X79.444 Y136.74 E.11781
G1 X79.696 Y136.74 E.00643
G1 X79.696 Y132.126 E.11781
G1 X80.101 Y132.126 E.01034
G1 X80.12 Y132.672 E.01395
G1 X80.204 Y133.334 E.01704
G1 X80.204 Y136.74 E.08697
G1 X80.711 Y136.74 E.01295
G1 X80.711 Y134.44 E.05873
G1 X80.964 Y134.635 E.00816
G1 X81.218 Y134.736 E.00698
G1 X81.218 Y136.74 E.05117
G1 X81.725 Y136.74 E.01295
G1 X81.725 Y134.764 E.05045
G1 X82.232 Y134.764 E.01295
G1 X82.232 Y136.74 E.05045
G1 X82.739 Y136.74 E.01295
G1 X82.739 Y134.64 E.05362
G1 X82.864 Y134.516 E.0045
G1 X82.864 Y134.433 E.00212
G1 X83.246 Y134.433 E.00975
G1 X83.246 Y136.74 E.05891
G1 X83.753 Y136.74 E.01295
G1 X83.753 Y134.433 E.05891
G1 X84.058 Y134.433 E.00779
G1 X84.058 Y136.74 E.05891
G1 X83.907 Y136.74 E.00386
G1 X82.864 Y132.279 F10800
;TYPE:Support material
G1 F3000
G1 X82.864 Y134.126 E.04716
