; generated by PrusaSlicer 2.6.1+win64 on 2023-10-05 at 06:49:41 UTC


;
;
; 

; external perimeters extrusion width = 0.45mm
; perimeters extrusion width = 0.45mm
; infill extrusion width = 0.45mm
; solid infill extrusion width = 0.45mm
; top infill extrusion width = 0.40mm
; support material extrusion width = 0.35mm
; first layer extrusion width = 0.42mm

; external perimeters extrusion width = 0.45mm
; perimeters extrusion width = 0.45mm
; infill extrusion width = 0.45mm
; solid infill extrusion width = 0.45mm
; top infill extrusion width = 0.40mm
; support material extrusion width = 0.35mm
; first layer extrusion width = 0.42mm

; external perimeters extrusion width = 0.45mm
; perimeters extrusion width = 0.45mm
; infill extrusion width = 0.45mm
; solid infill extrusion width = 0.45mm
; top infill extrusion width = 0.40mm
; support material extrusion width = 0.35mm
; first layer extrusion width = 0.42mm

M73 P0 R138


; Pre-Processed for Cancel-Object support by preprocess_cancellation v0.2.0
; 3 known objects
EXCLUDE_OBJECT_DEFINE NAME=Camera_Arm_id_0_copy_0 CENTER=132.590,120.942 POLYGON=[[113.603,53.829],[113.603,165.842],[156.403,165.842],[156.403,53.829]]
EXCLUDE_OBJECT_DEFINE NAME=clip_id_1_copy_0 CENTER=103.145,96.698 POLYGON=[[97.971,89.803],[97.971,103.653],[107.722,103.653],[107.722,89.803]]
EXCLUDE_OBJECT_DEFINE NAME=Single_Attachment_Mount_id_2_copy_0 CENTER=87.525,119.134 POLYGON=[[63.134,111.746],[63.134,139.727],[109.195,139.727],[109.195,111.746]]
;TYPE:Custom
M104 S200 ; set extruder temp
M140 S60 ; set bed temp
M190 S60 ; wait for bed temp
M109 S200 ; wait for extruder temp
G28;
G1 Z4.0 F3000 ;Move Z Axis up
G92 E0 ;Reset Extruder
G1 X5.1 Y20 Z0.28 F5000.0 ;Move to start position
G1 X5.1 Y30.0 Z0.28 F1500.0 E1 ;Draw a short bit in case the extruder turns in the wrong direction
G1 X5.1 Y200.0 Z0.28 F1500.0 E15 ;Draw the first line
G1 X5.4 Y200.0 Z0.28 F5000.0 ;Move to side a little
G1 X5.4 Y20 Z0.28 F1500.0 E30 ;Draw the second line
G92 E0 ;Reset Extruder
G1 Z2.0 F3000 ;Move Z Axis up
G21 ; set units to millimeters
G90 ; use absolute coordinates
M83 ; use relative distances for extrusion
; Filament gcode
M107
;LAYER_CHANGE
;Z:0.3
;HEIGHT:0.3
;BEFORE_LAYER_CHANGE
G92 E0.0
;0.3


G1 E-.5 F2400
G1 Z.3 F720
;AFTER_LAYER_CHANGE
;0.3
G1 X94.475 Y78.319 F10800
G1 E.5 F2400
M204 S800
;TYPE:Skirt/Brim
;WIDTH:0.42
G1 F1200
G1 X114.245 Y54.471 E1.37398
G1 X116.552 Y52.164 E.14471
G1 X118.217 Y51.474 E.07994
G1 X126.411 Y51.474 E.36344
G1 X127.465 Y51.722 E.04803
G1 X132.079 Y54.029 E.22881
G1 X132.691 Y54.471 E.03348
G1 X148.841 Y70.62 E1.01301
G1 X149.282 Y71.232 E.03346
G1 X151.589 Y75.847 E.22885
G1 X151.824 Y76.649 E.03707
G1 X158.746 Y141.247 E2.88163
G1 X158.759 Y149.692 E.37458
G1 X158.069 Y151.358 E.07998
G1 X141.919 Y167.507 E1.01301
G1 X140.254 Y168.197 E.07994
G1 X132.06 Y168.197 E.36344
G1 X131.006 Y167.949 E.04803
G1 X126.165 Y165.512 E.24039
G1 X61.697 Y123.748 E3.40706
G1 X60.819 Y122.712 E.06023
G1 X60.624 Y121.694 E.04597
G1 X60.748 Y120.428 E.05642
G1 X61.034 Y119.361 E.049
G1 X61.559 Y118.203 E.05639
G1 X62.173 Y117.284 E.04902
G1 X94.436 Y78.365 E2.24226
M204 S1000
; printing object Camera Arm id:0 copy 0
EXCLUDE_OBJECT_START NAME=Camera_Arm_id_0_copy_0
;WIPE_START
G1 F8640
G1 X95.645 Y76.906 E-.5
;WIPE_END
G1 X126.411 Y56.136 F10800
G1 E.5 F2400
M204 S800
;TYPE:Support material
G1 F1200
G1 X131.025 Y56.136 E.20465
G1 X131.025 Y58.443 E.10233
G1 X133.333 Y58.443 E.10237
G1 X133.333 Y60.75 E.10233
G1 X135.64 Y60.75 E.10233
G1 X135.64 Y63.058 E.10237
G1 X137.947 Y63.058 E.10233
G1 X137.947 Y65.365 E.10233
G1 X140.254 Y65.365 E.10233
G1 X140.254 Y67.672 E.10233
G1 X142.561 Y67.672 E.10233
G1 X142.561 Y69.979 E.10233
G1 X144.868 Y69.979 E.10233
G1 X144.868 Y72.286 E.10233
G1 X147.175 Y72.286 E.10233
G1 X147.175 Y76.9 E.20465
G1 X149.482 Y76.9 E.10233
G1 X149.482 Y87.401 E.46577
G1 X147.175 Y87.401 E.10233
G1 X147.175 Y89.708 E.10233
G1 X139.327 Y89.708 E.3481
G1 X140.534 Y82.859 E.30847
G1 X143.474 Y79.919 E.18442
G1 X143.547 Y79.742 E.00849
G1 X143.547 Y79.34 E.01783
G1 X143.474 Y79.163 E.00849
G1 X124.954 Y60.644 E1.16168
G1 X124.778 Y60.57 E.00847
M73 P0 R137
G1 X124.375 Y60.57 E.01787
G1 X124.199 Y60.644 E.00847
G1 X121.162 Y63.68 E.19047
G1 X121.162 Y64.078 E.01765
G1 X126.029 Y68.944 E.30526
G1 X118.217 Y68.944 E.3465
G1 X118.217 Y66.637 E.10233
G1 X115.91 Y66.637 E.10233
G1 X115.91 Y56.136 E.46577
G1 X118.217 Y56.136 E.10233
G1 X118.217 Y53.829 E.10233
G1 X126.411 Y53.829 E.36344
G1 X126.411 Y56.083 E.09998
M204 S1000
;WIPE_START
G1 F8640
G1 X126.411 Y54.188 E-.5
;WIPE_END
G1 X148.833 Y87.241 F10800
G1 E.5 F2400
M204 S800
G1 F1200
G1 X148.833 Y77.22 E.44448
G1 X148.438 Y77.22 E.01752
G1 X148.438 Y87.081 E.43738
G1 X148.043 Y87.081 E.01752
G1 X148.043 Y77.22 E.43738
G1 X147.647 Y77.22 E.01756
G1 X147.647 Y87.081 E.43738
G1 X147.252 Y87.081 E.01752
G1 X147.252 Y77.22 E.43738
G1 X146.857 Y77.22 E.01752
G1 X146.855 Y89.388 E.53971
G1 X146.462 Y89.388 E.01743
G1 X146.462 Y72.606 E.74436
G1 X146.067 Y72.606 E.01752
G1 X146.067 Y89.388 E.74436
G1 X145.672 Y89.388 E.01752
G1 X145.672 Y72.606 E.74436
G1 X145.277 Y72.606 E.01752
G1 X145.277 Y89.388 E.74436
G1 X144.882 Y89.388 E.01752
G1 X144.882 Y72.606 E.74436
G1 X144.548 Y72.606 E.01481
G1 X144.548 Y70.299 E.10233
G1 X144.486 Y70.299 E.00275
G1 X144.486 Y89.388 E.84669
G1 X144.091 Y89.388 E.01752
G1 X144.091 Y70.299 E.84669
G1 X143.696 Y70.299 E.01752
G1 X143.696 Y78.933 E.38296
G1 X143.301 Y78.538 E.02478
G1 X143.301 Y70.299 E.36544
G1 X142.906 Y70.299 E.01752
G1 X142.906 Y78.142 E.34787
G1 X142.511 Y77.747 E.02478
G1 X142.511 Y70.299 E.33035
G1 X142.241 Y70.299 E.01198
G1 X142.241 Y67.992 E.10233
G1 X142.116 Y67.992 E.00554
G1 X142.116 Y77.352 E.41516
G1 X141.721 Y76.957 E.02478
G1 X141.721 Y67.992 E.39764
G1 X141.325 Y67.992 E.01756
G1 X141.325 Y76.562 E.38012
G1 X140.93 Y76.167 E.02478
G1 X140.93 Y67.992 E.3626
G1 X140.535 Y67.992 E.01752
G1 X140.535 Y75.772 E.34508
G1 X140.14 Y75.376 E.02481
G1 X140.14 Y67.992 E.32752
G1 X139.934 Y67.992 E.00914
G1 X139.934 Y65.685 E.10233
G1 X139.745 Y65.685 E.00838
G1 X139.745 Y74.981 E.41232
G1 X139.35 Y74.586 E.02478
G1 X139.35 Y65.685 E.3948
G1 X138.955 Y65.685 E.01752
G1 X138.955 Y74.191 E.37728
G1 X138.559 Y73.796 E.02481
G1 X138.559 Y65.685 E.35976
G1 X138.164 Y65.685 E.01752
G1 X138.164 Y73.401 E.34224
G1 X137.769 Y73.006 E.02478
G1 X137.769 Y65.685 E.32472
G1 X137.627 Y65.685 E.0063
G1 X137.627 Y63.378 E.10233
G1 X137.374 Y63.378 E.01122
G1 X137.374 Y72.611 E.40953
G1 X136.979 Y72.215 E.02481
G1 X136.979 Y63.378 E.39196
G1 X136.584 Y63.378 E.01752
G1 X136.584 Y71.82 E.37444
G1 X136.189 Y71.425 E.02478
G1 X136.189 Y63.378 E.35692
G1 X135.794 Y63.378 E.01752
G1 X135.794 Y71.03 E.3394
G1 X135.398 Y70.635 E.02481
G1 X135.398 Y63.378 E.32188
G1 X135.32 Y63.378 E.00346
G1 X135.32 Y61.071 E.10233
G1 X135.003 Y61.071 E.01406
G1 X135.003 Y70.24 E.40669
G1 X134.608 Y69.845 E.02478
G1 X134.608 Y61.071 E.38917
G1 X134.213 Y61.071 E.01752
G1 X134.213 Y69.449 E.3716
G1 X133.818 Y69.054 E.02478
G1 X133.818 Y61.071 E.35408
G1 X133.423 Y61.071 E.01752
G1 X133.423 Y68.659 E.33656
G1 X133.028 Y68.264 E.02478
G1 X133.012 Y58.763 E.42142
G1 X132.632 Y58.763 E.01685
G1 X132.632 Y67.869 E.40389
G1 X132.237 Y67.474 E.02478
G1 X132.237 Y58.763 E.38637
G1 X131.842 Y58.763 E.01752
G1 X131.842 Y67.079 E.36885
G1 X131.447 Y66.684 E.02478
G1 X131.447 Y58.763 E.35133
G1 X131.052 Y58.763 E.01752
G1 X131.052 Y66.288 E.33377
G1 X130.657 Y65.893 E.02478
G1 X130.657 Y56.456 E.41858
G1 X130.262 Y56.456 E.01752
G1 X130.262 Y65.498 E.40106
G1 X129.867 Y65.103 E.02478
G1 X129.867 Y56.456 E.38354
G1 X129.471 Y56.456 E.01756
G1 X129.471 Y64.708 E.36602
G1 X129.076 Y64.313 E.02478
G1 X129.076 Y56.456 E.3485
G1 X128.681 Y56.456 E.01752
G1 X128.681 Y63.918 E.33098
G1 X128.286 Y63.522 E.02481
G1 X128.286 Y56.456 E.31341
G1 X127.891 Y56.456 E.01752
G1 X127.891 Y63.127 E.29589
G1 X127.496 Y62.732 E.02478
G1 X127.496 Y56.456 E.27837
G1 X127.101 Y56.456 E.01752
G1 X127.101 Y62.337 E.26085
G1 X126.705 Y61.942 E.02481
G1 X126.705 Y56.456 E.24333
G1 X126.31 Y56.456 E.01752
G1 X126.31 Y61.547 E.22581
G1 X125.915 Y61.152 E.02478
G1 X125.915 Y54.149 E.31062
G1 X125.52 Y54.149 E.01752
G1 X125.52 Y60.757 E.2931
G1 X125.125 Y60.368 E.02459
G1 X125.125 Y54.149 E.27584
G1 X124.73 Y54.149 E.01752
G1 X124.73 Y60.25 E.27061
G1 X124.335 Y60.25 E.01752
G1 X124.335 Y54.149 E.27061
G1 X123.94 Y54.149 E.01752
G1 X123.94 Y60.45 E.27948
G1 X123.544 Y60.845 E.02481
G1 X123.544 Y54.149 E.297
G1 X123.149 Y54.149 E.01752
G1 X123.149 Y61.241 E.31456
G1 X122.754 Y61.636 E.02478
G1 X122.754 Y54.149 E.33208
G1 X122.359 Y54.149 E.01752
G1 X122.359 Y62.031 E.3496
G1 X121.964 Y62.426 E.02478
G1 X121.964 Y54.149 E.36712
G1 X121.569 Y54.149 E.01752
G1 X121.569 Y62.821 E.38464
G1 X121.174 Y63.216 E.02478
G1 X121.174 Y54.149 E.40217
G1 X120.779 Y54.149 E.01752
G1 X120.779 Y68.624 E.64204
G1 X121.174 Y68.624 E.01752
G1 X121.174 Y64.541 E.1811
G1 X121.569 Y64.937 E.02481
G1 X121.569 Y68.624 E.16354
G1 X121.964 Y68.624 E.01752
G1 X121.964 Y65.332 E.14602
G1 X122.359 Y65.727 E.02478
G1 X122.359 Y68.624 E.1285
G1 X122.754 Y68.624 E.01752
G1 X122.754 Y66.122 E.11098
G1 X123.149 Y66.517 E.02478
G1 X123.149 Y68.624 E.09346
G1 X123.544 Y68.624 E.01752
G1 X123.544 Y66.912 E.07594
G1 X123.94 Y67.307 E.02481
G1 X123.94 Y68.624 E.05842
G1 X124.335 Y68.624 E.01752
G1 X124.335 Y67.702 E.0409
G1 X124.73 Y68.098 E.02481
G1 X124.73 Y68.624 E.02333
G1 X125.125 Y68.624 E.01752
G1 X125.125 Y68.266 E.01588
M204 S1000
;WIPE_START
G1 F8640
G1 X125.125 Y68.624 E-.09447
G1 X124.73 Y68.624 E-.10424
G1 X124.73 Y68.098 E-.13881
G1 X124.335 Y67.702 E-.1476
G1 X124.335 Y67.758 E-.01488
;WIPE_END
G1 X143.696 Y89.548 F10800
G1 E.5 F2400
M204 S800
G1 F1200
G1 X143.696 Y80.149 E.41689
G1 X143.301 Y80.544 E.02478
G1 X143.301 Y89.388 E.39227
G1 X142.906 Y89.388 E.01752
G1 X142.906 Y80.94 E.37471
G1 X142.511 Y81.335 E.02478
G1 X142.511 Y89.388 E.35719
G1 X142.116 Y89.388 E.01752
G1 X142.116 Y81.73 E.33967
G1 X141.721 Y82.125 E.02478
G1 X141.721 Y89.388 E.32215
G1 X141.325 Y89.388 E.01756
G1 X141.325 Y82.52 E.30463
G1 X140.93 Y82.915 E.02478
M73 P1 R137
G1 X140.93 Y89.388 E.28711
G1 X140.535 Y89.388 E.01752
G1 X140.535 Y84.697 E.20807
G1 X140.14 Y86.938 E.10093
G1 X140.14 Y89.388 E.10867
G1 X139.745 Y89.388 E.01752
G1 X139.745 Y88.258 E.05012
M204 S1000
;WIPE_START
G1 F8640
G1 X139.745 Y89.388 E-.29819
G1 X140.14 Y89.388 E-.10424
G1 X140.14 Y89.018 E-.09757
;WIPE_END
G1 X120.383 Y68.784 F10800
G1 E.5 F2400
M204 S800
G1 F1200
G1 X120.383 Y54.149 E.64913
G1 X119.988 Y54.149 E.01752
G1 X119.988 Y68.624 E.64204
G1 X119.593 Y68.624 E.01752
G1 X119.593 Y54.149 E.64204
G1 X119.198 Y54.149 E.01752
G1 X119.198 Y68.624 E.64204
G1 X118.803 Y68.624 E.01752
G1 X118.803 Y54.149 E.64204
G1 X118.537 Y54.149 E.0118
G1 X118.537 Y56.456 E.10233
G1 X118.408 Y56.456 E.00572
G1 X118.408 Y66.317 E.43738
G1 X118.013 Y66.317 E.01752
G1 X118.013 Y56.456 E.43738
G1 X117.617 Y56.456 E.01756
G1 X117.617 Y66.317 E.43738
G1 X117.222 Y66.317 E.01752
G1 X117.222 Y56.456 E.43738
G1 X116.827 Y56.456 E.01752
G1 X116.827 Y66.317 E.43738
G1 X116.432 Y66.317 E.01752
G1 X116.432 Y56.296 E.44448
M204 S1000
;WIPE_START
G1 F8640
G1 X116.432 Y58.191 E-.5
;WIPE_END
G1 X142.561 Y125.349 F10800
G1 E.5 F2400
M204 S800
G1 F1200
G1 X144.868 Y125.349 E.10233
G1 X144.868 Y127.656 E.10233
G1 X147.175 Y127.656 E.10233
G1 X147.175 Y129.963 E.10233
G1 X149.482 Y129.963 E.10233
G1 X149.482 Y132.27 E.10233
G1 X151.789 Y132.27 E.10233
G1 X151.789 Y134.577 E.10233
G1 X154.096 Y134.577 E.10233
G1 X154.096 Y141.498 E.30698
G1 X156.403 Y141.498 E.10233
G1 X156.403 Y149.692 E.36344
G1 X154.096 Y149.692 E.10233
G1 X154.096 Y151.999 E.10233
G1 X151.789 Y151.999 E.10233
G1 X151.789 Y154.306 E.10233
G1 X149.482 Y154.306 E.10233
G1 X149.482 Y156.613 E.10233
G1 X147.175 Y156.613 E.10233
G1 X147.175 Y158.921 E.10237
G1 X144.868 Y158.921 E.10233
G1 X144.868 Y161.228 E.10233
G1 X142.561 Y161.228 E.10233
G1 X142.561 Y163.535 E.10233
G1 X140.254 Y163.535 E.10233
G1 X140.254 Y165.842 E.10233
G1 X132.06 Y165.842 E.36344
G1 X132.06 Y163.535 E.10233
G1 X127.446 Y163.535 E.20465
G1 X127.446 Y161.228 E.10233
G1 X125.139 Y161.228 E.10233
G1 X125.139 Y158.921 E.10233
G1 X122.831 Y158.921 E.10237
G1 X122.831 Y156.613 E.10237
G1 X120.524 Y156.613 E.10233
G1 X120.524 Y154.306 E.10233
G1 X118.217 Y154.306 E.10233
G1 X118.217 Y151.999 E.10233
G1 X115.91 Y151.999 E.10233
G1 X115.91 Y149.692 E.10233
G1 X113.603 Y149.692 E.10233
G1 X113.603 Y141.498 E.36344
M73 P1 R136
G1 X115.91 Y141.498 E.10233
G1 X115.91 Y139.191 E.10233
G1 X118.217 Y139.191 E.10233
G1 X118.217 Y136.884 E.10233
G1 X120.603 Y136.884 E.10583
G1 X121.005 Y137.795 E.04417
G1 X121.355 Y138.44 E.03255
G1 X121.746 Y139.062 E.03259
G1 X122.185 Y139.67 E.03326
G1 X122.643 Y140.225 E.03192
G1 X123.142 Y140.759 E.03242
G1 X125.226 Y142.843 E.13072
G1 X125.411 Y142.843 E.00821
G1 X125.411 Y147.112 E.18935
G1 X130.753 Y147.112 E.23694
G1 X130.753 Y144.805 E.10233
G1 X133.06 Y144.805 E.10233
G1 X133.06 Y142.498 E.10233
G1 X135.367 Y142.498 E.10233
G1 X135.367 Y140.191 E.10233
G1 X137.674 Y140.191 E.10233
G1 X137.674 Y134.85 E.2369
G1 X133.615 Y134.85 E.18004
G1 X133.682 Y134.782 E.00423
G1 X133.682 Y134.385 E.01761
G1 X131.784 Y132.486 E.11909
G1 X133.449 Y123.042 E.42535
G1 X142.561 Y123.042 E.40416
G1 X142.561 Y125.295 E.09993
M204 S1000
G1 X155.945 Y149.532 F10800
M204 S800
G1 F1200
G1 X155.945 Y141.818 E.34215
G1 X155.55 Y141.818 E.01752
G1 X155.55 Y149.372 E.33506
G1 X155.155 Y149.372 E.01752
G1 X155.155 Y141.818 E.33506
G1 X154.76 Y141.818 E.01752
G1 X154.76 Y149.372 E.33506
G1 X154.365 Y149.372 E.01752
G1 X154.365 Y141.818 E.33506
G1 X153.97 Y141.818 E.01752
G1 X153.97 Y149.372 E.33506
G1 X153.776 Y149.372 E.0086
G1 X153.776 Y151.679 E.10233
G1 X153.574 Y151.679 E.00896
G1 X153.574 Y134.897 E.74436
G1 X153.179 Y134.897 E.01752
G1 X153.179 Y151.679 E.74436
G1 X152.784 Y151.679 E.01752
G1 X152.784 Y134.897 E.74436
G1 X152.389 Y134.897 E.01752
G1 X152.389 Y151.679 E.74436
G1 X151.994 Y151.679 E.01752
G1 X151.994 Y134.897 E.74436
G1 X151.599 Y134.897 E.01752
G1 X151.599 Y151.679 E.74436
G1 X151.469 Y151.679 E.00577
G1 X151.469 Y153.986 E.10233
G1 X151.204 Y153.986 E.01175
G1 X151.204 Y132.59 E.94902
G1 X150.809 Y132.59 E.01752
G1 X150.809 Y153.986 E.94902
G1 X150.413 Y153.986 E.01756
G1 X150.413 Y132.59 E.94902
G1 X150.018 Y132.59 E.01752
G1 X150.018 Y153.986 E.94902
G1 X149.623 Y153.986 E.01752
G1 X149.623 Y132.59 E.94902
G1 X149.228 Y132.59 E.01752
G1 X149.228 Y153.986 E.94902
G1 X149.162 Y153.986 E.00293
G1 X149.162 Y156.293 E.10233
G1 X148.833 Y156.293 E.01459
G1 X148.833 Y130.283 E1.15367
G1 X148.438 Y130.283 E.01752
G1 X148.438 Y156.293 E1.15367
G1 X148.043 Y156.293 E.01752
G1 X148.043 Y130.283 E1.15367
G1 X147.647 Y130.283 E.01756
G1 X147.647 Y156.293 E1.15367
G1 X147.252 Y156.293 E.01752
G1 X147.252 Y130.283 E1.15367
G1 X146.857 Y130.283 E.01752
G1 X146.855 Y158.601 E1.25604
G1 X146.462 Y158.601 E.01743
G1 X146.462 Y127.976 E1.35837
G1 X146.067 Y127.976 E.01752
G1 X146.067 Y158.601 E1.35837
G1 X145.672 Y158.601 E.01752
G1 X145.672 Y127.976 E1.35837
G1 X145.277 Y127.976 E.01752
G1 X145.277 Y158.601 E1.35837
G1 X144.882 Y158.601 E.01752
G1 X144.882 Y127.976 E1.35837
G1 X144.548 Y127.976 E.01481
G1 X144.548 Y125.669 E.10233
G1 X144.486 Y125.669 E.00275
G1 X144.486 Y160.908 E1.56302
G1 X144.091 Y160.908 E.01752
G1 X144.091 Y125.669 E1.56302
G1 X143.696 Y125.669 E.01752
G1 X143.696 Y160.908 E1.56302
G1 X143.301 Y160.908 E.01752
G1 X143.301 Y125.669 E1.56302
G1 X142.906 Y125.669 E.01752
G1 X142.906 Y160.908 E1.56302
G1 X142.511 Y160.908 E.01752
G1 X142.511 Y125.669 E1.56302
G1 X142.241 Y125.669 E.01198
G1 X142.241 Y123.362 E.10233
G1 X142.116 Y123.362 E.00554
G1 X142.116 Y163.215 E1.76767
G1 X141.72 Y163.215 E.01756
G1 X141.721 Y123.362 E1.76767
G1 X141.325 Y123.362 E.01756
G1 X141.325 Y163.215 E1.76767
G1 X140.93 Y163.215 E.01752
G1 X140.93 Y123.362 E1.76767
G1 X140.535 Y123.362 E.01752
G1 X140.535 Y163.215 E1.76767
