; generated by PrusaSlicer 2.6.1+win64 on 2023-10-01 at 21:10:35 UTC


;
;
; 

; external perimeters extrusion width = 0.45mm
; perimeters extrusion width = 0.45mm
; infill extrusion width = 0.45mm
; solid infill extrusion width = 0.45mm
; top infill extrusion width = 0.40mm
; first layer extrusion width = 0.42mm

M73 P0 R77


; Pre-Processed for Cancel-Object support by preprocess_cancellation v0.2.0
; 1 known objects
EXCLUDE_OBJECT_DEFINE NAME=EZOut_SV06_Mount_V1_stl_id_0_copy_0 CENTER=108.825,110.900 POLYGON=[[95.991,84.225],[95.991,135.775],[124.089,135.775],[124.089,84.225]]
;TYPE:Custom
M104 S215 ; set extruder temp
M140 S60 ; set bed temp
M190 S60 ; wait for bed temp
M109 S215 ; wait for extruder temp
G28;
G1 Z4.0 F3000 ;Move Z Axis up
G92 E0 ;Reset Extruder
G1 X5.1 Y20 Z0.28 F5000.0 ;Move to start position
G1 X5.1 Y30.0 Z0.28 F1500.0 E1 ;Draw a short bit in case the extruder turns in the wrong direction
G1 X5.1 Y200.0 Z0.28 F1500.0 E15 ;Draw the first line
G1 X5.4 Y200.0 Z0.28 F5000.0 ;Move to side a little
G1 X5.4 Y20 Z0.28 F1500.0 E30 ;Draw the second line
G92 E0 ;Reset Extruder
G1 Z2.0 F3000 ;Move Z Axis up
G21 ; set units to millimeters
G90 ; use absolute coordinates
M83 ; use relative distances for extrusion
; Filament gcode
M107
;LAYER_CHANGE
;Z:0.2
;HEIGHT:0.2
;BEFORE_LAYER_CHANGE
G92 E0.0
;0.2


G1 E-.5 F2400
G1 Z.2 F720
;AFTER_LAYER_CHANGE
;0.2
G1 X102.633 Y83.319 F10800
G1 E.5 F2400
M204 S800
;TYPE:Skirt/Brim
;WIDTH:0.42
G1 F1200
G1 X103.633 Y82.319 E.04434
G1 X105.314 Y81.623 E.05705
G1 X122.799 Y81.637 E.54823
G1 X123.766 Y81.871 E.03119
G1 X124.828 Y82.407 E.0373
G1 X125.71 Y83.447 E.04276
G1 X125.91 Y84.4 E.03053
G1 X125.91 Y135.6 E1.60534
G1 X125.518 Y136.907 E.04278
G1 X124.828 Y137.593 E.03051
G1 X124.498 Y137.794 E.01212
G1 X123.766 Y138.129 E.02524
G1 X122.799 Y138.363 E.03119
G1 X105.314 Y138.377 E.54823
G1 X103.633 Y137.681 E.05705
G1 X102.633 Y136.681 E.04434
G1 X102.209 Y136.104 E.02245
G1 X93.581 Y119.659 E.58228
G1 X93.384 Y117.962 E.05357
G1 X102.012 Y84.408 E1.08629
G1 X102.604 Y83.371 E.03744
M204 S1000
; printing object EZOut SV06 Mount V1.stl id:0 copy 0
EXCLUDE_OBJECT_START NAME=EZOut_SV06_Mount_V1_stl_id_0_copy_0
;WIPE_START
G1 F8640
G1 X103.633 Y82.319 E-.38833
G1 X104.024 Y82.157 E-.11167
;WIPE_END
G1 X105.278 Y120.452 F10800
G1 E.5 F2400
M204 S800
;TYPE:Perimeter
;WIDTH:0.419999
G1 F1200
G1 X105.236 Y120.384 E.00251
G1 X103.93 Y119.079 E.05789
G1 X103.783 Y118.973 E.00568
G1 X103.53 Y118.913 E.00815
G1 X98.594 Y118.913 E.15476
G1 X97.162 Y118.126 E.05123
G1 X104.628 Y104.552 E.48573
G1 X104.869 Y104.076 E.01673
G1 X105.178 Y102.872 E.03897
G1 X105.401 Y101.932 E.03029
G1 X105.401 Y85.45 E.51678
G1 X105.765 Y85.087 E.01612
G1 X122.12 Y85.087 E.5128
G1 X122.12 Y134.913 E1.56226
G1 X105.765 Y134.913 E.5128
G1 X105.401 Y134.55 E.01612
G1 X105.401 Y121.432 E.4113
G1 X105.373 Y120.606 E.02591
G1 X105.309 Y120.503 E.0038
M204 S1000
G1 X105.024 Y120.863 F10800
M204 S800
;TYPE:External perimeter
G1 F1200
G1 X105.024 Y120.784 E.00248
G1 X104.969 Y120.651 E.00451
G1 X103.664 Y119.345 E.05789
G1 X103.53 Y119.29 E.00454
G1 X98.497 Y119.29 E.15781
G1 X96.65 Y118.274 E.06609
G1 X104.504 Y103.982 E.51132
G1 X104.813 Y102.778 E.03897
G1 X105.024 Y101.935 E.02725
G1 X105.024 Y85.294 E.52177
G1 X105.608 Y84.71 E.0259
G1 X122.279 Y84.71 E.52271
G1 X122.497 Y84.734 E.00688
G1 X122.497 Y135.265 E1.58436
G1 X122.292 Y135.29 E.00648
G1 X105.608 Y135.29 E.52311
G1 X105.024 Y134.706 E.0259
G1 X105.024 Y120.923 E.43216
M204 S1000
G1 X105.092 Y120.823 F10800
;WIPE_START
G1 F8640
G1 X105.024 Y120.784 E-.03668
G1 X104.969 Y120.651 E-.03798
G1 X103.83 Y119.511 E-.42534
;WIPE_END
G1 X118.28 Y93.712 F10800
G1 E.5 F2400
M204 S800
;TYPE:Perimeter
G1 F1200
G1 X118.777 Y94.06 E.01902
G1 X119.245 Y94.525 E.02069
G1 X119.626 Y95.064 E.0207
G1 X119.908 Y95.66 E.02067
G1 X120.085 Y96.295 E.02067
G1 X120.15 Y96.951 E.02067
G1 X120.102 Y97.609 E.02069
G1 X119.941 Y98.249 E.02069
G1 X119.674 Y98.851 E.02065
G1 X119.307 Y99.399 E.02068
G1 X118.851 Y99.876 E.02069
G1 X118.32 Y100.268 E.02069
G1 X117.731 Y100.563 E.02065
G1 X117.099 Y100.753 E.02069
G1 X116.597 Y100.824 E.0159
G1 X115.952 Y100.817 E.02022
G1 X115.303 Y100.698 E.02069
G1 X114.684 Y100.471 E.02067
G1 X114.237 Y100.214 E.01617
G1 X113.608 Y99.717 E.02514
G1 X113.182 Y99.214 E.02067
G1 X112.849 Y98.644 E.0207
G1 X112.618 Y98.026 E.02069
G1 X112.497 Y97.378 E.02067
G1 X112.489 Y96.719 E.02066
G1 X112.593 Y96.068 E.02067
G1 X112.808 Y95.444 E.02069
G1 X113.127 Y94.867 E.02067
G1 X113.54 Y94.352 E.0207
G1 X114.034 Y93.916 E.02066
G1 X114.597 Y93.572 E.02069
G1 X115.21 Y93.328 E.02069
G1 X115.855 Y93.194 E.02066
G1 X116.361 Y93.166 E.01589
G1 X117.004 Y93.229 E.02026
G1 X117.64 Y93.402 E.02067
G1 X118.23 Y93.679 E.02044
M204 S1000
G1 X117.951 Y93.963 F10800
M204 S800
;TYPE:External perimeter
G1 F1200
G1 X118.072 Y94.021 E.00421
G1 X118.557 Y94.366 E.01866
G1 X118.975 Y94.789 E.01865
G1 X119.315 Y95.278 E.01867
G1 X119.566 Y95.817 E.01864
G1 X119.72 Y96.392 E.01866
G1 X119.774 Y96.984 E.01864
G1 X119.726 Y97.576 E.01862
G1 X119.577 Y98.152 E.01865
G1 X119.331 Y98.694 E.01866
G1 X118.996 Y99.186 E.01866
G1 X118.582 Y99.613 E.01865
G1 X118.1 Y99.962 E.01866
G1 X117.566 Y100.224 E.01865
G1 X116.996 Y100.39 E.01861
G1 X116.521 Y100.451 E.01502
G1 X115.96 Y100.44 E.01759
G1 X115.375 Y100.328 E.01868
G1 X114.819 Y100.119 E.01862
G1 X114.307 Y99.817 E.01864
G1 X113.853 Y99.431 E.01868
G1 X113.473 Y98.974 E.01864
G1 X113.177 Y98.458 E.01865
G1 X112.973 Y97.899 E.01866
M73 P0 R76
G1 X112.868 Y97.313 E.01867
G1 X112.866 Y96.719 E.01862
G1 X112.965 Y96.132 E.01866
G1 X113.163 Y95.572 E.01862
G1 X113.455 Y95.053 E.01867
G1 X113.831 Y94.592 E.01865
G1 X114.28 Y94.202 E.01865
G1 X114.79 Y93.896 E.01865
G1 X115.344 Y93.681 E.01863
G1 X115.927 Y93.564 E.01864
G1 X116.405 Y93.544 E.015
G1 X116.964 Y93.603 E.01762
G1 X117.536 Y93.765 E.01864
G1 X117.897 Y93.937 E.01254
M204 S1000
G1 X118.06 Y93.884 F10800
;WIPE_START
G1 F8640
G1 X118.072 Y94.021 E-.05123
G1 X118.557 Y94.366 E-.15706
G1 X118.975 Y94.789 E-.15693
G1 X119.267 Y95.208 E-.13478
;WIPE_END
G1 X114.08 Y123.889 F10800
G1 E.5 F2400
M204 S800
;TYPE:Perimeter
G1 F1200
G1 X114.597 Y123.572 E.01901
G1 X115.21 Y123.328 E.02069
G1 X115.855 Y123.194 E.02066
G1 X116.361 Y123.166 E.01589
G1 X117.004 Y123.229 E.02026
G1 X117.64 Y123.402 E.02067
G1 X118.237 Y123.682 E.02068
G1 X118.777 Y124.06 E.02067
G1 X119.245 Y124.525 E.02069
G1 X119.626 Y125.064 E.0207
G1 X119.908 Y125.66 E.02067
G1 X120.085 Y126.295 E.02067
G1 X120.15 Y126.951 E.02067
G1 X120.102 Y127.609 E.02069
G1 X119.941 Y128.249 E.02069
G1 X119.674 Y128.851 E.02065
G1 X119.307 Y129.399 E.02068
G1 X118.851 Y129.876 E.02069
G1 X118.29 Y130.288 E.02182
G1 X117.731 Y130.563 E.01953
G1 X117.099 Y130.753 E.02069
G1 X116.597 Y130.824 E.0159
G1 X115.952 Y130.817 E.02022
G1 X115.303 Y130.698 E.02069
G1 X114.684 Y130.471 E.02067
G1 X114.114 Y130.141 E.02065
G1 X113.608 Y129.717 E.0207
G1 X113.182 Y129.214 E.02067
G1 X112.849 Y128.644 E.0207
G1 X112.618 Y128.026 E.02069
G1 X112.497 Y127.378 E.02067
G1 X112.489 Y126.719 E.02066
G1 X112.593 Y126.068 E.02067
G1 X112.808 Y125.444 E.02069
G1 X113.127 Y124.867 E.02067
G1 X113.54 Y124.352 E.0207
G1 X114.029 Y123.921 E.02044
M204 S1000
G1 X114.382 Y124.141 F10800
M204 S800
;TYPE:External perimeter
G1 F1200
G1 X114.79 Y123.896 E.01492
G1 X115.344 Y123.681 E.01863
G1 X115.927 Y123.564 E.01864
G1 X116.405 Y123.544 E.015
G1 X116.964 Y123.603 E.01762
G1 X117.536 Y123.765 E.01864
G1 X118.072 Y124.021 E.01862
G1 X118.557 Y124.366 E.01866
G1 X118.975 Y124.789 E.01865
G1 X119.315 Y125.278 E.01867
G1 X119.566 Y125.817 E.01864
G1 X119.72 Y126.392 E.01866
G1 X119.774 Y126.984 E.01864
G1 X119.726 Y127.576 E.01862
G1 X119.577 Y128.152 E.01865
G1 X119.331 Y128.694 E.01866
G1 X118.996 Y129.186 E.01866
G1 X118.582 Y129.613 E.01865
G1 X118.09 Y129.969 E.01904
G1 X117.566 Y130.224 E.01827
G1 X116.996 Y130.39 E.01861
G1 X116.521 Y130.451 E.01502
G1 X115.96 Y130.44 E.01759
G1 X115.375 Y130.328 E.01868
G1 X114.819 Y130.119 E.01862
G1 X114.307 Y129.817 E.01864
G1 X113.853 Y129.431 E.01868
G1 X113.473 Y128.974 E.01864
G1 X113.177 Y128.458 E.01865
G1 X112.973 Y127.899 E.01866
G1 X112.868 Y127.313 E.01867
G1 X112.866 Y126.719 E.01862
G1 X112.965 Y126.132 E.01866
G1 X113.163 Y125.572 E.01862
G1 X113.455 Y125.053 E.01867
G1 X113.831 Y124.592 E.01865
G1 X114.331 Y124.172 E.02047
M204 S1000
G1 X114.343 Y123.743 F10800
;WIPE_START
G1 F8640
G1 X114.79 Y123.896 E-.14134
G1 X115.344 Y123.681 E-.15682
G1 X115.927 Y123.564 E-.15691
G1 X116.097 Y123.557 E-.04493
;WIPE_END
G1 X121.951 Y86.02 F10800
G1 E.5 F2400
M204 S800
;TYPE:Solid infill
;WIDTH:0.420426
G1 F1200
G1 X121.357 Y85.426 E.02637
G1 X120.823 Y85.426 E.01676
G1 X121.781 Y86.384 E.04253
G1 X121.781 Y86.918 E.01676
G1 X120.289 Y85.426 E.06623
G1 X119.756 Y85.426 E.01673
G1 X121.781 Y87.452 E.08992
G1 X121.781 Y87.986 E.01676
G1 X119.222 Y85.426 E.11362
G1 X118.688 Y85.426 E.01676
G1 X121.781 Y88.52 E.13733
G1 X121.781 Y89.053 E.01673
G1 X118.154 Y85.426 E.16101
G1 X117.62 Y85.426 E.01676
M73 P1 R76
G1 X121.781 Y89.587 E.18471
G1 X121.781 Y90.121 E.01676
G1 X117.086 Y85.426 E.20842
G1 X116.552 Y85.426 E.01676
G1 X121.781 Y90.655 E.23212
G1 X121.781 Y91.189 E.01676
G1 X116.018 Y85.426 E.25583
G1 X115.485 Y85.426 E.01673
G1 X121.781 Y91.723 E.27951
G1 X121.781 Y92.257 E.01676
G1 X114.951 Y85.426 E.30322
G1 X114.417 Y85.426 E.01676
G1 X121.781 Y92.791 E.32692
G1 X121.781 Y93.324 E.01673
G1 X113.883 Y85.426 E.35061
G1 X113.349 Y85.426 E.01676
G1 X121.781 Y93.858 E.37431
G1 X121.781 Y94.392 E.01676
G1 X112.815 Y85.426 E.39802
G1 X112.281 Y85.426 E.01676
G1 X121.781 Y94.926 E.42172
G1 X121.781 Y95.46 E.01676
G1 X111.747 Y85.426 E.44543
G1 X111.214 Y85.426 E.01673
G1 X121.781 Y95.994 E.46911
G1 X121.781 Y96.528 E.01676
G1 X110.68 Y85.426 E.49282
G1 X110.146 Y85.426 E.01676
G1 X117.836 Y93.116 E.34137
G1 X118.51 Y93.45 E.02361
G1 X119.086 Y93.878 E.02253
G1 X119.579 Y94.398 E.02249
G1 X119.912 Y94.881 E.01842
G1 X120.198 Y95.478 E.02078
G1 X121.951 Y97.231 E.07782
M204 S1000
;WIPE_START
G1 F8640
G1 X120.611 Y95.891 E-.5
;WIPE_END
G1 X120.175 Y95.99 F10800
G1 E.5 F2400
M204 S800
G1 F1200
G1 X121.781 Y97.595 E.07127
G1 X121.781 Y98.129 E.01676
G1 X120.475 Y96.823 E.05798
G1 X120.492 Y96.999 E.00555
G1 X120.462 Y97.345 E.0109
G1 X121.781 Y98.663 E.05853
G1 X121.781 Y99.197 E.01676
G1 X120.402 Y97.818 E.06122
G1 X120.287 Y98.237 E.01364
G1 X121.781 Y99.731 E.06632
G1 X121.781 Y100.265 E.01676
G1 X120.146 Y98.63 E.07258
G1 X119.973 Y98.991 E.01257
G1 X121.781 Y100.799 E.08026
G1 X121.781 Y101.333 E.01676
G1 X119.769 Y99.32 E.08934
G1 X119.546 Y99.632 E.01204
G1 X121.781 Y101.866 E.09919
G1 X121.781 Y102.4 E.01676
G1 X119.289 Y99.908 E.11062
G1 X119.02 Y100.173 E.01185
G1 X121.781 Y102.934 E.12257
G1 X121.781 Y103.468 E.01676
G1 X118.712 Y100.399 E.13624
G1 X118.397 Y100.618 E.01204
G1 X121.781 Y104.002 E.15022
G1 X121.781 Y104.536 E.01676
G1 X118.032 Y100.787 E.16642
G1 X117.656 Y100.945 E.0128
G1 X121.781 Y105.07 E.18312
G1 X121.781 Y105.604 E.01676
G1 X117.237 Y101.06 E.20172
G1 X117.068 Y101.106 E.0055
G1 X116.781 Y101.138 E.00906
G1 X121.781 Y106.137 E.22194
G1 X121.781 Y106.671 E.01676
G1 X116.271 Y101.161 E.2446
G1 X115.864 Y101.151 E.01278
G1 X115.694 Y101.119 E.00543
G1 X121.781 Y107.205 E.27019
G1 X121.781 Y107.739 E.01676
G1 X114.699 Y100.657 E.31438
M204 S1000
;WIPE_START
G1 F8640
G1 X116.039 Y101.997 E-.5
;WIPE_END
G1 X117.325 Y93.14 F10800
G1 E.5 F2400
M204 S800
G1 F1200
G1 X109.612 Y85.426 E.34242
G1 X109.078 Y85.426 E.01676
G1 X116.492 Y92.84 E.32912
G1 X116.356 Y92.826 E.00429
G1 X115.966 Y92.848 E.01226
G1 X108.544 Y85.426 E.32948
G1 X108.01 Y85.426 E.01676
G1 X115.501 Y92.917 E.33254
G1 X115.227 Y92.971 E.00877
G1 X115.076 Y93.026 E.00504
G1 X107.476 Y85.426 E.33738
G1 X106.943 Y85.426 E.01673
G1 X114.684 Y93.168 E.34366
G1 X114.553 Y93.216 E.00438
G1 X114.328 Y93.345 E.00814
G1 X106.409 Y85.426 E.35154
G1 X105.905 Y85.426 E.01582
G1 X105.89 Y85.442 E.00069
G1 X113.988 Y93.54 E.35948
G1 X113.692 Y93.778 E.01192
G1 X105.741 Y85.826 E.35298
G1 X105.741 Y86.36 E.01676
G1 X113.405 Y94.024 E.34022
G1 X113.285 Y94.127 E.00496
G1 X113.147 Y94.3 E.00695
G1 X105.741 Y86.894 E.32877
G1 X105.741 Y87.428 E.01676
G1 X112.91 Y94.597 E.31824
G1 X112.837 Y94.69 E.00371
G1 X112.707 Y94.928 E.00851
G1 X105.741 Y87.962 E.30923
G1 X105.741 Y88.496 E.01676
G1 X112.518 Y95.273 E.30084
G1 X112.375 Y95.664 E.01307
G1 X105.741 Y89.029 E.29452
G1 X105.741 Y89.563 E.01676
G1 X112.248 Y96.071 E.28888
G1 X112.169 Y96.526 E.0145
G1 X105.741 Y90.097 E.28537
G1 X105.741 Y90.631 E.01676
G1 X112.153 Y97.043 E.28464
G1 X112.149 Y97.291 E.00779
G1 X112.202 Y97.626 E.01065
G1 X105.741 Y91.165 E.28682
G1 X105.741 Y91.699 E.01676
G1 X112.645 Y98.603 E.30648
M204 S1000
;WIPE_START
G1 F8640
G1 X111.305 Y97.263 E-.5
;WIPE_END
G1 X105.571 Y92.063 F10800
G1 E.5 F2400
M204 S800
G1 F1200
G1 X121.781 Y108.273 E.71959
G1 X121.781 Y108.807 E.01676
G1 X105.741 Y92.767 E.71204
G1 X105.741 Y93.3 E.01673
G1 X121.781 Y109.341 E.71207
G1 X121.781 Y109.875 E.01676
G1 X105.741 Y93.834 E.71207
G1 X105.741 Y94.368 E.01676
G1 X121.781 Y110.408 E.71204
G1 X121.781 Y110.942 E.01676
G1 X105.741 Y94.902 E.71204
G1 X105.741 Y95.436 E.01676
G1 X121.781 Y111.476 E.71204
G1 X121.781 Y112.01 E.01676
G1 X105.741 Y95.97 E.71204
G1 X105.741 Y96.504 E.01676
G1 X121.781 Y112.544 E.71204
G1 X121.781 Y113.078 E.01676
G1 X105.741 Y97.038 E.71204
G1 X105.741 Y97.571 E.01673
G1 X121.781 Y113.612 E.71207
G1 X121.781 Y114.146 E.01676
G1 X105.741 Y98.105 E.71207
G1 X105.741 Y98.639 E.01676
G1 X121.781 Y114.679 E.71204
G1 X121.781 Y115.213 E.01676
G1 X105.741 Y99.173 E.71204
G1 X105.741 Y99.707 E.01676
G1 X121.781 Y115.747 E.71204
G1 X121.781 Y116.281 E.01676
G1 X105.741 Y100.241 E.71204
G1 X105.741 Y100.775 E.01676
G1 X121.781 Y116.815 E.71204
G1 X121.781 Y117.349 E.01676
G1 X105.741 Y101.309 E.71204
G1 X105.741 Y101.842 E.01673
M73 P2 R76
G1 X121.781 Y117.883 E.71207
G1 X121.781 Y118.417 E.01676
G1 X105.673 Y102.309 E.71506
G1 X105.564 Y102.734 E.01377
G1 X121.781 Y118.95 E.71988
G1 X121.781 Y119.484 E.01676
G1 X105.455 Y103.158 E.72474
G1 X105.346 Y103.583 E.01377
G1 X121.781 Y120.018 E.72958
G1 X121.781 Y120.552 E.01676
G1 X105.237 Y104.008 E.73442
G1 X105.195 Y104.169 E.00522
G1 X105.097 Y104.402 E.00793
G1 X121.781 Y121.086 E.74063
G1 X121.781 Y121.62 E.01676
M73 P2 R75
G1 X104.908 Y104.747 E.74902
G1 X104.718 Y105.091 E.01234
G1 X121.781 Y122.154 E.75746
G1 X121.781 Y122.688 E.01676
G1 X104.529 Y105.435 E.76587
G1 X104.339 Y105.78 E.01236
G1 X121.781 Y123.221 E.77426
G1 X121.781 Y123.755 E.01676
G1 X104.15 Y106.124 E.78267
G1 X103.961 Y106.469 E.01235
G1 X121.781 Y124.289 E.79106
G1 X121.781 Y124.823 E.01676
G1 X103.771 Y106.813 E.7995
G1 X103.582 Y107.158 E.01235
G1 X121.781 Y125.357 E.80789
G1 X121.781 Y125.891 E.01676
G1 X103.392 Y107.502 E.81632
G1 X103.203 Y107.846 E.01232
G1 X121.781 Y126.425 E.82473
G1 X121.781 Y126.959 E.01676
G1 X120.102 Y125.279 E.07456
G1 X119.978 Y124.997 E.00967
G1 X119.58 Y124.399 E.02255
G1 X119.086 Y123.878 E.02254
G1 X118.509 Y123.449 E.02257
G1 X118.048 Y123.226 E.01607
G1 X103.013 Y108.191 E.66743
G1 X102.824 Y108.535 E.01232
G1 X117.229 Y122.94 E.63946
G1 X117.052 Y122.892 E.00576
G1 X116.599 Y122.844 E.0143
G1 X102.634 Y108.88 E.61991
G1 X102.445 Y109.224 E.01232
G1 X116.062 Y122.841 E.60448
G1 X115.915 Y122.845 E.00462
G1 X115.593 Y122.906 E.01029
G1 X102.256 Y109.569 E.59205
G1 X102.066 Y109.913 E.01234
G1 X115.145 Y122.992 E.5806
G1 X114.759 Y123.14 E.01298
G1 X101.877 Y110.258 E.57186
G1 X101.687 Y110.602 E.01234
G1 X114.389 Y123.304 E.56386
G1 X114.054 Y123.503 E.01223
G1 X101.498 Y110.946 E.55741
G1 X101.308 Y111.291 E.01236
G1 X113.743 Y123.726 E.55201
G1 X113.459 Y123.975 E.01186
G1 X101.119 Y111.635 E.54779
G1 X100.93 Y111.98 E.01235
G1 X113.193 Y124.243 E.54438
G1 X112.956 Y124.54 E.01193
G1 X100.74 Y112.324 E.54229
G1 X100.551 Y112.669 E.01235
G1 X112.743 Y124.861 E.54122
G1 X112.554 Y125.206 E.01235
