; generated by PrusaSlicer 2.6.1+win64 on 2023-10-11 at 06:36:04 UTC

; 

; external perimeters extrusion width = 0.40mm
; perimeters extrusion width = 0.40mm
; infill extrusion width = 0.64mm
; solid infill extrusion width = 0.56mm
; top infill extrusion width = 0.40mm
; support material extrusion width = 0.46mm
; first layer extrusion width = 0.50mm

;TYPE:Custom
M104 S0 ; Stops PS/SS from sending temp waits separately


; Pre-Processed for Cancel-Object support by preprocess_cancellation v0.2.0
; 1 known objects
EXCLUDE_OBJECT_DEFINE NAME=First_Layer_Hex_0_2_stl_id_0_copy_0 CENTER=112.498,117.498 POLYGON=[[72.635,82.95],[72.635,152.05],[152.395,152.05],[152.395,82.95]]
M140 S0
M117
PRINT_START BED=70 HOTEND=195
PURGE_LINE

;; If you are passing variables to PRINT_START, comment out above line and uncomment the last 3 lines instead. (I already did this)
;; Guide: https://github.com/AndrewEllis93/Print-Tuning-Guide/blob/main/articles/passing_slicer_variables.md
;; Make sure the variable names match (for example if you use "EXTRUDER" instead of "HOTEND")
G21 ; set units to millimeters
G90 ; use absolute coordinates
M82 ; use absolute distances for extrusion
G92 E0
; Filament gcode
M107
;LAYER_CHANGE
;Z:0.25
;HEIGHT:0.25
G1 Z.25 F18000
G1 E-.5 F2400
G92 E0
M204 S3500
G1 X90.747 Y81.607 F18000
G1 E.5 F2400
M204 S1000
;TYPE:Skirt/Brim
;WIDTH:0.5
G1 F1800
G1 X91.639 Y80.838 E.55464
G1 X92.293 Y80.715 E.58551
G1 X132.707 Y80.715 E2.46042
G1 X133.82 Y81.103 E2.5151
G1 X134.253 Y81.607 E2.54593
G1 X154.461 Y116.607 E4.42088
G1 X154.68 Y117.765 E4.47555
G1 X154.461 Y118.393 E4.50641
G1 X134.253 Y153.393 E6.38136
G1 X133.361 Y154.162 E6.436
G1 X132.707 Y154.285 E6.46687
G1 X92.293 Y154.285 E8.34178
G1 X91.18 Y153.897 E8.39646
G1 X90.747 Y153.393 E8.42729
G1 X70.539 Y118.393 E10.30224
G1 X70.32 Y117.235 E10.35691
G1 X70.539 Y116.607 E10.38777
G1 X90.717 Y81.659 E12.25994
M204 S3500
G1 X91.103 Y81.882 F18000
M204 S1000
G1 F1800
G1 X91.133 Y81.83 E12.26273
G1 X92.293 Y81.161 E12.32485
G1 X132.707 Y81.161 E14.19976
G1 X133.867 Y81.83 E14.26188
G1 X154.074 Y116.83 E16.13681
G1 X154.074 Y118.17 E16.19898
G1 X133.867 Y153.17 E18.07391
G1 X132.707 Y153.839 E18.13603
G1 X92.293 Y153.839 E20.01094
G1 X91.133 Y153.17 E20.07306
G1 X70.926 Y118.17 E21.94799
G1 X70.926 Y116.83 E22.01016
G1 X91.073 Y81.934 E23.87952
M204 S3500
G1 X91.46 Y82.158 F18000
M204 S1000
G1 F1800
G1 X91.52 Y82.054 E23.88509
G1 X92.293 Y81.607 E23.92652
G1 X132.707 Y81.607 E25.80143
G1 X133.48 Y82.054 E25.84286
G1 X153.688 Y117.054 E27.71781
G1 X153.688 Y117.946 E27.75919
G1 X133.48 Y152.946 E29.63414
G1 X132.707 Y153.393 E29.67557
G1 X92.293 Y153.393 E31.55048
G1 X91.52 Y152.946 E31.59191
G1 X71.312 Y117.946 E33.46686
G1 X71.312 Y117.054 E33.50824
G1 X91.43 Y82.21 E35.37484
M204 S3500
G1 X91.816 Y82.433 F18000
M204 S1000
G1 F1800
G1 X91.906 Y82.277 E35.3832
G1 X92.293 Y82.054 E35.40392
G1 X132.707 Y82.054 E37.27883
G1 X133.094 Y82.277 E37.29955
G1 X153.301 Y117.277 E39.17448
G1 X153.301 Y117.723 E39.19517
G1 X133.094 Y152.723 E41.0701
G1 X132.707 Y152.946 E41.09082
G1 X92.293 Y152.946 E42.96573
G1 X91.906 Y152.723 E42.98645
G1 X71.699 Y117.723 E44.86138
G1 X71.699 Y117.277 E44.88207
G1 X91.786 Y82.485 E46.74586
M204 S3500
; printing object First_Layer_Hex_0.2.stl id:0 copy 0
EXCLUDE_OBJECT_START NAME=First_Layer_Hex_0_2_stl_id_0_copy_0
G1 E46.24586 F2400
G92 E0
G1 X72.605 Y117.5 F18000
G1 E.5 F2400
M204 S1000
;TYPE:External perimeter
G1 F1800
G1 X92.553 Y82.95 E2.35084
G1 X132.447 Y82.95 E4.20163
G1 X152.395 Y117.5 E6.05247
G1 X132.447 Y152.05 E7.90331
G1 X92.553 Y152.05 E9.7541
G1 X72.635 Y117.552 E11.60216
M204 S3500
G1 X72.952 Y117.3 F18000
G1 X73.12 Y117.5
M204 S1000
;TYPE:Perimeter
G1 F1800
G1 X92.81 Y83.396 E13.4291
G1 X132.19 Y83.396 E15.25604
G1 X151.88 Y117.5 E17.08298
G1 X132.19 Y151.604 E18.90992
G1 X92.81 Y151.604 E20.73686
G1 X73.15 Y117.552 E22.56101
M204 S3500
G1 X73.636 Y117.5 F18000
M204 S1000
G1 F1800
G1 X93.068 Y83.843 E24.36401
G1 X131.932 Y83.843 E26.16701
G1 X151.364 Y117.5 E27.97001
G1 X131.932 Y151.157 E29.77301
G1 X93.068 Y151.157 E31.57601
G1 X73.666 Y117.552 E33.37622
M204 S3500
G1 E32.87622 F2400
G92 E0
G1 X133.105 Y86.142 F18000
G1 E.5 F2400
M204 S1000
;TYPE:Solid infill
;WIDTH:0.501738
G1 F1800
G1 X130.939 Y83.977 E.64263
M204 S3500
G1 X130.306 Y83.977 F18000
M204 S1000
G1 F1800
G1 X133.971 Y87.642 E.88402
M204 S3500
G1 X134.836 Y89.141 F18000
M204 S1000
G1 F1800
G1 X129.672 Y83.977 E1.22414
M204 S3500
G1 X129.038 Y83.977 F18000
M204 S1000
G1 F1800
G1 X135.702 Y90.64 E1.66303
M204 S3500
G1 X136.568 Y92.14 F18000
M204 S1000
G1 F1800
G1 X128.405 Y83.977 E2.20068
M204 S3500
G1 X127.771 Y83.977 F18000
M204 S1000
G1 F1800
G1 X137.433 Y93.639 E2.83706
M204 S3500
G1 X138.299 Y95.138 F18000
M204 S1000
G1 F1800
G1 X127.137 Y83.977 E3.57221
M204 S3500
G1 X126.503 Y83.977 F18000
M204 S1000
G1 F1800
G1 X139.165 Y96.638 E4.40616
M204 S3500
G1 X140.03 Y98.137 F18000
M204 S1000
G1 F1800
G1 X125.87 Y83.977 E5.3388
M204 S3500
G1 X125.236 Y83.977 F18000
M204 S1000
G1 F1800
G1 X140.896 Y99.636 E6.37021
M204 S3500
G1 X141.762 Y101.136 F18000
M204 S1000
G1 F1800
G1 X124.602 Y83.977 E7.50041
M204 S3500
G1 X123.969 Y83.977 F18000
M204 S1000
G1 F1800
G1 X142.627 Y102.635 E8.72931
M204 S3500
G1 X143.493 Y104.134 F18000
M204 S1000
G1 F1800
G1 X123.335 Y83.977 E10.05698
M204 S3500
G1 X122.701 Y83.977 F18000
M204 S1000
G1 F1800
G1 X144.359 Y105.634 E11.48344
M204 S3500
G1 X145.224 Y107.133 F18000
M204 S1000
G1 F1800
G1 X122.068 Y83.977 E13.0086
M204 S3500
G1 X121.434 Y83.977 F18000
M204 S1000
G1 F1800
G1 X146.09 Y108.632 E14.63253
M204 S3500
G1 X146.955 Y110.132 F18000
M204 S1000
G1 F1800
G1 X120.8 Y83.977 E16.35522
M204 S3500
G1 X120.167 Y83.977 F18000
M204 S1000
G1 F1800
G1 X147.821 Y111.631 E18.17664
M204 S3500
G1 X148.687 Y113.13 F18000
M204 S1000
G1 F1800
G1 X119.533 Y83.977 E20.09682
M204 S3500
G1 X118.899 Y83.977 F18000
M204 S1000
G1 F1800
G1 X149.552 Y114.63 E22.11577
M204 S3500
G1 X150.418 Y116.129 F18000
M204 S1000
G1 F1800
G1 X118.265 Y83.977 E24.23348
M204 S3500
G1 X117.632 Y83.977 F18000
M204 S1000
G1 F1800
G1 X151.19 Y117.534 E26.44373
M204 S3500
G1 X150.958 Y117.936 F18000
M204 S1000
G1 F1800
G1 X116.998 Y83.977 E28.68046
M204 S3500
G1 X116.364 Y83.977 F18000
M204 S1000
G1 F1800
G1 X150.726 Y118.338 E30.94367
M204 S3500
G1 X150.494 Y118.74 F18000
M204 S1000
G1 F1800
G1 X115.731 Y83.977 E33.23332
M204 S3500
G1 X115.097 Y83.977 F18000
M204 S1000
G1 F1800
G1 X150.262 Y119.141 E35.54942
M204 S3500
G1 X150.03 Y119.543 F18000
M204 S1000
G1 F1800
G1 X114.463 Y83.977 E37.89199
M204 S3500
G1 X113.83 Y83.977 F18000
M204 S1000
G1 F1800
G1 X149.798 Y119.945 E40.26101
M204 S3500
G1 X149.566 Y120.347 F18000
M204 S1000
G1 F1800
G1 X113.196 Y83.977 E42.65651
M204 S3500
G1 X112.562 Y83.977 F18000
M204 S1000
G1 F1800
G1 X149.334 Y120.748 E45.07845
M204 S3500
G1 X149.102 Y121.15 F18000
M204 S1000
G1 F1800
G1 X111.929 Y83.977 E47.52684
M204 S3500
G1 X111.295 Y83.977 F18000
M204 S1000
G1 F1800
G1 X148.87 Y121.552 E50.0017
M204 S3500
G1 X148.638 Y121.954 F18000
M204 S1000
G1 F1800
G1 X110.661 Y83.977 E52.50304
M204 S3500
G1 X110.027 Y83.977 F18000
M204 S1000
G1 F1800
G1 X148.406 Y122.355 E55.03083
M204 S3500
G1 X148.174 Y122.757 F18000
M204 S1000
G1 F1800
G1 X109.394 Y83.977 E57.58506
M204 S3500
G1 X108.76 Y83.977 F18000
M204 S1000
G1 F1800
G1 X147.942 Y123.159 E60.16577
M204 S3500
G1 X147.71 Y123.561 F18000
M204 S1000
G1 F1800
G1 X108.126 Y83.977 E62.77296
M204 S3500
G1 X107.493 Y83.977 F18000
M204 S1000
G1 F1800
G1 X147.478 Y123.962 E65.40656
M204 S3500
G1 X147.247 Y124.364 F18000
M204 S1000
G1 F1800
G1 X106.859 Y83.977 E68.06667
M204 S3500
G1 X106.225 Y83.977 F18000
M204 S1000
G1 F1800
G1 X147.015 Y124.766 E70.75326
M204 S3500
G1 X146.783 Y125.168 F18000
M204 S1000
G1 F1800
G1 X105.592 Y83.977 E73.46629
M204 S3500
G1 X104.958 Y83.977 F18000
M204 S1000
G1 F1800
G1 X146.551 Y125.569 E76.20576
M204 S3500
G1 X146.319 Y125.971 F18000
M204 S1000
G1 F1800
G1 X104.324 Y83.977 E78.97171
M204 S3500
G1 X103.691 Y83.977 F18000
M204 S1000
G1 F1800
G1 X146.087 Y126.373 E81.76411
M204 S3500
G1 X145.855 Y126.775 F18000
M204 S1000
G1 F1800
G1 X103.057 Y83.977 E84.58298
M204 S3500
G1 X102.423 Y83.977 F18000
M204 S1000
G1 F1800
G1 X145.623 Y127.176 E87.4283
M204 S3500
G1 X145.391 Y127.578 F18000
M204 S1000
G1 F1800
G1 X101.79 Y83.977 E90.30006
M204 S3500
G1 X101.156 Y83.977 F18000
M204 S1000
G1 F1800
G1 X145.159 Y127.98 E93.1983
M204 S3500
G1 X144.927 Y128.382 F18000
M204 S1000
G1 F1800
G1 X100.522 Y83.977 E96.12302
M204 S3500
G1 X99.888 Y83.977 F18000
M204 S1000
G1 F1800
G1 X144.695 Y128.783 E99.07418
M204 S3500
G1 X144.463 Y129.185 F18000
M204 S1000
G1 F1800
G1 X99.255 Y83.977 E102.05179
M204 S3500
G1 X98.621 Y83.977 F18000
M204 S1000
G1 F1800
G1 X144.231 Y129.587 E105.05588
M204 S3500
G1 X143.999 Y129.989 F18000
M204 S1000
G1 F1800
G1 X97.987 Y83.977 E108.08644
M204 S3500
G1 X97.354 Y83.977 F18000
M204 S1000
G1 F1800
G1 X143.767 Y130.39 E111.14342
M204 S3500
G1 X143.535 Y130.792 F18000
M204 S1000
G1 F1800
G1 X96.72 Y83.977 E114.22687
M204 S3500
G1 X96.086 Y83.977 F18000
M204 S1000
G1 F1800
G1 X143.303 Y131.194 E117.3368
M204 S3500
G1 X143.071 Y131.595 F18000
M204 S1000
G1 F1800
G1 X95.453 Y83.977 E120.47314
M204 S3500
G1 X94.819 Y83.977 F18000
M204 S1000
G1 F1800
G1 X142.84 Y131.997 E123.63599
M204 S3500
G1 X142.608 Y132.399 F18000
M204 S1000
G1 F1800
G1 X94.185 Y83.977 E126.82532
M204 S3500
G1 X93.552 Y83.977 F18000
M204 S1000
G1 F1800
G1 X142.376 Y132.801 E130.0411
M204 S3500
G1 X142.144 Y133.202 F18000
M204 S1000
G1 F1800
G1 X93.062 Y84.121 E133.27384
M204 S3500
G1 X92.83 Y84.523 F18000
M204 S1000
G1 F1800
G1 X141.912 Y133.604 E136.50658
M204 S3500
G1 X141.68 Y134.006 F18000
M204 S1000
G1 F1800
G1 X92.598 Y84.924 E139.73935
M204 S3500
G1 X92.366 Y85.326 F18000
M204 S1000
G1 F1800
G1 X141.448 Y134.408 E142.97212
M204 S3500
G1 X141.216 Y134.809 F18000
M204 S1000
G1 F1800
G1 X92.134 Y85.728 E146.20486
M204 S3500
G1 X91.902 Y86.13 F18000
M204 S1000
G1 F1800
G1 X140.984 Y135.211 E149.4376
M204 S3500
G1 X140.752 Y135.613 F18000
M204 S1000
G1 F1800
G1 X91.67 Y86.531 E152.67037
M204 S3500
G1 X91.438 Y86.933 F18000
M204 S1000
G1 F1800
G1 X140.52 Y136.015 E155.90314
M204 S3500
G1 X140.288 Y136.416 F18000
M204 S1000
G1 F1800
G1 X91.206 Y87.335 E159.13588
M204 S3500
G1 X90.974 Y87.736 F18000
M204 S1000
G1 F1800
G1 X140.056 Y136.818 E162.36865
M204 S3500
G1 X139.824 Y137.22 F18000
M204 S1000
G1 F1800
G1 X90.743 Y88.138 E165.60139
M204 S3500
G1 X90.511 Y88.54 F18000
M204 S1000
G1 F1800
G1 X139.592 Y137.622 E168.83413
M204 S3500
G1 X139.36 Y138.023 F18000
M204 S1000
G1 F1800
G1 X90.279 Y88.942 E172.06683
M204 S3500
G1 X90.047 Y89.343 F18000
M204 S1000
G1 F1800
G1 X139.128 Y138.425 E175.29957
M204 S3500
G1 X138.896 Y138.827 F18000
M204 S1000
G1 F1800
G1 X89.815 Y89.745 E178.53231
M204 S3500
G1 X89.583 Y90.147 F18000
M204 S1000
G1 F1800
G1 X138.664 Y139.229 E181.76505
M204 S3500
G1 X138.433 Y139.63 F18000
M204 S1000
G1 F1800
G1 X89.351 Y90.549 E184.99779
M204 S3500
G1 X89.119 Y90.95 F18000
M204 S1000
G1 F1800
G1 X138.201 Y140.032 E188.23056
M204 S3500
G1 X137.969 Y140.434 F18000
M204 S1000
G1 F1800
G1 X88.887 Y91.352 E191.46333
M204 S3500
G1 X88.655 Y91.754 F18000
M204 S1000
G1 F1800
G1 X137.737 Y140.836 E194.6961
M204 S3500
G1 X137.505 Y141.237 F18000
M204 S1000
G1 F1800
G1 X88.423 Y92.156 E197.92884
M204 S3500
G1 X88.191 Y92.557 F18000
M204 S1000
G1 F1800
G1 X137.273 Y141.639 E201.16161
M204 S3500
G1 X137.041 Y142.041 F18000
M204 S1000
G1 F1800
G1 X87.959 Y92.959 E204.39438
M204 S3500
G1 X87.727 Y93.361 F18000
M204 S1000
G1 F1800
G1 X136.809 Y142.443 E207.62715
M204 S3500
G1 X136.577 Y142.844 F18000
M204 S1000
G1 F1800
G1 X87.495 Y93.763 E210.85989
M204 S3500
G1 X87.263 Y94.164 F18000
M204 S1000
G1 F1800
G1 X136.345 Y143.246 E214.09266
M204 S3500
G1 X136.113 Y143.648 F18000
M204 S1000
G1 F1800
G1 X87.031 Y94.566 E217.32543
M204 S3500
G1 X86.799 Y94.968 F18000
M204 S1000
G1 F1800
G1 X135.881 Y144.05 E220.5582
M204 S3500
G1 X135.649 Y144.451 F18000
M204 S1000
G1 F1800
G1 X86.567 Y95.37 E223.79094
M204 S3500
G1 X86.336 Y95.771 F18000
M204 S1000
G1 F1800
G1 X135.417 Y144.853 E227.02368
M204 S3500
G1 X135.185 Y145.255 F18000
M204 S1000
G1 F1800
G1 X86.104 Y96.173 E230.25642
M204 S3500
G1 X85.872 Y96.575 F18000
M204 S1000
G1 F1800
G1 X134.953 Y145.657 E233.48916
M204 S3500
G1 X134.721 Y146.058 F18000
M204 S1000
G1 F1800
G1 X85.64 Y96.977 E236.72186
M204 S3500
G1 X85.408 Y97.378 F18000
M204 S1000
G1 F1800
G1 X134.489 Y146.46 E239.9546
M204 S3500
G1 X134.257 Y146.862 F18000
M204 S1000
G1 F1800
G1 X85.176 Y97.78 E243.18734
M204 S3500
G1 X84.944 Y98.182 F18000
M204 S1000
G1 F1800
G1 X134.026 Y147.264 E246.42011
M204 S3500
G1 X133.794 Y147.665 F18000
M204 S1000
G1 F1800
G1 X84.712 Y98.584 E249.65285
M204 S3500
G1 X84.48 Y98.985 F18000
M204 S1000
G1 F1800
G1 X133.562 Y148.067 E252.88562
M204 S3500
G1 X133.33 Y148.469 F18000
M204 S1000
G1 F1800
G1 X84.248 Y99.387 E256.11839
M204 S3500
G1 X84.016 Y99.789 F18000
M204 S1000
G1 F1800
G1 X133.098 Y148.871 E259.35116
M204 S3500
G1 X132.866 Y149.272 F18000
M204 S1000
G1 F1800
G1 X83.784 Y100.191 E262.5839
M204 S3500
G1 X83.552 Y100.592 F18000
M204 S1000
G1 F1800
G1 X132.634 Y149.674 E265.81667
M204 S3500
G1 X132.402 Y150.076 F18000
M204 S1000
G1 F1800
G1 X83.32 Y100.994 E269.04944
M204 S3500
G1 X83.088 Y101.396 F18000
M204 S1000
G1 F1800
G1 X132.17 Y150.477 E272.28218
M204 S3500
G1 X131.938 Y150.879 F18000
M204 S1000
G1 F1800
G1 X82.856 Y101.798 E275.51492
M204 S3500
G1 X82.624 Y102.199 F18000
M204 S1000
G1 F1800
G1 X131.448 Y151.023 E278.7307
M204 S3500
G1 X130.815 Y151.023 F18000
M204 S1000
G1 F1800
G1 X82.392 Y102.601 E281.92003
M204 S3500
G1 X82.16 Y103.003 F18000
M204 S1000
G1 F1800
G1 X130.181 Y151.023 E285.08288
M204 S3500
G1 X129.547 Y151.023 F18000
M204 S1000
G1 F1800
G1 X81.929 Y103.405 E288.21922
M204 S3500
G1 X81.697 Y103.806 F18000
M204 S1000
G1 F1800
G1 X128.914 Y151.023 E291.32915
M204 S3500
G1 X128.28 Y151.023 F18000
M204 S1000
G1 F1800
G1 X81.465 Y104.208 E294.4126
M204 S3500
G1 X81.233 Y104.61 F18000
M204 S1000
G1 F1800
G1 X127.646 Y151.023 E297.46958
M204 S3500
G1 X127.013 Y151.023 F18000
M204 S1000
G1 F1800
G1 X81.001 Y105.012 E300.50011
M204 S3500
G1 X80.769 Y105.413 F18000
M204 S1000
G1 F1800
G1 X126.379 Y151.023 E303.5042
M204 S3500
G1 X125.745 Y151.023 F18000
M204 S1000
G1 F1800
G1 X80.537 Y105.815 E306.48181
M204 S3500
G1 X80.305 Y106.217 F18000
M204 S1000
G1 F1800
G1 X125.112 Y151.023 E309.43297
M204 S3500
G1 X124.478 Y151.023 F18000
M204 S1000
G1 F1800
G1 X80.073 Y106.619 E312.35766
M204 S3500
G1 X79.841 Y107.02 F18000
M204 S1000
G1 F1800
G1 X123.844 Y151.023 E315.2559
M204 S3500
G1 X123.21 Y151.023 F18000
M204 S1000
G1 F1800
G1 X79.609 Y107.422 E318.12766
M204 S3500
G1 X79.377 Y107.824 F18000
M204 S1000
G1 F1800
G1 X122.577 Y151.023 E320.97298
M204 S3500
G1 X121.943 Y151.023 F18000
M204 S1000
G1 F1800
G1 X79.145 Y108.225 E323.79185
M204 S3500
G1 X78.913 Y108.627 F18000
M204 S1000
G1 F1800
G1 X121.309 Y151.023 E326.58425
M204 S3500
G1 X120.676 Y151.023 F18000
M204 S1000
G1 F1800
G1 X78.681 Y109.029 E329.3502
M204 S3500
G1 X78.449 Y109.431 F18000
M204 S1000
G1 F1800
G1 X120.042 Y151.023 E332.08967
M204 S3500
G1 X119.408 Y151.023 F18000
M204 S1000
G1 F1800
G1 X78.217 Y109.832 E334.8027
M204 S3500
G1 X77.985 Y110.234 F18000
M204 S1000
G1 F1800
G1 X118.775 Y151.023 E337.48929
M204 S3500
G1 X118.141 Y151.023 F18000
M204 S1000
G1 F1800
G1 X77.753 Y110.636 E340.1494
M204 S3500
G1 X77.522 Y111.038 F18000
M204 S1000
G1 F1800
G1 X117.507 Y151.023 E342.783
M204 S3500
G1 X116.874 Y151.023 F18000
M204 S1000
G1 F1800
G1 X77.29 Y111.439 E345.39019
M204 S3500
G1 X77.058 Y111.841 F18000
M204 S1000
G1 F1800
G1 X116.24 Y151.023 E347.9709
M204 S3500
G1 X115.606 Y151.023 F18000
M204 S1000
G1 F1800
G1 X76.826 Y112.243 E350.52513
M204 S3500
G1 X76.594 Y112.645 F18000
M204 S1000
G1 F1800
G1 X114.972 Y151.023 E353.05288
M204 S3500
G1 X114.339 Y151.023 F18000
M204 S1000
G1 F1800
G1 X76.362 Y113.046 E355.55422
M204 S3500
