; generated by PrusaSlicer 2.6.1+win64 on 2023-10-13 at 18:04:26 UTC

; 

; external perimeters extrusion width = 0.40mm
; perimeters extrusion width = 0.46mm
; infill extrusion width = 0.46mm
; solid infill extrusion width = 0.56mm
; top infill extrusion width = 0.40mm
; first layer extrusion width = 0.50mm

;TYPE:Custom
M104 S0 ; Stops PS/SS from sending temp waits separately


; Pre-Processed for Cancel-Object support by preprocess_cancellation v0.2.0
; 1 known objects
EXCLUDE_OBJECT_DEFINE NAME=First_Layer_Hex_0_2_stl_id_0_copy_0 CENTER=114.112,115.861 POLYGON=[[72.404,82.75],[72.404,152.25],[152.626,152.25],[152.626,82.75]]
M140 S0
M117
PRINT_START BED=70 HOTEND=250
PURGE_LINE

;; If you are passing variables to PRINT_START, comment out above line and uncomment the last 3 lines instead. (I already did this)
;; Guide: https://github.com/AndrewEllis93/Print-Tuning-Guide/blob/main/articles/passing_slicer_variables.md
;; Make sure the variable names match (for example if you use "EXTRUDER" instead of "HOTEND")
G21 ; set units to millimeters
G90 ; use absolute coordinates
M82 ; use absolute distances for extrusion
G92 E0
; Filament gcode
SET_PRESSURE_ADVANCE ADVANCE=0.05
M107
;LAYER_CHANGE
;Z:0.26
;HEIGHT:0.26
G1 Z.26 F18000
G1 E-.7 F2400
G92 E0
G1 Z.36 F18000
M204 S3500
G1 X88.925 Y80.556
G1 Z.26
G1 E.7 F2400
M204 S1000
;TYPE:Skirt/Brim
;WIDTH:0.5
G1 F1800
G1 X90.121 Y79.275 E.78415
G1 X92.293 Y78.612 E.89319
G1 X132.707 Y78.612 E2.83372
G1 X134.415 Y79.006 E2.91789
G1 X136.075 Y80.556 E3.02694
G1 X156.282 Y115.556 E4.96749
G1 X156.794 Y117.232 E5.05164
G1 X156.282 Y119.444 E5.16066
G1 X136.075 Y154.444 E7.10121
G1 X134.879 Y155.725 E7.18536
G1 X132.707 Y156.388 E7.2944
G1 X92.293 Y156.388 E9.23493
G1 X90.585 Y155.994 E9.3191
G1 X88.925 Y154.444 E9.42815
G1 X68.718 Y119.444 E11.3687
G1 X68.206 Y117.768 E11.45285
G1 X68.718 Y115.556 E11.56187
G1 X88.895 Y80.608 E13.49954
M204 S3500
G1 X89.28 Y80.83 F18000
M204 S1000
G1 F1800
G1 X89.31 Y80.778 E13.50242
G1 X90.451 Y79.589 E13.58155
G1 X92.293 Y79.056 E13.67362
G1 X132.707 Y79.056 E15.61415
G1 X134.307 Y79.45 E15.69327
G1 X135.69 Y80.778 E15.78533
G1 X155.897 Y115.778 E17.72588
G1 X156.356 Y117.361 E17.80502
G1 X155.897 Y119.222 E17.89706
G1 X135.69 Y154.222 E19.83761
G1 X134.549 Y155.411 E19.91674
G1 X132.707 Y155.944 E20.00881
G1 X92.293 Y155.944 E21.94934
G1 X90.693 Y155.55 E22.02846
G1 X89.31 Y154.222 E22.12052
G1 X69.103 Y119.222 E24.06107
G1 X68.644 Y117.639 E24.14021
G1 X69.103 Y115.778 E24.23225
G1 X89.25 Y80.882 E26.16704
M204 S3500
; printing object First_Layer_Hex_0.2.stl id:0 copy 0
EXCLUDE_OBJECT_START NAME=First_Layer_Hex_0_2_stl_id_0_copy_0
G1 E25.46704 F2400
G92 E0
G1 Z.36 F18000
G1 X72.374 Y117.5
G1 Z.26
G1 E.7 F2400
M204 S1000
;TYPE:External perimeter
G1 F1800
G1 X92.437 Y82.75 E2.6267
G1 X132.563 Y82.75 E4.5534
G1 X152.626 Y117.5 E6.4801
G1 X132.563 Y152.25 E8.4068
G1 X92.437 Y152.25 E10.3335
G1 X72.404 Y117.552 E12.25732
M204 S3500
G1 X72.721 Y117.3 F18000
G1 X72.887 Y117.5
M204 S1000
;TYPE:Perimeter
G1 F1800
G1 X92.694 Y83.194 E14.15941
G1 X132.306 Y83.194 E16.06143
G1 X152.113 Y117.5 E17.96352
G1 X132.306 Y151.806 E19.86561
G1 X92.694 Y151.806 E21.76763
G1 X72.917 Y117.552 E23.66684
M204 S3500
G1 X73.4 Y117.5 F18000
M204 S1000
G1 F1800
G1 X92.95 Y83.638 E25.5443
G1 X132.05 Y83.638 E27.42174
G1 X151.6 Y117.5 E29.2992
G1 X132.05 Y151.362 E31.17666
G1 X92.95 Y151.362 E33.0541
G1 X73.43 Y117.552 E34.92867
M204 S3500
G1 E34.22867 F2400
G92 E0
G1 Z.36 F18000
G1 X138.505 Y95.486
G1 Z.26
G1 E.7 F2400
M204 S1000
;TYPE:Solid infill
;WIDTH:0.500799
G1 F1800
G1 X151.215 Y117.5 E1.92276
G1 X131.858 Y151.028 E3.78504
G1 X93.142 Y151.028 E5.64739
G1 X73.785 Y117.5 E7.50967
G1 X93.142 Y83.972 E9.37195
G1 X131.858 Y83.972 E11.2343
G1 X138.475 Y95.434 E11.87093
M204 S3500
G1 X138.12 Y95.708 F18000
M204 S1000
G1 F1800
G1 X150.701 Y117.5 E13.08134
G1 X131.601 Y150.583 E14.9189
G1 X93.399 Y150.583 E16.75652
G1 X74.299 Y117.5 E18.59408
G1 X93.399 Y84.417 E20.43164
G1 X131.601 Y84.417 E22.26926
G1 X138.09 Y95.656 E22.89353
M204 S3500
G1 X137.735 Y95.931 F18000
M204 S1000
G1 F1800
G1 X150.188 Y117.5 E24.09157
G1 X131.344 Y150.138 E25.90444
G1 X93.656 Y150.138 E27.71734
G1 X74.812 Y117.5 E29.53021
G1 X93.656 Y84.862 E31.34308
G1 X131.344 Y84.862 E33.15598
G1 X137.705 Y95.879 E33.76792
M204 S3500
G1 X137.349 Y96.153 F18000
M204 S1000
G1 F1800
G1 X149.674 Y117.5 E34.95363
G1 X131.087 Y149.693 E36.74178
G1 X93.913 Y149.693 E38.52995
G1 X75.326 Y117.5 E40.3181
G1 X93.913 Y85.307 E42.10625
G1 X131.087 Y85.307 E43.89442
G1 X137.319 Y96.101 E44.49397
M204 S3500
G1 X136.964 Y96.376 F18000
M204 S1000
G1 F1800
G1 X149.16 Y117.5 E45.66729
G1 X130.83 Y149.248 E47.43072
G1 X94.17 Y149.248 E49.19417
G1 X75.84 Y117.5 E50.9576
G1 X94.17 Y85.752 E52.72103
G1 X130.83 Y85.752 E54.48448
G1 X136.934 Y96.324 E55.0717
M204 S3500
G1 X136.578 Y96.598 F18000
M204 S1000
G1 F1800
G1 X148.646 Y117.5 E56.23269
G1 X130.573 Y148.803 E57.9714
G1 X94.427 Y148.803 E59.71012
G1 X76.354 Y117.5 E61.44883
G1 X94.427 Y86.197 E63.18754
G1 X130.573 Y86.197 E64.92626
G1 X136.548 Y96.546 E65.50109
M204 S3500
G1 X136.193 Y96.821 F18000
M204 S1000
G1 F1800
G1 X148.132 Y117.5 E66.64969
G1 X130.316 Y148.358 E68.36368
G1 X94.684 Y148.358 E70.07768
G1 X76.868 Y117.5 E71.79167
G1 X94.684 Y86.642 E73.50566
G1 X130.316 Y86.642 E75.21966
G1 X136.163 Y96.769 E75.78216
M204 S3500
G1 X135.808 Y97.043 F18000
M204 S1000
G1 F1800
G1 X147.618 Y117.5 E76.91841
G1 X130.059 Y147.913 E78.60768
G1 X94.941 Y147.913 E80.29695
G1 X77.382 Y117.5 E81.98622
G1 X94.941 Y87.087 E83.67549
G1 X130.059 Y87.087 E85.36476
G1 X135.778 Y96.991 E85.91489
M204 S3500
G1 X135.422 Y97.266 F18000
M204 S1000
G1 F1800
G1 X147.105 Y117.5 E87.0388
G1 X129.802 Y147.468 E88.70338
G1 X95.198 Y147.468 E90.36793
G1 X77.895 Y117.5 E92.03251
G1 X95.198 Y87.532 E93.69709
G1 X129.802 Y87.532 E95.36164
G1 X135.392 Y97.214 E95.89942
M204 S3500
G1 X135.037 Y97.488 F18000
M204 S1000
G1 F1800
G1 X146.591 Y117.5 E97.01097
G1 X129.545 Y147.023 E98.65083
G1 X95.455 Y147.023 E100.29065
G1 X78.409 Y117.5 E101.93051
G1 X95.455 Y87.977 E103.57037
G1 X129.545 Y87.977 E105.21019
G1 X135.007 Y97.436 E105.7356
M204 S3500
G1 X134.652 Y97.711 F18000
M204 S1000
G1 F1800
G1 X146.077 Y117.5 E106.83476
G1 X129.288 Y146.578 E108.4499
G1 X95.712 Y146.578 E110.065
G1 X78.923 Y117.5 E111.68014
G1 X95.712 Y88.422 E113.29528
G1 X129.288 Y88.422 E114.91038
G1 X134.622 Y97.659 E115.42347
M204 S3500
G1 X134.266 Y97.933 F18000
M204 S1000
G1 F1800
G1 X145.563 Y117.5 E116.51031
G1 X129.032 Y146.133 E118.1007
G1 X95.969 Y146.133 E119.69112
G1 X79.437 Y117.5 E121.28154
G1 X95.969 Y88.867 E122.87196
G1 X129.032 Y88.867 E124.46238
G1 X134.236 Y97.881 E124.96305
M204 S3500
G1 X133.881 Y98.156 F18000
M204 S1000
G1 F1800
G1 X145.049 Y117.5 E126.03749
G1 X128.775 Y145.688 E127.60316
G1 X96.225 Y145.688 E129.16891
G1 X79.951 Y117.5 E130.73458
G1 X96.225 Y89.312 E132.30025
G1 X128.775 Y89.312 E133.866
G1 X133.851 Y98.104 E134.35434
M204 S3500
G1 X133.495 Y98.378 F18000
M204 S1000
G1 F1800
G1 X144.535 Y117.5 E135.41646
G1 X128.518 Y145.243 E136.95742
G1 X96.482 Y145.243 E138.49844
G1 X80.465 Y117.5 E140.0394
G1 X96.482 Y89.757 E141.58036
G1 X128.518 Y89.757 E143.12138
G1 X133.465 Y98.326 E143.59733
M204 S3500
G1 X133.11 Y98.601 F18000
M204 S1000
G1 F1800
G1 X144.021 Y117.5 E144.64705
G1 X128.261 Y144.798 E146.16329
G1 X96.739 Y144.798 E147.67959
G1 X80.979 Y117.5 E149.19583
G1 X96.739 Y90.202 E150.71207
G1 X128.261 Y90.202 E152.22837
G1 X133.08 Y98.549 E152.692
M204 S3500
G1 X132.725 Y98.823 F18000
M204 S1000
G1 F1800
G1 X143.508 Y117.5 E153.7294
G1 X128.004 Y144.353 E155.22094
G1 X96.996 Y144.353 E156.71251
G1 X81.492 Y117.5 E158.20405
G1 X96.996 Y90.647 E159.69559
G1 X128.004 Y90.647 E161.18716
G1 X132.695 Y98.771 E161.63842
M204 S3500
G1 X132.339 Y99.046 F18000
M204 S1000
G1 F1800
G1 X142.994 Y117.5 E162.66345
G1 X127.747 Y143.908 E164.13027
G1 X97.253 Y143.908 E165.59712
G1 X82.006 Y117.5 E167.06394
G1 X97.253 Y91.092 E168.53076
G1 X127.747 Y91.092 E169.99761
G1 X132.309 Y98.994 E170.43652
M204 S3500
G1 X131.954 Y99.268 F18000
M204 S1000
G1 F1800
G1 X142.48 Y117.5 E171.4492
G1 X127.49 Y143.463 E172.8913
G1 X97.51 Y143.463 E174.33342
G1 X82.52 Y117.5 E175.77552
G1 X97.51 Y91.537 E177.21762
G1 X127.49 Y91.537 E178.65974
G1 X131.924 Y99.216 E179.08628
M204 S3500
G1 X131.568 Y99.491 F18000
M204 S1000
G1 F1800
G1 X141.966 Y117.5 E180.08659
G1 X127.233 Y143.018 E181.50397
G1 X97.767 Y143.018 E182.92137
G1 X83.034 Y117.5 E184.33875
G1 X97.767 Y91.982 E185.75613
G1 X127.233 Y91.982 E187.17353
G1 X131.538 Y99.439 E187.58772
M204 S3500
G1 X131.183 Y99.713 F18000
M204 S1000
G1 F1800
G1 X141.452 Y117.5 E188.57568
G1 X126.976 Y142.573 E189.96835
G1 X98.024 Y142.573 E191.36102
G1 X83.548 Y117.5 E192.75369
G1 X98.024 Y92.427 E194.14636
G1 X126.976 Y92.427 E195.53903
G1 X131.153 Y99.661 E195.94085
M204 S3500
G1 X130.798 Y99.936 F18000
M204 S1000
G1 F1800
G1 X140.938 Y117.5 E196.91642
G1 X126.719 Y142.128 E198.28437
G1 X98.281 Y142.128 E199.65232
G1 X84.062 Y117.5 E201.02027
G1 X98.281 Y92.872 E202.38822
G1 X126.719 Y92.872 E203.75617
G1 X130.768 Y99.884 E204.14566
M204 S3500
G1 X130.412 Y100.158 F18000
M204 S1000
G1 F1800
G1 X140.425 Y117.5 E205.10892
G1 X126.462 Y141.683 E206.45217
G1 X98.538 Y141.683 E207.79539
G1 X84.575 Y117.5 E209.13864
G1 X98.538 Y93.317 E210.48189
G1 X126.462 Y93.317 E211.82511
G1 X130.382 Y100.106 E212.20221
M204 S3500
G1 X130.027 Y100.381 F18000
M204 S1000
G1 F1800
G1 X139.911 Y117.5 E213.15308
G1 X126.205 Y141.238 E214.47161
G1 X98.795 Y141.238 E215.79011
G1 X85.089 Y117.5 E217.10864
G1 X98.795 Y93.762 E218.42717
G1 X126.205 Y93.762 E219.74567
G1 X129.997 Y100.329 E220.11044
M204 S3500
G1 X129.642 Y100.603 F18000
M204 S1000
G1 F1800
G1 X139.397 Y117.5 E221.04896
G1 X125.948 Y140.793 E222.34277
G1 X99.052 Y140.793 E223.63654
G1 X85.603 Y117.5 E224.93035
G1 X99.052 Y94.207 E226.22416
G1 X125.948 Y94.207 E227.51793
G1 X129.612 Y100.551 E227.87033
M204 S3500
G1 X129.256 Y100.826 F18000
M204 S1000
G1 F1800
G1 X138.883 Y117.5 E228.79648
G1 X125.692 Y140.348 E230.06555
G1 X99.308 Y140.348 E231.33469
G1 X86.117 Y117.5 E232.60376
G1 X99.308 Y94.652 E233.87283
G1 X125.692 Y94.652 E235.14197
G1 X129.226 Y100.774 E235.482
M204 S3500
G1 X128.871 Y101.048 F18000
M204 S1000
G1 F1800
G1 X138.369 Y117.5 E236.3958
G1 X125.435 Y139.903 E237.64015
G1 X99.565 Y139.903 E238.88457
G1 X86.631 Y117.5 E240.12892
G1 X99.565 Y95.097 E241.37327
G1 X125.435 Y95.097 E242.61769
G1 X128.841 Y100.996 E242.94535
M204 S3500
G1 X128.485 Y101.271 F18000
M204 S1000
G1 F1800
G1 X137.855 Y117.5 E243.84678
G1 X125.178 Y139.458 E245.06641
G1 X99.822 Y139.458 E246.2861
G1 X87.145 Y117.5 E247.50573
G1 X99.822 Y95.542 E248.72536
G1 X125.178 Y95.542 E249.94505
G1 X128.455 Y101.219 E250.26036
M204 S3500
G1 X128.1 Y101.493 F18000
M204 S1000
G1 F1800
G1 X137.341 Y117.5 E251.14944
G1 X124.921 Y139.013 E252.34435
G1 X100.079 Y139.013 E253.53932
G1 X87.659 Y117.5 E254.73423
G1 X100.079 Y95.987 E255.92914
G1 X124.921 Y95.987 E257.12411
G1 X128.07 Y101.441 E257.42705
M204 S3500
G1 X127.715 Y101.716 F18000
M204 S1000
G1 F1800
G1 X136.828 Y117.5 E258.30376
G1 X124.664 Y138.568 E259.47398
G1 X100.336 Y138.568 E260.64422
G1 X88.172 Y117.5 E261.81444
G1 X100.336 Y96.432 E262.98466
G1 X124.664 Y96.432 E264.1549
G1 X127.685 Y101.664 E264.44552
M204 S3500
G1 X127.329 Y101.938 F18000
M204 S1000
G1 F1800
G1 X136.314 Y117.5 E265.30991
G1 X124.407 Y138.123 E266.45541
G1 X100.593 Y138.123 E267.60093
G1 X88.686 Y117.5 E268.74643
G1 X100.593 Y96.877 E269.89193
G1 X124.407 Y96.877 E271.03745
G1 X127.299 Y101.886 E271.31567
M204 S3500
G1 X126.944 Y102.161 F18000
M204 S1000
G1 F1800
G1 X135.8 Y117.5 E272.16766
G1 X124.15 Y137.678 E273.28844
G1 X100.85 Y137.678 E274.40924
G1 X89.2 Y117.5 E275.53002
G1 X100.85 Y97.322 E276.6508
G1 X124.15 Y97.322 E277.7716
G1 X126.914 Y102.109 E278.0375
M204 S3500
G1 X126.558 Y102.383 F18000
M204 S1000
G1 F1800
G1 X135.286 Y117.5 E278.87717
G1 X123.893 Y137.233 E279.97323
G1 X101.107 Y137.233 E281.0693
G1 X89.714 Y117.5 E282.16536
G1 X101.107 Y97.767 E283.26142
G1 X123.893 Y97.767 E284.35749
G1 X126.528 Y102.331 E284.61099
M204 S3500
G1 X126.173 Y102.606 F18000
M204 S1000
G1 F1800
G1 X134.772 Y117.5 E285.43827
G1 X123.636 Y136.788 E286.50961
G1 X101.364 Y136.788 E287.58096
G1 X90.228 Y117.5 E288.6523
G1 X101.364 Y98.212 E289.72364
G1 X123.636 Y98.212 E290.79499
G1 X126.143 Y102.554 E291.03617
M204 S3500
G1 X125.788 Y102.828 F18000
M204 S1000
G1 F1800
G1 X134.258 Y117.5 E291.8511
G1 X123.379 Y136.343 E292.89772
G1 X101.621 Y136.343 E293.94434
G1 X90.742 Y117.5 E294.99096
G1 X101.621 Y98.657 E296.03758
G1 X123.379 Y98.657 E297.0842
G1 X125.758 Y102.776 E297.31301
M204 S3500
G1 X125.402 Y103.051 F18000
M204 S1000
G1 F1800
G1 X133.745 Y117.5 E298.11559
G1 X123.122 Y135.898 E299.13752
G1 X101.878 Y135.898 E300.15942
G1 X91.255 Y117.5 E301.18135
G1 X101.878 Y99.102 E302.20328
G1 X123.122 Y99.102 E303.22518
G1 X125.372 Y102.999 E303.44164
M204 S3500
G1 X125.017 Y103.273 F18000
M204 S1000
G1 F1800
G1 X133.231 Y117.5 E304.23187
G1 X122.865 Y135.453 E305.22908
G1 X102.135 Y135.453 E306.22625
G1 X91.769 Y117.5 E307.22346
G1 X102.135 Y99.547 E308.22067
G1 X122.865 Y99.547 E309.21784
G1 X124.987 Y103.221 E309.42193
M204 S3500
G1 X124.632 Y103.496 F18000
M204 S1000
G1 F1800
G1 X132.717 Y117.5 E310.19977
G1 X122.608 Y135.008 E311.17226
G1 X102.392 Y135.008 E312.14471
G1 X92.283 Y117.5 E313.1172
G1 X102.392 Y99.992 E314.08969
G1 X122.608 Y99.992 E315.06214
G1 X124.602 Y103.444 E315.2539
M204 S3500
G1 X124.246 Y103.718 F18000
M204 S1000
G1 F1800
G1 X132.203 Y117.5 E316.01941
G1 X122.352 Y134.563 E316.96715
G1 X102.648 Y134.563 E317.91497
G1 X92.797 Y117.5 E318.86271
G1 X102.648 Y100.437 E319.81045
G1 X122.352 Y100.437 E320.75827
G1 X124.216 Y103.666 E320.93762
M204 S3500
G1 X123.861 Y103.941 F18000
M204 S1000
G1 F1800
G1 X131.689 Y117.5 E321.69074
G1 X122.095 Y134.118 E322.61377
G1 X102.905 Y134.118 E323.53686
G1 X93.311 Y117.5 E324.45989
G1 X102.905 Y100.882 E325.38292
G1 X122.095 Y100.882 E326.30601
G1 X123.831 Y103.889 E326.47303
M204 S3500
G1 X123.475 Y104.163 F18000
M204 S1000
G1 F1800
G1 X131.175 Y117.5 E327.21382
G1 X121.838 Y133.673 E328.11213
G1 X103.162 Y133.673 E329.0105
G1 X93.825 Y117.5 E329.90881
G1 X103.162 Y101.327 E330.80712
G1 X121.838 Y101.327 E331.70549
G1 X123.445 Y104.111 E331.86012
M204 S3500
G1 X123.09 Y104.386 F18000
M204 S1000
G1 F1800
G1 X130.661 Y117.5 E332.58852
G1 X121.581 Y133.228 E333.46211
G1 X103.419 Y133.228 E334.33575
G1 X94.338 Y117.5 E335.20936
G1 X103.419 Y101.772 E336.08297
G1 X121.581 Y101.772 E336.95661
G1 X123.06 Y104.334 E337.09891
M204 S3500
G1 X122.705 Y104.608 F18000
M204 S1000
G1 F1800
G1 X130.148 Y117.5 E337.81498
G1 X121.324 Y132.783 E338.66387
G1 X103.676 Y132.783 E339.51279
G1 X94.852 Y117.5 E340.36168
G1 X103.676 Y102.217 E341.21057
G1 X121.324 Y102.217 E342.05949
G1 X122.675 Y104.556 E342.18942
M204 S3500
G1 X122.319 Y104.831 F18000
M204 S1000
G1 F1800
G1 X129.634 Y117.5 E342.89312
G1 X121.067 Y132.338 E343.71729
G1 X103.933 Y132.338 E344.54148
G1 X95.366 Y117.5 E345.36565
G1 X103.933 Y102.662 E346.18982
G1 X121.067 Y102.662 E347.01401
G1 X122.289 Y104.779 E347.13159
M204 S3500
G1 X121.934 Y105.053 F18000
M204 S1000
G1 F1800
G1 X129.12 Y117.5 E347.82294
G1 X120.81 Y131.893 E348.62239
G1 X104.19 Y131.893 E349.42186
G1 X95.88 Y117.5 E350.22131
G1 X104.19 Y103.107 E351.02076
G1 X120.81 Y103.107 E351.82023
G1 X121.904 Y105.001 E351.92544
M204 S3500
G1 X121.548 Y105.276 F18000
M204 S1000
G1 F1800
G1 X128.606 Y117.5 E352.60443
G1 X120.553 Y131.448 E353.37917
G1 X104.447 Y131.448 E354.15391
G1 X96.394 Y117.5 E354.92865
G1 X104.447 Y103.552 E355.70339
G1 X120.553 Y103.552 E356.47813
G1 X121.518 Y105.224 E356.57099
M204 S3500
G1 X121.163 Y105.498 F18000
M204 S1000
G1 F1800
G1 X128.092 Y117.5 E357.23762
G1 X120.296 Y131.003 E357.98764
G1 X104.704 Y131.003 E358.73766
G1 X96.908 Y117.5 E359.48768
G1 X104.704 Y103.997 E360.2377
G1 X120.296 Y103.997 E360.98772
