; generated by PrusaSlicer 2.6.1+win64 on 2023-10-13 at 18:12:54 UTC

; 

; external perimeters extrusion width = 0.40mm
; perimeters extrusion width = 0.46mm
; infill extrusion width = 0.46mm
; solid infill extrusion width = 0.56mm
; top infill extrusion width = 0.40mm
; first layer extrusion width = 0.50mm

;TYPE:Custom
M104 S0 ; Stops PS/SS from sending temp waits separately


; Pre-Processed for Cancel-Object support by preprocess_cancellation v0.2.0
; 1 known objects
EXCLUDE_OBJECT_DEFINE NAME=First_Layer_Hex_0_2_stl_id_0_copy_0 CENTER=114.112,115.861 POLYGON=[[72.404,82.75],[72.404,152.25],[152.626,152.25],[152.626,82.75]]
M140 S0
M117
PRINT_START BED=60 HOTEND=215
PURGE_LINE

;; If you are passing variables to PRINT_START, comment out above line and uncomment the last 3 lines instead. (I already did this)
;; Guide: https://github.com/AndrewEllis93/Print-Tuning-Guide/blob/main/articles/passing_slicer_variables.md
;; Make sure the variable names match (for example if you use "EXTRUDER" instead of "HOTEND")
G21 ; set units to millimeters
G90 ; use absolute coordinates
M82 ; use absolute distances for extrusion
G92 E0
; Filament gcode
M107
;LAYER_CHANGE
;Z:0.26
;HEIGHT:0.26
G1 Z.26 F18000
G1 E-.5 F2400
G92 E0
M204 S3500
G1 X88.925 Y80.556 F18000
G1 E.5 F2400
M204 S1000
;TYPE:Skirt/Brim
;WIDTH:0.5
G1 F1800
G1 X90.121 Y79.275 E.58415
G1 X92.293 Y78.612 E.69319
G1 X132.707 Y78.612 E2.63372
G1 X134.415 Y79.006 E2.71789
G1 X136.075 Y80.556 E2.82694
G1 X156.282 Y115.556 E4.76749
G1 X156.794 Y117.232 E4.85164
G1 X156.282 Y119.444 E4.96066
G1 X136.075 Y154.444 E6.90121
G1 X134.879 Y155.725 E6.98536
G1 X132.707 Y156.388 E7.0944
G1 X92.293 Y156.388 E9.03493
G1 X90.585 Y155.994 E9.1191
G1 X88.925 Y154.444 E9.22815
G1 X68.718 Y119.444 E11.1687
G1 X68.206 Y117.768 E11.25285
G1 X68.718 Y115.556 E11.36187
G1 X88.895 Y80.608 E13.29954
M204 S3500
G1 X89.28 Y80.83 F18000
M204 S1000
G1 F1800
G1 X89.31 Y80.778 E13.30242
G1 X90.451 Y79.589 E13.38155
G1 X92.293 Y79.056 E13.47362
G1 X132.707 Y79.056 E15.41415
G1 X134.307 Y79.45 E15.49327
G1 X135.69 Y80.778 E15.58533
G1 X155.897 Y115.778 E17.52588
G1 X156.356 Y117.361 E17.60502
G1 X155.897 Y119.222 E17.69706
G1 X135.69 Y154.222 E19.63761
G1 X134.549 Y155.411 E19.71674
G1 X132.707 Y155.944 E19.80881
G1 X92.293 Y155.944 E21.74934
G1 X90.693 Y155.55 E21.82846
G1 X89.31 Y154.222 E21.92052
G1 X69.103 Y119.222 E23.86107
G1 X68.644 Y117.639 E23.94021
G1 X69.103 Y115.778 E24.03225
G1 X89.25 Y80.882 E25.96704
M204 S3500
; printing object First_Layer_Hex_0.2.stl id:0 copy 0
EXCLUDE_OBJECT_START NAME=First_Layer_Hex_0_2_stl_id_0_copy_0
G1 E25.46704 F2400
G92 E0
G1 X72.374 Y117.5 F18000
G1 E.5 F2400
M204 S1000
;TYPE:External perimeter
G1 F1800
G1 X92.437 Y82.75 E2.4267
G1 X132.563 Y82.75 E4.3534
G1 X152.626 Y117.5 E6.2801
G1 X132.563 Y152.25 E8.2068
G1 X92.437 Y152.25 E10.1335
G1 X72.404 Y117.552 E12.05732
M204 S3500
G1 X72.721 Y117.3 F18000
G1 X72.887 Y117.5
M204 S1000
;TYPE:Perimeter
G1 F1800
G1 X92.694 Y83.194 E13.95941
G1 X132.306 Y83.194 E15.86143
G1 X152.113 Y117.5 E17.76352
G1 X132.306 Y151.806 E19.66561
G1 X92.694 Y151.806 E21.56763
G1 X72.917 Y117.552 E23.46684
M204 S3500
G1 X73.4 Y117.5 F18000
M204 S1000
G1 F1800
G1 X92.95 Y83.638 E25.3443
G1 X132.05 Y83.638 E27.22174
G1 X151.6 Y117.5 E29.0992
G1 X132.05 Y151.362 E30.97666
G1 X92.95 Y151.362 E32.8541
G1 X73.43 Y117.552 E34.72867
M204 S3500
G1 E34.22867 F2400
G92 E0
G1 X138.505 Y95.486 F18000
G1 E.5 F2400
M204 S1000
;TYPE:Solid infill
;WIDTH:0.500799
G1 F1800
G1 X151.215 Y117.5 E1.72276
G1 X131.858 Y151.028 E3.58504
G1 X93.142 Y151.028 E5.44739
G1 X73.785 Y117.5 E7.30967
G1 X93.142 Y83.972 E9.17195
G1 X131.858 Y83.972 E11.0343
G1 X138.475 Y95.434 E11.67093
M204 S3500
G1 X138.12 Y95.708 F18000
M204 S1000
G1 F1800
G1 X150.701 Y117.5 E12.88134
G1 X131.601 Y150.583 E14.7189
G1 X93.399 Y150.583 E16.55652
G1 X74.299 Y117.5 E18.39408
G1 X93.399 Y84.417 E20.23164
G1 X131.601 Y84.417 E22.06926
G1 X138.09 Y95.656 E22.69353
M204 S3500
G1 X137.735 Y95.931 F18000
M204 S1000
G1 F1800
G1 X150.188 Y117.5 E23.89157
G1 X131.344 Y150.138 E25.70444
G1 X93.656 Y150.138 E27.51734
G1 X74.812 Y117.5 E29.33021
G1 X93.656 Y84.862 E31.14308
G1 X131.344 Y84.862 E32.95598
G1 X137.705 Y95.879 E33.56792
M204 S3500
G1 X137.349 Y96.153 F18000
M204 S1000
G1 F1800
G1 X149.674 Y117.5 E34.75363
G1 X131.087 Y149.693 E36.54178
G1 X93.913 Y149.693 E38.32995
G1 X75.326 Y117.5 E40.1181
G1 X93.913 Y85.307 E41.90625
G1 X131.087 Y85.307 E43.69442
G1 X137.319 Y96.101 E44.29397
M204 S3500
G1 X136.964 Y96.376 F18000
M204 S1000
G1 F1800
G1 X149.16 Y117.5 E45.46729
G1 X130.83 Y149.248 E47.23072
G1 X94.17 Y149.248 E48.99417
G1 X75.84 Y117.5 E50.7576
G1 X94.17 Y85.752 E52.52103
G1 X130.83 Y85.752 E54.28448
G1 X136.934 Y96.324 E54.8717
M204 S3500
G1 X136.578 Y96.598 F18000
M204 S1000
G1 F1800
G1 X148.646 Y117.5 E56.03269
G1 X130.573 Y148.803 E57.7714
G1 X94.427 Y148.803 E59.51012
G1 X76.354 Y117.5 E61.24883
G1 X94.427 Y86.197 E62.98754
G1 X130.573 Y86.197 E64.72626
G1 X136.548 Y96.546 E65.30109
M204 S3500
G1 X136.193 Y96.821 F18000
M204 S1000
G1 F1800
G1 X148.132 Y117.5 E66.44969
G1 X130.316 Y148.358 E68.16368
G1 X94.684 Y148.358 E69.87768
G1 X76.868 Y117.5 E71.59167
G1 X94.684 Y86.642 E73.30566
G1 X130.316 Y86.642 E75.01966
G1 X136.163 Y96.769 E75.58216
M204 S3500
G1 X135.808 Y97.043 F18000
M204 S1000
G1 F1800
G1 X147.618 Y117.5 E76.71841
G1 X130.059 Y147.913 E78.40768
G1 X94.941 Y147.913 E80.09695
G1 X77.382 Y117.5 E81.78622
G1 X94.941 Y87.087 E83.47549
G1 X130.059 Y87.087 E85.16476
G1 X135.778 Y96.991 E85.71489
M204 S3500
G1 X135.422 Y97.266 F18000
M204 S1000
G1 F1800
G1 X147.105 Y117.5 E86.8388
G1 X129.802 Y147.468 E88.50338
G1 X95.198 Y147.468 E90.16793
G1 X77.895 Y117.5 E91.83251
G1 X95.198 Y87.532 E93.49709
G1 X129.802 Y87.532 E95.16164
G1 X135.392 Y97.214 E95.69942
M204 S3500
G1 X135.037 Y97.488 F18000
M204 S1000
G1 F1800
G1 X146.591 Y117.5 E96.81097
G1 X129.545 Y147.023 E98.45083
G1 X95.455 Y147.023 E100.09065
G1 X78.409 Y117.5 E101.73051
G1 X95.455 Y87.977 E103.37037
G1 X129.545 Y87.977 E105.01019
G1 X135.007 Y97.436 E105.5356
M204 S3500
G1 X134.652 Y97.711 F18000
M204 S1000
G1 F1800
G1 X146.077 Y117.5 E106.63476
G1 X129.288 Y146.578 E108.2499
G1 X95.712 Y146.578 E109.865
G1 X78.923 Y117.5 E111.48014
G1 X95.712 Y88.422 E113.09528
G1 X129.288 Y88.422 E114.71038
G1 X134.622 Y97.659 E115.22347
M204 S3500
G1 X134.266 Y97.933 F18000
M204 S1000
G1 F1800
G1 X145.563 Y117.5 E116.31031
G1 X129.032 Y146.133 E117.9007
G1 X95.969 Y146.133 E119.49112
G1 X79.437 Y117.5 E121.08154
G1 X95.969 Y88.867 E122.67196
G1 X129.032 Y88.867 E124.26238
G1 X134.236 Y97.881 E124.76305
M204 S3500
G1 X133.881 Y98.156 F18000
M204 S1000
G1 F1800
G1 X145.049 Y117.5 E125.83749
G1 X128.775 Y145.688 E127.40316
G1 X96.225 Y145.688 E128.96891
G1 X79.951 Y117.5 E130.53458
G1 X96.225 Y89.312 E132.10025
G1 X128.775 Y89.312 E133.666
G1 X133.851 Y98.104 E134.15434
M204 S3500
G1 X133.495 Y98.378 F18000
M204 S1000
G1 F1800
G1 X144.535 Y117.5 E135.21646
G1 X128.518 Y145.243 E136.75742
G1 X96.482 Y145.243 E138.29844
G1 X80.465 Y117.5 E139.8394
G1 X96.482 Y89.757 E141.38036
G1 X128.518 Y89.757 E142.92138
G1 X133.465 Y98.326 E143.39733
M204 S3500
G1 X133.11 Y98.601 F18000
M204 S1000
G1 F1800
G1 X144.021 Y117.5 E144.44705
G1 X128.261 Y144.798 E145.96329
G1 X96.739 Y144.798 E147.47959
G1 X80.979 Y117.5 E148.99583
G1 X96.739 Y90.202 E150.51207
G1 X128.261 Y90.202 E152.02837
G1 X133.08 Y98.549 E152.492
M204 S3500
G1 X132.725 Y98.823 F18000
M204 S1000
G1 F1800
G1 X143.508 Y117.5 E153.5294
G1 X128.004 Y144.353 E155.02094
G1 X96.996 Y144.353 E156.51251
G1 X81.492 Y117.5 E158.00405
G1 X96.996 Y90.647 E159.49559
G1 X128.004 Y90.647 E160.98716
G1 X132.695 Y98.771 E161.43842
M204 S3500
G1 X132.339 Y99.046 F18000
M204 S1000
G1 F1800
G1 X142.994 Y117.5 E162.46345
G1 X127.747 Y143.908 E163.93027
G1 X97.253 Y143.908 E165.39712
G1 X82.006 Y117.5 E166.86394
G1 X97.253 Y91.092 E168.33076
G1 X127.747 Y91.092 E169.79761
G1 X132.309 Y98.994 E170.23652
M204 S3500
G1 X131.954 Y99.268 F18000
M204 S1000
G1 F1800
G1 X142.48 Y117.5 E171.2492
G1 X127.49 Y143.463 E172.6913
G1 X97.51 Y143.463 E174.13342
G1 X82.52 Y117.5 E175.57552
G1 X97.51 Y91.537 E177.01762
G1 X127.49 Y91.537 E178.45974
G1 X131.924 Y99.216 E178.88628
M204 S3500
G1 X131.568 Y99.491 F18000
M204 S1000
G1 F1800
G1 X141.966 Y117.5 E179.88659
G1 X127.233 Y143.018 E181.30397
G1 X97.767 Y143.018 E182.72137
G1 X83.034 Y117.5 E184.13875
G1 X97.767 Y91.982 E185.55613
G1 X127.233 Y91.982 E186.97353
G1 X131.538 Y99.439 E187.38772
M204 S3500
G1 X131.183 Y99.713 F18000
M204 S1000
G1 F1800
G1 X141.452 Y117.5 E188.37568
G1 X126.976 Y142.573 E189.76835
G1 X98.024 Y142.573 E191.16102
G1 X83.548 Y117.5 E192.55369
G1 X98.024 Y92.427 E193.94636
G1 X126.976 Y92.427 E195.33903
G1 X131.153 Y99.661 E195.74085
M204 S3500
G1 X130.798 Y99.936 F18000
M204 S1000
G1 F1800
G1 X140.938 Y117.5 E196.71642
G1 X126.719 Y142.128 E198.08437
G1 X98.281 Y142.128 E199.45232
G1 X84.062 Y117.5 E200.82027
G1 X98.281 Y92.872 E202.18822
G1 X126.719 Y92.872 E203.55617
G1 X130.768 Y99.884 E203.94566
M204 S3500
G1 X130.412 Y100.158 F18000
M204 S1000
G1 F1800
G1 X140.425 Y117.5 E204.90892
G1 X126.462 Y141.683 E206.25217
G1 X98.538 Y141.683 E207.59539
G1 X84.575 Y117.5 E208.93864
G1 X98.538 Y93.317 E210.28189
G1 X126.462 Y93.317 E211.62511
G1 X130.382 Y100.106 E212.00221
M204 S3500
G1 X130.027 Y100.381 F18000
M204 S1000
G1 F1800
G1 X139.911 Y117.5 E212.95308
G1 X126.205 Y141.238 E214.27161
G1 X98.795 Y141.238 E215.59011
G1 X85.089 Y117.5 E216.90864
G1 X98.795 Y93.762 E218.22717
G1 X126.205 Y93.762 E219.54567
G1 X129.997 Y100.329 E219.91044
M204 S3500
G1 X129.642 Y100.603 F18000
M204 S1000
G1 F1800
G1 X139.397 Y117.5 E220.84896
G1 X125.948 Y140.793 E222.14277
G1 X99.052 Y140.793 E223.43654
G1 X85.603 Y117.5 E224.73035
G1 X99.052 Y94.207 E226.02416
G1 X125.948 Y94.207 E227.31793
G1 X129.612 Y100.551 E227.67033
M204 S3500
G1 X129.256 Y100.826 F18000
M204 S1000
G1 F1800
G1 X138.883 Y117.5 E228.59648
G1 X125.692 Y140.348 E229.86555
G1 X99.308 Y140.348 E231.13469
G1 X86.117 Y117.5 E232.40376
G1 X99.308 Y94.652 E233.67283
G1 X125.692 Y94.652 E234.94197
G1 X129.226 Y100.774 E235.282
M204 S3500
G1 X128.871 Y101.048 F18000
M204 S1000
G1 F1800
G1 X138.369 Y117.5 E236.1958
G1 X125.435 Y139.903 E237.44015
G1 X99.565 Y139.903 E238.68457
G1 X86.631 Y117.5 E239.92892
G1 X99.565 Y95.097 E241.17327
G1 X125.435 Y95.097 E242.41769
G1 X128.841 Y100.996 E242.74535
M204 S3500
G1 X128.485 Y101.271 F18000
M204 S1000
G1 F1800
G1 X137.855 Y117.5 E243.64678
G1 X125.178 Y139.458 E244.86641
G1 X99.822 Y139.458 E246.0861
G1 X87.145 Y117.5 E247.30573
G1 X99.822 Y95.542 E248.52536
G1 X125.178 Y95.542 E249.74505
G1 X128.455 Y101.219 E250.06036
M204 S3500
G1 X128.1 Y101.493 F18000
M204 S1000
G1 F1800
G1 X137.341 Y117.5 E250.94944
G1 X124.921 Y139.013 E252.14435
G1 X100.079 Y139.013 E253.33932
G1 X87.659 Y117.5 E254.53423
G1 X100.079 Y95.987 E255.72914
G1 X124.921 Y95.987 E256.92411
G1 X128.07 Y101.441 E257.22705
M204 S3500
G1 X127.715 Y101.716 F18000
M204 S1000
G1 F1800
G1 X136.828 Y117.5 E258.10376
G1 X124.664 Y138.568 E259.27398
G1 X100.336 Y138.568 E260.44422
G1 X88.172 Y117.5 E261.61444
G1 X100.336 Y96.432 E262.78466
G1 X124.664 Y96.432 E263.9549
G1 X127.685 Y101.664 E264.24552
M204 S3500
G1 X127.329 Y101.938 F18000
M204 S1000
G1 F1800
G1 X136.314 Y117.5 E265.10991
G1 X124.407 Y138.123 E266.25541
G1 X100.593 Y138.123 E267.40093
G1 X88.686 Y117.5 E268.54643
G1 X100.593 Y96.877 E269.69193
G1 X124.407 Y96.877 E270.83745
G1 X127.299 Y101.886 E271.11567
M204 S3500
G1 X126.944 Y102.161 F18000
M204 S1000
G1 F1800
G1 X135.8 Y117.5 E271.96766
G1 X124.15 Y137.678 E273.08844
G1 X100.85 Y137.678 E274.20924
G1 X89.2 Y117.5 E275.33002
G1 X100.85 Y97.322 E276.4508
G1 X124.15 Y97.322 E277.5716
G1 X126.914 Y102.109 E277.8375
M204 S3500
G1 X126.558 Y102.383 F18000
M204 S1000
G1 F1800
G1 X135.286 Y117.5 E278.67717
G1 X123.893 Y137.233 E279.77323
G1 X101.107 Y137.233 E280.8693
G1 X89.714 Y117.5 E281.96536
G1 X101.107 Y97.767 E283.06142
G1 X123.893 Y97.767 E284.15749
G1 X126.528 Y102.331 E284.41099
M204 S3500
G1 X126.173 Y102.606 F18000
M204 S1000
G1 F1800
G1 X134.772 Y117.5 E285.23827
G1 X123.636 Y136.788 E286.30961
G1 X101.364 Y136.788 E287.38096
G1 X90.228 Y117.5 E288.4523
G1 X101.364 Y98.212 E289.52364
G1 X123.636 Y98.212 E290.59499
G1 X126.143 Y102.554 E290.83617
M204 S3500
G1 X125.788 Y102.828 F18000
M204 S1000
G1 F1800
G1 X134.258 Y117.5 E291.6511
G1 X123.379 Y136.343 E292.69772
G1 X101.621 Y136.343 E293.74434
G1 X90.742 Y117.5 E294.79096
G1 X101.621 Y98.657 E295.83758
G1 X123.379 Y98.657 E296.8842
G1 X125.758 Y102.776 E297.11301
M204 S3500
G1 X125.402 Y103.051 F18000
M204 S1000
G1 F1800
G1 X133.745 Y117.5 E297.91559
G1 X123.122 Y135.898 E298.93752
G1 X101.878 Y135.898 E299.95942
G1 X91.255 Y117.5 E300.98135
G1 X101.878 Y99.102 E302.00328
G1 X123.122 Y99.102 E303.02518
G1 X125.372 Y102.999 E303.24164
M204 S3500
G1 X125.017 Y103.273 F18000
M204 S1000
G1 F1800
G1 X133.231 Y117.5 E304.03187
G1 X122.865 Y135.453 E305.02908
G1 X102.135 Y135.453 E306.02625
G1 X91.769 Y117.5 E307.02346
G1 X102.135 Y99.547 E308.02067
G1 X122.865 Y99.547 E309.01784
G1 X124.987 Y103.221 E309.22193
M204 S3500
G1 X124.632 Y103.496 F18000
M204 S1000
G1 F1800
G1 X132.717 Y117.5 E309.99977
G1 X122.608 Y135.008 E310.97226
G1 X102.392 Y135.008 E311.94471
G1 X92.283 Y117.5 E312.9172
G1 X102.392 Y99.992 E313.88969
G1 X122.608 Y99.992 E314.86214
G1 X124.602 Y103.444 E315.0539
M204 S3500
G1 X124.246 Y103.718 F18000
M204 S1000
G1 F1800
G1 X132.203 Y117.5 E315.81941
G1 X122.352 Y134.563 E316.76715
G1 X102.648 Y134.563 E317.71497
G1 X92.797 Y117.5 E318.66271
G1 X102.648 Y100.437 E319.61045
G1 X122.352 Y100.437 E320.55827
G1 X124.216 Y103.666 E320.73762
M204 S3500
G1 X123.861 Y103.941 F18000
M204 S1000
G1 F1800
G1 X131.689 Y117.5 E321.49074
G1 X122.095 Y134.118 E322.41377
G1 X102.905 Y134.118 E323.33686
G1 X93.311 Y117.5 E324.25989
G1 X102.905 Y100.882 E325.18292
G1 X122.095 Y100.882 E326.10601
G1 X123.831 Y103.889 E326.27303
M204 S3500
G1 X123.475 Y104.163 F18000
M204 S1000
G1 F1800
G1 X131.175 Y117.5 E327.01382
G1 X121.838 Y133.673 E327.91213
G1 X103.162 Y133.673 E328.8105
G1 X93.825 Y117.5 E329.70881
G1 X103.162 Y101.327 E330.60712
G1 X121.838 Y101.327 E331.50549
G1 X123.445 Y104.111 E331.66012
M204 S3500
G1 X123.09 Y104.386 F18000
M204 S1000
G1 F1800
G1 X130.661 Y117.5 E332.38852
G1 X121.581 Y133.228 E333.26211
G1 X103.419 Y133.228 E334.13575
G1 X94.338 Y117.5 E335.00936
G1 X103.419 Y101.772 E335.88297
G1 X121.581 Y101.772 E336.75661
G1 X123.06 Y104.334 E336.89891
M204 S3500
G1 X122.705 Y104.608 F18000
M204 S1000
G1 F1800
G1 X130.148 Y117.5 E337.61498
G1 X121.324 Y132.783 E338.46387
G1 X103.676 Y132.783 E339.31279
G1 X94.852 Y117.5 E340.16168
G1 X103.676 Y102.217 E341.01057
G1 X121.324 Y102.217 E341.85949
G1 X122.675 Y104.556 E341.98942
M204 S3500
G1 X122.319 Y104.831 F18000
M204 S1000
G1 F1800
G1 X129.634 Y117.5 E342.69312
G1 X121.067 Y132.338 E343.51729
G1 X103.933 Y132.338 E344.34148
G1 X95.366 Y117.5 E345.16565
G1 X103.933 Y102.662 E345.98982
G1 X121.067 Y102.662 E346.81401
G1 X122.289 Y104.779 E346.93159
M204 S3500
G1 X121.934 Y105.053 F18000
M204 S1000
G1 F1800
G1 X129.12 Y117.5 E347.62294
G1 X120.81 Y131.893 E348.42239
G1 X104.19 Y131.893 E349.22186
G1 X95.88 Y117.5 E350.02131
G1 X104.19 Y103.107 E350.82076
G1 X120.81 Y103.107 E351.62023
G1 X121.904 Y105.001 E351.72544
M204 S3500
G1 X121.548 Y105.276 F18000
M204 S1000
G1 F1800
G1 X128.606 Y117.5 E352.40443
G1 X120.553 Y131.448 E353.17917
G1 X104.447 Y131.448 E353.95391
G1 X96.394 Y117.5 E354.72865
G1 X104.447 Y103.552 E355.50339
G1 X120.553 Y103.552 E356.27813
G1 X121.518 Y105.224 E356.37099
M204 S3500
G1 X121.163 Y105.498 F18000
M204 S1000
G1 F1800
G1 X128.092 Y117.5 E357.03762
G1 X120.296 Y131.003 E357.78764
G1 X104.704 Y131.003 E358.53766
G1 X96.908 Y117.5 E359.28768
G1 X104.704 Y103.997 E360.0377
G1 X120.296 Y103.997 E360.78772
G1 X121.133 Y105.446 E360.86821
M204 S3500
G1 X120.778 Y105.721 F18000
M204 S1000
G1 F1800
