; generated by PrusaSlicer 2.6.1+win64 on 2023-10-04 at 15:20:41 UTC


;
;
; 

; external perimeters extrusion width = 0.45mm
; perimeters extrusion width = 0.45mm
; infill extrusion width = 0.45mm
; solid infill extrusion width = 0.45mm
; top infill extrusion width = 0.40mm
; first layer extrusion width = 0.42mm

M73 P0 R13


; Pre-Processed for Cancel-Object support by preprocess_cancellation v0.2.0
; 1 known objects
EXCLUDE_OBJECT_DEFINE NAME=GliderMiniV4_tail2_id_0_copy_0 CENTER=110.100,83.118 POLYGON=[[22.761,22.91],[22.761,197.25],[197.232,197.25],[197.232,22.91]]
;TYPE:Custom
M104 S215 ; set extruder temp
M140 S60 ; set bed temp
M190 S60 ; wait for bed temp
M109 S215 ; wait for extruder temp
G28;
G1 Z4.0 F3000 ;Move Z Axis up
G92 E0 ;Reset Extruder
G1 X5.1 Y20 Z0.28 F5000.0 ;Move to start position
G1 X5.1 Y30.0 Z0.28 F1500.0 E1 ;Draw a short bit in case the extruder turns in the wrong direction
G1 X5.1 Y200.0 Z0.28 F1500.0 E15 ;Draw the first line
G1 X5.4 Y200.0 Z0.28 F5000.0 ;Move to side a little
G1 X5.4 Y20 Z0.28 F1500.0 E30 ;Draw the second line
G92 E0 ;Reset Extruder
G1 Z2.0 F3000 ;Move Z Axis up
G21 ; set units to millimeters
G90 ; use absolute coordinates
M83 ; use relative distances for extrusion
; Filament gcode
M107
;LAYER_CHANGE
;Z:0.2
;HEIGHT:0.2
;BEFORE_LAYER_CHANGE
G92 E0.0
;0.2


M73 P1 R13
G1 E-.5 F2400
G1 Z.2 F720
;AFTER_LAYER_CHANGE
;0.2
G1 X39.478 Y54.09 F10800
G1 E.5 F2400
M204 S800
;TYPE:Skirt/Brim
;WIDTH:0.42
G1 F1200
G1 X84.841 Y20.982 E1.76086
G1 X85.333 Y20.706 E.01769
M73 P2 R13
G1 X86.656 Y20.245 E.04393
G1 X87.743 Y20.123 E.0343
G1 X132.568 Y20.143 E1.40546
G1 X133.944 Y20.406 E.04392
G1 X135.159 Y20.982 E.04216
G1 X198.901 Y67.505 E2.4743
G1 X199.726 Y68.592 E.04279
M73 P3 R13
G1 X199.875 Y69.531 E.02981
G1 X199.732 Y72.381 E.08947
G1 X199.397 Y74.818 E.07713
G1 X199.154 Y75.967 E.03682
G1 X198.655 Y77.988 E.06527
G1 X197.861 Y80.352 E.07819
G1 X196.433 Y83.536 E.10941
G1 X195.137 Y85.797 E.08171
G1 X193.851 Y87.646 E.07062
G1 X115.701 Y196.014 E4.18918
G1 X114.053 Y197.726 E.07451
G1 X112.592 Y198.802 E.05689
G1 X111.823 Y199.256 E.028
G1 X110.991 Y199.66 E.029
G1 X109.009 Y199.66 E.06214
M73 P4 R13
G1 X107.757 Y199.021 E.04407
G1 X106.601 Y198.233 E.04387
G1 X105.724 Y197.529 E.03526
G1 X104.299 Y196.014 E.06521
G1 X25.074 Y86.123 E4.24763
G1 X23.567 Y83.536 E.09387
G1 X23.042 Y82.448 E.03788
G1 X22.139 Y80.352 E.07156
G1 X21.345 Y77.988 E.07819
G1 X20.574 Y74.624 E.10821
G1 X20.25 Y72.179 E.07733
G1 X20.126 Y69.537 E.08293
G1 X20.455 Y68.213 E.04278
G1 X21.099 Y67.505 E.03001
G1 X39.43 Y54.126 E.71156
M204 S1000
; printing object GliderMiniV4_tail2 id:0 copy 0
EXCLUDE_OBJECT_START NAME=GliderMiniV4_tail2_id_0_copy_0
;WIPE_START
G1 F8640
M73 P5 R13
G1 X40.96 Y53.009 E-.5
;WIPE_END
G1 X110.745 Y86.294 F10800
G1 E.5 F2400
M204 S800
;TYPE:Perimeter
;WIDTH:0.419999
G1 F1200
G1 X110.826 Y86.305 E.00256
G1 X182.573 Y80.209 E2.25768
G1 X184.989 Y79.848 E.07659
G1 X187.248 Y79.221 E.07351
G1 X189.479 Y78.296 E.07573
G1 X191.632 Y77.066 E.07775
G1 X193.565 Y75.612 E.07584
G1 X195.296 Y73.938 E.0755
G1 X196.033 Y73.048 E.03623
G1 X196.542 Y72.395 E.02596
G1 X196.225 Y74.574 E.06904
G1 X195.611 Y77.124 E.08224
G1 X194.763 Y79.586 E.08164
G1 X194.496 Y80.204 E.02111
G1 X193.655 Y82.019 E.06272
G1 X192.313 Y84.338 E.08401
G1 X190.752 Y86.515 E.08399
G1 X188.987 Y88.529 E.08397
G1 X187.165 Y90.239 E.07835
G1 X120.08 Y95.939 E2.11098
G1 X118.45 Y96.208 E.0518
M73 P6 R13
G1 X118.19 Y96.276 E.00843
G1 X116.583 Y96.847 E.05347
G1 X115.086 Y97.668 E.05353
G1 X113.612 Y98.829 E.05883
G1 X112.628 Y99.9 E.0456
G1 X112.371 Y100.226 E.01302
G1 X111.574 Y101.447 E.04572
G1 X111.439 Y101.703 E.00907
G1 X110.76 Y103.305 E.05455
;WIDTH:0.469702
G1 X110.537 Y104.1 E.0293
;WIDTH:0.519404
G1 X110.314 Y104.895 E.03271
;WIDTH:0.549861
G1 X110.291 Y104.943 E.00224
;WIDTH:0.580318
G1 X110.268 Y104.991 E.00238
G1 X110.246 Y105.538 E.02446
;WIDTH:0.535861
G1 X110.224 Y106.085 E.02244
;WIDTH:0.491404
G1 X110.201 Y106.632 E.02042
;WIDTH:0.446947
G1 X110.201 Y106.679 E.00158
;WIDTH:0.444381
G1 X110.201 Y172.592 E2.20028
G1 X110.27 Y172.846 E.00879
;WIDTH:0.425391
G1 X110.379 Y172.992 E.00579
;WIDTH:0.419999
G1 X112.493 Y175.106 E.09374
G1 X113.451 Y176.228 E.04626
G1 X114.207 Y177.461 E.04535
G1 X114.76 Y178.796 E.04531
G1 X115.097 Y180.201 E.0453
G1 X115.213 Y181.673 E.0463
G1 X115.213 Y188.302 E.20785
G1 X115.077 Y189.896 E.05016
M73 P6 R12
G1 X114.891 Y190.63 E.02374
G1 X114.683 Y191.406 E.02519
G1 X114.034 Y192.837 E.04927
G1 X113.158 Y194.129 E.04894
G1 X112.644 Y194.687 E.02379
G1 X112.074 Y195.257 E.02527
G1 X111.475 Y195.722 E.02378
G1 X110.816 Y196.183 E.02522
G1 X110 Y196.615 E.02895
G1 X109.184 Y196.183 E.02895
G1 X108.525 Y195.722 E.02522
G1 X107.926 Y195.257 E.02378
G1 X107.356 Y194.687 E.02527
G1 X106.842 Y194.129 E.02379
G1 X105.966 Y192.837 E.04894
G1 X105.317 Y191.406 E.04927
G1 X105.109 Y190.63 E.02519
G1 X104.923 Y189.896 E.02374
G1 X104.787 Y188.302 E.05016
G1 X104.787 Y181.673 E.20785
G1 X104.903 Y180.201 E.0463
M73 P7 R12
G1 X105.24 Y178.796 E.0453
G1 X105.793 Y177.461 E.04531
G1 X106.549 Y176.228 E.04535
G1 X107.507 Y175.106 E.04626
G1 X109.621 Y172.992 E.09374
;WIDTH:0.425391
G1 X109.73 Y172.846 E.00579
;WIDTH:0.444381
G1 X109.799 Y172.592 E.00879
G1 X109.799 Y106.679 E2.20028
;WIDTH:0.446947
G1 X109.799 Y106.632 E.00158
;WIDTH:0.491404
G1 X109.776 Y106.085 E.02042
;WIDTH:0.535861
G1 X109.754 Y105.538 E.02244
;WIDTH:0.580318
G1 X109.732 Y104.991 E.02446
G1 X109.709 Y104.943 E.00238
;WIDTH:0.549861
G1 X109.686 Y104.895 E.00224
;WIDTH:0.519404
G1 X109.463 Y104.1 E.03271
;WIDTH:0.469702
G1 X109.24 Y103.305 E.0293
;WIDTH:0.419999
G1 X108.561 Y101.703 E.05455
G1 X108.426 Y101.447 E.00907
G1 X107.629 Y100.226 E.04572
G1 X107.372 Y99.9 E.01302
G1 X106.319 Y98.766 E.04852
G1 X104.914 Y97.668 E.05591
G1 X103.417 Y96.847 E.05353
G1 X101.81 Y96.276 E.05347
G1 X101.55 Y96.208 E.00843
G1 X99.92 Y95.939 E.0518
G1 X32.835 Y90.239 E2.11098
G1 X31.013 Y88.529 E.07835
G1 X29.248 Y86.515 E.08397
G1 X27.687 Y84.338 E.08399
G1 X26.345 Y82.019 E.08401
M73 P8 R12
G1 X25.504 Y80.204 E.06272
G1 X25.237 Y79.586 E.02111
G1 X24.389 Y77.124 E.08164
G1 X23.775 Y74.574 E.08224
G1 X23.455 Y72.368 E.06989
G1 X23.967 Y73.048 E.02669
G1 X24.704 Y73.938 E.03623
G1 X26.435 Y75.612 E.0755
G1 X27.437 Y76.38 E.03958
G1 X28.423 Y77.102 E.03832
G1 X30.521 Y78.296 E.07569
G1 X32.166 Y78.981 E.05587
G1 X32.752 Y79.221 E.01985
G1 X35.079 Y79.863 E.07569
G1 X37.427 Y80.209 E.07441
G1 X109.174 Y86.305 E2.25768
G1 X109.367 Y86.288 E.00607
G1 X109.634 Y86.128 E.00976
;WIDTH:0.444381
G1 X109.799 Y85.741 E.01404
G1 X109.799 Y44.279 E1.38407
G1 X109.617 Y43.874 E.01482
;WIDTH:0.419999
G1 X109.47 Y43.77 E.00565
G1 X109.225 Y43.713 E.00789
G1 X98.294 Y43.713 E.34273
G1 X97.672 Y43.631 E.01967
G1 X97.14 Y43.411 E.01805
G1 X96.641 Y43.028 E.01972
G1 X89.714 Y36.101 E.30715
G1 X89.332 Y35.603 E.01968
M73 P9 R12
G1 X89.112 Y35.071 E.01805
G1 X89.037 Y34.5 E.01806
G1 X89.112 Y33.929 E.01806
G1 X89.332 Y33.397 E.01805
G1 X89.683 Y32.94 E.01807
G1 X90.14 Y32.589 E.01807
G1 X90.672 Y32.369 E.01805
G1 X91.294 Y32.287 E.01967
G1 X102.292 Y32.287 E.34483
G1 X102.914 Y32.369 E.01967
G1 X103.446 Y32.589 E.01805
G1 X103.944 Y32.972 E.0197
G1 X106.094 Y35.121 E.09531
G1 X106.229 Y35.221 E.00527
G1 X106.494 Y35.287 E.00856
G1 X109.221 Y35.287 E.0855
G1 X109.383 Y35.272 E.0051
G1 X109.661 Y35.112 E.01006
G1 X109.814 Y34.771 E.01172
;WIDTH:0.416485
G1 X109.812 Y34.648 E.00382
;WIDTH:0.419999
G1 X109.674 Y33.592 E.03339
G1 X109.636 Y33.449 E.00464
G1 X109.24 Y32.544 E.03097
G1 X108.728 Y31.876 E.02639
G1 X108.347 Y31.559 E.01554
G1 X107.828 Y31.186 E.02004
G1 X107.051 Y30.864 E.02637
G1 X106.634 Y30.79 E.01328
G1 X106.017 Y30.713 E.0195
G1 X105.326 Y30.713 E.02167
G1 X102.492 Y27.879 E.12566
G1 X102.3 Y27.753 E.0072
G1 X102.092 Y27.713 E.00664
G1 X87.794 Y27.713 E.4483
G1 X87.172 Y27.631 E.01967
G1 X86.64 Y27.411 E.01805
G1 X86.183 Y27.06 E.01807
G1 X85.832 Y26.603 E.01807
G1 X85.612 Y26.071 E.01805
G1 X85.537 Y25.5 E.01806
G1 X85.612 Y24.929 E.01806
G1 X85.832 Y24.397 E.01805
G1 X86.183 Y23.94 E.01807
G1 X86.64 Y23.589 E.01807
G1 X87.172 Y23.369 E.01805
G1 X87.794 Y23.287 E.01967
G1 X101.706 Y23.287 E.4362
G1 X102.328 Y23.369 E.01967
G1 X102.86 Y23.589 E.01805
G1 X103.359 Y23.972 E.01972
G1 X108.213 Y28.826 E.21523
G1 X108.216 Y29.783 E.03001
G1 X108.428 Y30.165 E.0137
G1 X108.536 Y30.232 E.00398
G1 X108.779 Y30.287 E.00781
G1 X111.221 Y30.287 E.07657
G1 X111.446 Y30.241 E.0072
G1 X111.572 Y30.165 E.00461
G1 X111.771 Y29.855 E.01155
G1 X111.787 Y29.721 E.00423
G1 X111.787 Y28.826 E.02806
G1 X116.641 Y23.972 E.21523
G1 X117.14 Y23.589 E.01972
G1 X117.672 Y23.369 E.01805
G1 X118.294 Y23.287 E.01967
G1 X132.206 Y23.287 E.4362
G1 X132.828 Y23.369 E.01967
G1 X133.36 Y23.589 E.01805
G1 X133.817 Y23.94 E.01807
G1 X134.168 Y24.397 E.01807
G1 X134.388 Y24.929 E.01805
G1 X134.463 Y25.5 E.01806
G1 X134.388 Y26.071 E.01806
G1 X134.168 Y26.603 E.01805
G1 X133.817 Y27.06 E.01807
G1 X133.36 Y27.411 E.01807
G1 X132.828 Y27.631 E.01805
G1 X132.206 Y27.713 E.01967
G1 X118.248 Y27.713 E.43764
G1 X117.7 Y27.753 E.01723
G1 X117.508 Y27.879 E.0072
G1 X114.674 Y30.713 E.12566
G1 X113.912 Y30.718 E.02389
G1 X112.949 Y30.864 E.03054
G1 X112.044 Y31.26 E.03097
G1 X111.376 Y31.772 E.02639
G1 X110.975 Y32.264 E.0199
G1 X110.686 Y32.672 E.01568
G1 X110.326 Y33.592 E.03098
G1 X110.188 Y34.648 E.03339
;WIDTH:0.416485
G1 X110.186 Y34.771 E.00382
;WIDTH:0.419999
G1 X110.339 Y35.112 E.01172
G1 X110.499 Y35.23 E.00623
G1 X110.747 Y35.287 E.00798
G1 X113.506 Y35.287 E.08651
G1 X113.688 Y35.257 E.00578
G1 X113.906 Y35.121 E.00806
G1 X116.056 Y32.972 E.09531
G1 X116.554 Y32.589 E.0197
G1 X117.086 Y32.369 E.01805
G1 X117.708 Y32.287 E.01967
G1 X128.706 Y32.287 E.34483
G1 X129.328 Y32.369 E.01967
G1 X129.86 Y32.589 E.01805
G1 X130.317 Y32.94 E.01807
G1 X130.668 Y33.397 E.01807
G1 X130.888 Y33.929 E.01805
G1 X130.963 Y34.5 E.01806
M73 P10 R12
G1 X130.888 Y35.071 E.01806
G1 X130.668 Y35.603 E.01805
G1 X130.286 Y36.101 E.01968
G1 X123.359 Y43.028 E.30715
G1 X122.86 Y43.411 E.01972
G1 X122.328 Y43.631 E.01805
G1 X121.706 Y43.713 E.01967
G1 X110.779 Y43.713 E.34261
G1 X110.644 Y43.729 E.00426
G1 X110.383 Y43.874 E.00936
;WIDTH:0.444381
G1 X110.201 Y44.279 E.01482
G1 X110.201 Y85.741 E1.38407
G1 X110.366 Y86.128 E.01404
;WIDTH:0.419999
G1 X110.589 Y86.274 E.00836
G1 X110.686 Y86.286 E.00306
M204 S1000
G1 X110.795 Y85.929 F10800
M204 S800
;TYPE:External perimeter
G1 F1200
G1 X182.541 Y79.833 E2.25765
G1 X184.888 Y79.485 E.07439
G1 X187.147 Y78.857 E.07352
G1 X189.333 Y77.948 E.07423
G1 X191.408 Y76.763 E.07492
G1 X193.304 Y75.341 E.07431
G1 X195.006 Y73.698 E.07417
G1 X195.746 Y72.803 E.03641
;WIDTH:0.464526
G1 X196.137 Y72.314 E.02195
;WIDTH:0.509053
G1 X196.529 Y71.825 E.02429
G1 X196.659 Y71.464 E.01487
;WIDTH:0.475551
G1 X196.789 Y71.104 E.01377
;WIDTH:0.442049
G1 X196.961 Y70.772 E.01241
G1 X197.232 Y70.322 E.01743
G1 X197.168 Y71.222 E.02994
;WIDTH:0.475551
G1 X197.07 Y71.593 E.0138
;WIDTH:0.509053
G1 X196.972 Y71.963 E.01484
G1 X196.946 Y72.185 E.00866
;WIDTH:0.464526
G1 X196.921 Y72.406 E.0078
;WIDTH:0.419999
G1 X196.596 Y74.645 E.07094
G1 X195.974 Y77.226 E.08324
G1 X195.114 Y79.724 E.08283
G1 X194.841 Y80.358 E.02164
M73 P11 R12
G1 X193.99 Y82.193 E.06342
G1 X192.63 Y84.543 E.08513
G1 X191.048 Y86.75 E.08514
G1 X189.258 Y88.791 E.08512
G1 X187.328 Y90.603 E.083
G1 X120.097 Y96.316 E2.11557
G1 X118.512 Y96.58 E.05038
G1 X118.315 Y96.632 E.00639
G1 X116.79 Y97.166 E.05066
G1 X115.344 Y97.948 E.05154
G1 X113.89 Y99.084 E.05785
G1 X112.906 Y100.155 E.0456
G1 X112.687 Y100.432 E.01107
G1 X111.89 Y101.653 E.04572
G1 X111.785 Y101.852 E.00705
G1 X111.126 Y103.396 E.05264
G1 X110.724 Y105.028 E.0527
G1 X110.59 Y106.679 E.05194
G1 X110.59 Y172.592 E2.06665
G1 X110.645 Y172.725 E.00451
G1 X112.77 Y174.85 E.09423
G1 X113.757 Y176.006 E.04766
G1 X114.544 Y177.289 E.04719
M73 P12 R12
G1 X115.119 Y178.679 E.04716
G1 X115.471 Y180.142 E.04718
G1 X115.59 Y181.658 E.04768
G1 X115.59 Y188.318 E.20882
G1 X115.45 Y189.959 E.05164
G1 X115.256 Y190.726 E.02481
G1 X115.039 Y191.533 E.0262
G1 X114.366 Y193.019 E.05115
G1 X113.933 Y193.68 E.02478
G1 X113.453 Y194.366 E.02625
G1 X112.916 Y194.948 E.02483
G1 X112.324 Y195.54 E.02625
G1 X111.699 Y196.025 E.0248
G1 X111.013 Y196.505 E.02625
G1 X110 Y197.041 E.03593
G1 X108.987 Y196.505 E.03593
G1 X108.301 Y196.025 E.02625
G1 X107.676 Y195.54 E.0248
G1 X107.084 Y194.948 E.02625
G1 X106.547 Y194.366 E.02483
G1 X106.067 Y193.68 E.02625
G1 X105.634 Y193.019 E.02478
G1 X104.961 Y191.533 E.05115
G1 X104.744 Y190.726 E.0262
G1 X104.55 Y189.959 E.02481
G1 X104.41 Y188.318 E.05164
G1 X104.41 Y181.658 E.20882
G1 X104.529 Y180.142 E.04768
G1 X104.881 Y178.679 E.04718
G1 X105.456 Y177.289 E.04716
G1 X106.243 Y176.006 E.04719
G1 X107.23 Y174.85 E.04766
G1 X109.355 Y172.725 E.09423
G1 X109.41 Y172.592 E.00451
G1 X109.41 Y106.679 E2.06665
G1 X109.276 Y105.028 E.05194
G1 X108.874 Y103.396 E.0527
G1 X108.215 Y101.852 E.05264
G1 X108.11 Y101.653 E.00705
G1 X107.313 Y100.432 E.04572
G1 X107.094 Y100.155 E.01107
G1 X106.11 Y99.084 E.0456
G1 X104.656 Y97.948 E.05785
G1 X103.21 Y97.166 E.05154
G1 X101.685 Y96.632 E.05066
G1 X101.488 Y96.58 E.00639
G1 X99.903 Y96.316 E.05038
G1 X32.672 Y90.603 E2.11557
G1 X30.742 Y88.791 E.083
M73 P13 R12
G1 X28.952 Y86.75 E.08512
G1 X27.37 Y84.543 E.08514
G1 X26.01 Y82.193 E.08513
G1 X25.159 Y80.358 E.06342
G1 X24.886 Y79.724 E.02164
G1 X24.026 Y77.226 E.08283
G1 X23.404 Y74.645 E.08324
G1 X23.078 Y72.4 E.07113
;WIDTH:0.445183
G1 X23.024 Y72.035 E.01234
;WIDTH:0.470366
G1 X22.97 Y71.67 E.01311
G1 X22.795 Y71.027 E.02368
;WIDTH:0.43575
G1 X22.761 Y70.304 E.02364
G1 X23.216 Y71.102 E.03001
G1 X23.506 Y71.81 E.02499
;WIDTH:0.433792
G1 X23.746 Y72.129 E.01297
;WIDTH:0.419999
G1 X24.257 Y72.807 E.02662
G1 X24.994 Y73.698 E.03626
G1 X26.696 Y75.341 E.07417
G1 X28.61 Y76.775 E.07499
G1 X30.667 Y77.948 E.07425
G1 X32.311 Y78.633 E.05584
G1 X32.853 Y78.857 E.01839
G1 X35.135 Y79.49 E.07425
G1 X37.459 Y79.833 E.07366
G1 X109.205 Y85.929 E2.25765
G1 X109.359 Y85.87 E.00517
G1 X109.41 Y85.741 E.00435
G1 X109.41 Y44.279 E1.30001
G1 X109.353 Y44.144 E.00459
M73 P14 R11
G1 X109.223 Y44.09 E.00441
G1 X98.27 Y44.09 E.34342
G1 X97.573 Y43.998 E.02204
G1 X96.949 Y43.74 E.02117
G1 X96.392 Y43.312 E.02202
G1 X89.43 Y36.35 E.30871
G1 X89.003 Y35.793 E.02201
G1 X88.744 Y35.169 E.02118
G1 X88.656 Y34.5 E.02116
G1 X88.744 Y33.831 E.02116
G1 X89.003 Y33.207 E.02118
G1 X89.414 Y32.671 E.02118
G1 X89.949 Y32.26 E.02115
G1 X90.573 Y32.002 E.02117
G1 X91.27 Y31.91 E.02204
G1 X102.316 Y31.91 E.34634
G1 X103.013 Y32.002 E.02204
G1 X103.636 Y32.26 E.02114
G1 X104.194 Y32.688 E.02205
G1 X106.361 Y34.855 E.09609
G1 X106.494 Y34.91 E.00451
G1 X109.253 Y34.91 E.08651
G1 X109.389 Y34.852 E.00464
G1 X109.439 Y34.697 E.00511
G1 X109.288 Y33.594 E.03491
G1 X108.941 Y32.774 E.02792
G1 X108.429 Y32.106 E.02639
G1 X108.117 Y31.859 E.01248
G1 X107.684 Y31.534 E.01698
G1 X106.906 Y31.212 E.0264
G1 X106.015 Y31.09 E.0282
G1 X105.17 Y31.09 E.02649
G1 X102.225 Y28.145 E.13059
G1 X102.092 Y28.09 E.00451
G1 X87.77 Y28.09 E.44906
G1 X87.073 Y27.998 E.02204
G1 X86.449 Y27.74 E.02117
G1 X85.914 Y27.329 E.02115
G1 X85.503 Y26.793 E.02118
G1 X85.244 Y26.169 E.02118
G1 X85.156 Y25.5 E.02116
G1 X85.244 Y24.831 E.02116
G1 X85.503 Y24.207 E.02118
G1 X85.914 Y23.671 E.02118
G1 X86.449 Y23.26 E.02115
G1 X87.073 Y23.002 E.02117
G1 X87.77 Y22.91 E.02204
G1 X101.73 Y22.91 E.43771
G1 X102.427 Y23.002 E.02204
G1 X103.051 Y23.26 E.02117
G1 X103.608 Y23.688 E.02202
G1 X108.59 Y28.67 E.22091
G1 X108.59 Y29.721 E.03295
G1 X108.662 Y29.869 E.00516
G1 X108.779 Y29.91 E.00389
G1 X111.221 Y29.91 E.07657
G1 X111.338 Y29.869 E.00389
G1 X111.41 Y29.721 E.00516
G1 X111.41 Y28.67 E.03295
G1 X116.392 Y23.688 E.22091
G1 X116.949 Y23.26 E.02202
G1 X117.573 Y23.002 E.02117
G1 X118.27 Y22.91 E.02204
G1 X132.23 Y22.91 E.43771
G1 X132.927 Y23.002 E.02204
G1 X133.551 Y23.26 E.02117
G1 X134.086 Y23.671 E.02115
