; generated by PrusaSlicer 2.6.1+win64 on 2023-10-13 at 20:26:40 UTC

; 

; external perimeters extrusion width = 0.40mm
; perimeters extrusion width = 0.40mm
; infill extrusion width = 0.64mm
; solid infill extrusion width = 0.56mm
; top infill extrusion width = 0.40mm
; support material extrusion width = 0.46mm
; first layer extrusion width = 0.50mm

;TYPE:Custom
M104 S0 ; Stops PS/SS from sending temp waits separately


; Pre-Processed for Cancel-Object support by preprocess_cancellation v0.2.0
; 1 known objects
EXCLUDE_OBJECT_DEFINE NAME=grille_Fan_STL_id_0_copy_0 CENTER=112.765,116.710 POLYGON=[[92.7,97.7],[92.7,137.3],[132.3,137.3],[132.3,97.7]]
M140 S0
M117
PRINT_START BED=60 HOTEND=215
PURGE_LINE

;; If you are passing variables to PRINT_START, comment out above line and uncomment the last 3 lines instead. (I already did this)
;; Guide: https://github.com/AndrewEllis93/Print-Tuning-Guide/blob/main/articles/passing_slicer_variables.md
;; Make sure the variable names match (for example if you use "EXTRUDER" instead of "HOTEND")
G21 ; set units to millimeters
G90 ; use absolute coordinates
M82 ; use absolute distances for extrusion
G92 E0
; Filament gcode
M107
;LAYER_CHANGE
;Z:0.25
;HEIGHT:0.25
G1 Z.25 F18000
G1 E-.5 F2400
G92 E0
M204 S3500
G1 X92.087 Y97.194 F18000
G1 E.5 F2400
M204 S1000
;TYPE:Skirt/Brim
;WIDTH:0.5
G1 F1800
G1 X92.661 Y96.714 E.53471
G1 X93.256 Y96.407 E.56577
G1 X93.831 Y96.23 E.59368
G1 X94.5 Y96.161 E.62488
G1 X130.722 Y96.173 E2.30531
G1 X131.316 Y96.263 E2.33318
G1 X131.88 Y96.461 E2.36091
G1 X132.457 Y96.801 E2.39198
G1 X132.913 Y97.194 E2.41991
G1 X133.539 Y98.12 E2.47177
G1 X133.792 Y98.975 E2.51314
G1 X133.837 Y99.423 E2.53403
G1 X133.839 Y135.5 E4.20774
G1 X133.77 Y136.169 E4.23894
G1 X133.625 Y136.673 E4.26327
G1 X133.286 Y137.339 E4.29794
G1 X132.913 Y137.806 E4.32567
G1 X132.402 Y138.239 E4.35674
G1 X131.88 Y138.539 E4.38467
G1 X131.169 Y138.77 E4.41935
G1 X130.5 Y138.839 E4.45055
G1 X94.5 Y138.839 E6.12069
G1 X93.327 Y138.625 E6.17601
G1 X92.788 Y138.365 E6.20377
G1 X92.194 Y137.913 E6.2384
G1 X91.761 Y137.402 E6.26947
G1 X91.461 Y136.88 E6.2974
G1 X91.23 Y136.169 E6.33208
G1 X91.161 Y135.5 E6.36328
G1 X91.161 Y99.5 E8.03342
G1 X91.375 Y98.327 E8.08874
G1 X91.635 Y97.788 E8.1165
G1 X92.051 Y97.241 E8.14838
M204 S3500
G1 X92.404 Y97.513 F18000
M204 S1000
G1 F1800
G1 X92.42 Y97.491 E8.14964
G1 X92.919 Y97.079 E8.17966
G1 X93.449 Y96.809 E8.20725
G1 X93.905 Y96.67 E8.22937
G1 X94.5 Y96.607 E8.25713
G1 X130.722 Y96.62 E9.93756
G1 X131.709 Y96.873 E9.98483
G1 X132.58 Y97.491 E10.03438
G1 X133.127 Y98.291 E10.07934
G1 X133.357 Y99.074 E10.1172
G1 X133.391 Y99.449 E10.13467
G1 X133.393 Y135.5 E11.80717
G1 X133.213 Y136.502 E11.8544
G1 X132.975 Y136.996 E11.87984
G1 X132.58 Y137.509 E11.90988
G1 X131.709 Y138.127 E11.95943
G1 X131.095 Y138.33 E11.98943
G1 X130.5 Y138.393 E12.01719
G1 X94.5 Y138.393 E13.68733
G1 X93.498 Y138.213 E13.73456
G1 X92.919 Y137.921 E13.76464
G1 X92.491 Y137.58 E13.79003
G1 X91.873 Y136.709 E13.83958
G1 X91.67 Y136.095 E13.86958
G1 X91.607 Y135.5 E13.89734
G1 X91.607 Y99.5 E15.56748
G1 X91.787 Y98.498 E15.61471
G1 X92.025 Y98.004 E15.64015
G1 X92.367 Y97.56 E15.66615
M204 S3500
G1 X92.714 Y97.837 F18000
M204 S1000
G1 F1800
G1 X92.753 Y97.788 E15.66906
G1 X93.178 Y97.443 E15.69446
G1 X93.643 Y97.211 E15.71857
G1 X94.5 Y97.054 E15.75899
G1 X130.721 Y97.066 E17.43938
G1 X131.539 Y97.286 E17.47868
G1 X132.247 Y97.788 E17.51894
G1 X132.714 Y98.461 E17.55694
G1 X132.946 Y99.474 E17.60515
G1 X132.946 Y135.5 E19.27649
G1 X132.8 Y136.331 E19.31563
G1 X132.584 Y136.78 E19.33875
G1 X132.247 Y137.212 E19.36417
G1 X131.539 Y137.714 E19.40443
G1 X131.02 Y137.89 E19.42985
G1 X130.5 Y137.946 E19.45411
G1 X94.5 Y137.946 E21.12425
G1 X93.669 Y137.8 E21.16339
G1 X93.22 Y137.584 E21.18651
G1 X92.788 Y137.247 E21.21193
G1 X92.286 Y136.539 E21.25219
G1 X92.11 Y136.02 E21.27761
G1 X92.054 Y135.5 E21.30187
G1 X92.054 Y99.5 E22.97201
G1 X92.2 Y98.669 E23.01115
G1 X92.443 Y98.178 E23.03657
G1 X92.677 Y97.884 E23.054
M204 S3500
; printing object grille_Fan.STL id:0 copy 0
EXCLUDE_OBJECT_START NAME=grille_Fan_STL_id_0_copy_0
G1 E22.554 F2400
G92 E0
G1 X131.012 Y98.038 F18000
G1 E.5 F2400
M204 S1000
;TYPE:External perimeter
G1 F1800
G1 X131.161 Y98.099 E.50747
G1 X131.474 Y98.296 E.52463
G1 X131.596 Y98.405 E.53222
G1 X131.711 Y98.534 E.54024
G1 X131.812 Y98.676 E.54832
G1 X131.896 Y98.828 E.55638
G1 X131.958 Y98.977 E.56387
G1 X132.04 Y99.337 E.581
G1 X132.05 Y99.513 E.58918
G1 X132.05 Y135.487 E2.25811
G1 X132.04 Y135.673 E2.26675
G1 X132.01 Y135.845 E2.27485
G1 X131.962 Y136.012 E2.28291
G1 X131.896 Y136.172 E2.29094
G1 X131.812 Y136.324 E2.299
G1 X131.711 Y136.466 E2.30708
G1 X131.604 Y136.586 E2.31454
G1 X131.315 Y136.817 E2.3317
G1 X131.172 Y136.896 E2.33928
G1 X131.012 Y136.962 E2.34731
G1 X130.845 Y137.01 E2.35537
G1 X130.673 Y137.04 E2.36347
G1 X130.487 Y137.05 E2.37211
G1 X94.525 Y137.05 E4.04048
G1 X94.145 Y137.007 E4.05822
G1 X93.988 Y136.962 E4.0658
G1 X93.828 Y136.896 E4.07383
G1 X93.676 Y136.812 E4.08189
G1 X93.534 Y136.711 E4.08997
G1 X93.414 Y136.604 E4.09743
G1 X93.183 Y136.315 E4.11459
G1 X93.104 Y136.172 E4.12217
G1 X93.038 Y136.012 E4.1302
G1 X92.99 Y135.845 E4.13826
G1 X92.96 Y135.673 E4.14636
G1 X92.95 Y135.487 E4.155
G1 X92.95 Y99.525 E5.82337
G1 X92.993 Y99.145 E5.84111
G1 X93.038 Y98.988 E5.84869
G1 X93.104 Y98.828 E5.85672
G1 X93.188 Y98.676 E5.86478
G1 X93.289 Y98.534 E5.87286
G1 X93.404 Y98.404 E5.88091
G1 X93.534 Y98.289 E5.88896
G1 X93.665 Y98.195 E5.89644
G1 X93.998 Y98.035 E5.91358
G1 X94.156 Y97.99 E5.9212
G1 X94.327 Y97.96 E5.92925
G1 X94.513 Y97.95 E5.93789
G1 X130.683 Y97.962 E7.61591
G1 X130.845 Y97.99 E7.62354
G1 X130.954 Y98.021 E7.6288
M204 S3500
G1 X131.042 Y98.196 F18000
G1 X129.324 Y98.633
M204 S1000
G1 F1800
G1 X129.528 Y98.548 E7.63905
G1 X129.761 Y98.492 E7.65017
G1 X130 Y98.474 E7.66129
G1 X130.239 Y98.492 E7.67241
G1 X130.472 Y98.548 E7.68353
G1 X130.693 Y98.64 E7.69464
G1 X130.897 Y98.765 E7.70574
G1 X131.079 Y98.921 E7.71686
G1 X131.235 Y99.103 E7.72798
G1 X131.36 Y99.307 E7.73908
G1 X131.452 Y99.528 E7.75019
G1 X131.508 Y99.761 E7.76131
G1 X131.526 Y100 E7.77243
G1 X131.508 Y100.239 E7.78355
G1 X131.452 Y100.472 E7.79467
G1 X131.36 Y100.693 E7.80578
G1 X131.235 Y100.897 E7.81688
G1 X131.079 Y101.079 E7.828
G1 X130.897 Y101.235 E7.83912
G1 X130.693 Y101.36 E7.85022
G1 X130.472 Y101.452 E7.86133
G1 X130.239 Y101.508 E7.87245
G1 X130 Y101.526 E7.88357
G1 X129.761 Y101.508 E7.89469
G1 X129.528 Y101.452 E7.90581
G1 X129.307 Y101.36 E7.91692
G1 X129.103 Y101.235 E7.92802
G1 X128.921 Y101.079 E7.93914
G1 X128.765 Y100.897 E7.95026
G1 X128.64 Y100.693 E7.96136
G1 X128.548 Y100.472 E7.97247
G1 X128.492 Y100.239 E7.98359
G1 X128.474 Y100 E7.99471
G1 X128.492 Y99.761 E8.00583
G1 X128.548 Y99.528 E8.01695
G1 X128.64 Y99.307 E8.02806
G1 X128.765 Y99.103 E8.03916
G1 X128.921 Y98.921 E8.05028
G1 X129.103 Y98.765 E8.0614
G1 X129.272 Y98.662 E8.07058
M204 S3500
G1 X129.337 Y98.412 F18000
G1 E7.57058 F2400
G92 E0
G1 X93.755 Y99.119 F18000
G1 E.5 F2400
M204 S1000
G1 F1800
G1 X93.765 Y99.103 E.50088
G1 X93.921 Y98.921 E.512
G1 X94.103 Y98.765 E.52312
G1 X94.307 Y98.64 E.53422
G1 X94.528 Y98.548 E.54533
G1 X94.761 Y98.492 E.55645
G1 X95 Y98.474 E.56757
G1 X95.239 Y98.492 E.57869
G1 X95.472 Y98.548 E.58981
G1 X95.693 Y98.64 E.60092
G1 X95.897 Y98.765 E.61202
G1 X96.079 Y98.921 E.62314
G1 X96.235 Y99.103 E.63426
G1 X96.36 Y99.307 E.64536
G1 X96.452 Y99.528 E.65647
G1 X96.508 Y99.761 E.66759
G1 X96.526 Y100 E.67871
G1 X96.508 Y100.239 E.68983
G1 X96.452 Y100.472 E.70095
G1 X96.36 Y100.693 E.71206
G1 X96.235 Y100.897 E.72316
G1 X96.079 Y101.079 E.73428
G1 X95.897 Y101.235 E.7454
G1 X95.693 Y101.36 E.7565
G1 X95.472 Y101.452 E.76761
G1 X95.239 Y101.508 E.77873
G1 X95 Y101.526 E.78985
G1 X94.761 Y101.508 E.80097
G1 X94.528 Y101.452 E.81209
G1 X94.307 Y101.36 E.8232
G1 X94.103 Y101.235 E.8343
G1 X93.921 Y101.079 E.84542
G1 X93.765 Y100.897 E.85654
G1 X93.64 Y100.693 E.86764
G1 X93.548 Y100.472 E.87875
G1 X93.492 Y100.239 E.88987
G1 X93.474 Y100 E.90099
G1 X93.492 Y99.761 E.91211
G1 X93.548 Y99.528 E.92323
G1 X93.64 Y99.307 E.93434
G1 X93.724 Y99.171 E.94176
M204 S3500
G1 X93.745 Y99.103 F18000
G1 E.44176 F2400
G92 E0
G1 X93.756 Y134.118 F18000
G1 E.5 F2400
M204 S1000
G1 F1800
G1 X93.765 Y134.103 E.50081
G1 X93.921 Y133.921 E.51193
G1 X94.103 Y133.765 E.52305
G1 X94.307 Y133.64 E.53415
G1 X94.528 Y133.548 E.54526
G1 X94.761 Y133.492 E.55638
G1 X95 Y133.474 E.5675
G1 X95.239 Y133.492 E.57862
G1 X95.472 Y133.548 E.58974
G1 X95.693 Y133.64 E.60085
G1 X95.897 Y133.765 E.61195
G1 X96.079 Y133.921 E.62307
G1 X96.235 Y134.103 E.63419
G1 X96.36 Y134.307 E.64529
G1 X96.452 Y134.528 E.6564
G1 X96.508 Y134.761 E.66752
G1 X96.526 Y135 E.67864
G1 X96.508 Y135.239 E.68976
G1 X96.452 Y135.472 E.70088
G1 X96.36 Y135.693 E.71199
G1 X96.235 Y135.897 E.72309
G1 X96.079 Y136.079 E.73421
G1 X95.897 Y136.235 E.74533
G1 X95.693 Y136.36 E.75643
G1 X95.472 Y136.452 E.76754
G1 X95.239 Y136.508 E.77866
G1 X95 Y136.526 E.78978
G1 X94.761 Y136.508 E.8009
G1 X94.528 Y136.452 E.81202
G1 X94.307 Y136.36 E.82313
G1 X94.103 Y136.235 E.83423
G1 X93.921 Y136.079 E.84535
G1 X93.765 Y135.897 E.85647
G1 X93.64 Y135.693 E.86757
G1 X93.548 Y135.472 E.87868
G1 X93.492 Y135.239 E.8898
G1 X93.474 Y135 E.90092
G1 X93.492 Y134.761 E.91204
G1 X93.548 Y134.528 E.92316
G1 X93.64 Y134.307 E.93427
G1 X93.724 Y134.169 E.94176
M204 S3500
G1 X93.747 Y134.103 F18000
G1 E.44176 F2400
G92 E0
G1 X131.066 Y136.091 F18000
G1 E.5 F2400
M204 S1000
G1 F1800
G1 X130.897 Y136.235 E.5103
G1 X130.693 Y136.36 E.5214
G1 X130.472 Y136.452 E.53251
G1 X130.239 Y136.508 E.54363
G1 X130 Y136.526 E.55475
G1 X129.761 Y136.508 E.56587
G1 X129.528 Y136.452 E.57699
G1 X129.307 Y136.36 E.5881
G1 X129.103 Y136.235 E.5992
G1 X128.921 Y136.079 E.61032
G1 X128.765 Y135.897 E.62144
G1 X128.64 Y135.693 E.63254
G1 X128.548 Y135.472 E.64365
G1 X128.492 Y135.239 E.65477
G1 X128.474 Y135 E.66589
G1 X128.492 Y134.761 E.67701
G1 X128.548 Y134.528 E.68813
G1 X128.64 Y134.307 E.69924
G1 X128.765 Y134.103 E.71034
G1 X128.921 Y133.921 E.72146
G1 X129.103 Y133.765 E.73258
G1 X129.307 Y133.64 E.74368
G1 X129.528 Y133.548 E.75479
G1 X129.761 Y133.492 E.76591
G1 X130 Y133.474 E.77703
G1 X130.239 Y133.492 E.78815
G1 X130.472 Y133.548 E.79927
G1 X130.693 Y133.64 E.81038
G1 X130.897 Y133.765 E.82148
G1 X131.079 Y133.921 E.8326
G1 X131.235 Y134.103 E.84372
G1 X131.36 Y134.307 E.85482
G1 X131.452 Y134.528 E.86593
G1 X131.508 Y134.761 E.87705
G1 X131.526 Y135 E.88817
G1 X131.508 Y135.239 E.89929
G1 X131.452 Y135.472 E.91041
G1 X131.36 Y135.693 E.92152
G1 X131.235 Y135.897 E.93262
G1 X131.107 Y136.047 E.94177
M204 S3500
G1 X131.123 Y136.305 F18000
G1 E.44177 F2400
G92 E0
G1 X119.756 Y120.756 F18000
G1 E.5 F2400
M204 S1000
G1 F1800
G1 X125.331 Y120.756 E.75864
G1 X125.065 Y121.588 E.79916
G1 X124.823 Y122.074 E.82435
G1 X124.56 Y122.446 E.84549
G1 X124.296 Y122.804 E.86613
G1 X123.729 Y123.481 E.9071
G1 X123.123 Y124.123 E.94806
G1 X122.481 Y124.729 E.98902
G1 X121.804 Y125.296 E1.02999
G1 X121.446 Y125.56 E1.05063
G1 X121.074 Y125.823 E1.07177
G1 X120.589 Y126.066 E1.09694
G1 X119.756 Y126.335 E1.13755
G1 X119.756 Y120.816 E1.39359
M204 S3500
G1 X119.735 Y120.356 F18000
G1 E.89359 F2400
G92 E0
G1 X125.02 Y113.65 F18000
G1 E.5 F2400
M204 S1000
G1 F1800
G1 X127.256 Y113.65 E.60373
G1 X127.425 Y114.264 E.63327
G1 X127.463 Y114.719 E.65445
G1 X127.422 Y115.175 E.67569
G1 X127.373 Y115.616 E.69628
G1 X127.224 Y116.486 E.73723
G1 X127.023 Y117.345 E.77816
G1 X126.772 Y118.19 E.81905
G1 X126.472 Y119.021 E.86004
G1 X126.292 Y119.431 E.88081
G1 X126.09 Y119.839 E.90193
G1 X125.886 Y120.143 E.91891
G1 X125.536 Y120.444 E.94033
G1 X119.756 Y120.444 E1.20848
G1 X119.756 Y115.509 E1.43743
G1 X119.935 Y115.262 E1.45158
G1 X119.985 Y115.137 E1.45783
G1 X120.146 Y114.688 E1.47996
G1 X120.398 Y114.056 E1.51153
G1 X120.42 Y114.064 E1.51262
G1 X120.594 Y113.65 E1.53345
G1 X122.232 Y113.65 E1.60944
G1 X122.727 Y113.634 E1.63242
G1 X123.223 Y113.65 E1.65544
G1 X123.744 Y113.65 E1.67961
G1 X124.11 Y113.749 E1.6972
G1 X124.457 Y113.833 E1.71376
G1 X124.714 Y113.921 E1.72636
G1 X124.996 Y114.074 E1.74124
G1 X125.119 Y114.17 E1.74848
G1 X125.258 Y114.339 E1.75863
G1 X125.365 Y114.581 E1.77091
G1 X125.397 Y114.88 E1.78486
G1 X125.381 Y115.04 E1.79232
G1 X125.283 Y115.338 E1.80687
G1 X125.512 Y115.433 E1.81837
G1 X125.589 Y115.281 E1.82627
G1 X125.667 Y115.043 E1.83789
G1 X125.689 Y114.709 E1.85342
G1 X125.678 Y114.612 E1.85795
G1 X125.605 Y114.38 E1.86923
G1 X125.478 Y114.169 E1.88066
G1 X125.059 Y113.695 E1.91001
M204 S3500
G1 X124.93 Y113.26 F18000
G1 E1.41001 F2400
G92 E0
G1 X119.861 Y113.676 F18000
G1 E.5 F2400
M204 S1000
;TYPE:Perimeter
G1 F1800
G1 X119.818 Y113.448 E.51076
G1 X119.881 Y113.233 E.52115
G1 X120.07 Y113.223 E.52993
G1 X120.161 Y113.443 E.54098
G1 X120.061 Y113.695 E.55356
G1 X119.92 Y113.682 E.56013
M204 S3500
G1 E.06013 F2400
G92 E0
G1 X127.257 Y113.35 F18000
G1 E.5 F2400
M204 S1000
;TYPE:External perimeter
G1 F1800
G1 X125.092 Y113.35 E.60044
G1 X124.595 Y113.36 E.6235
G1 X124.099 Y113.35 E.64652
G1 X123.568 Y113.35 E.67115
G1 X123.046 Y113.183 E.69658
G1 X122.791 Y113.055 E.70982
G1 X122.64 Y112.95 E.71835
G1 X122.454 Y112.75 E.73102
G1 X122.37 Y112.596 E.73916
G1 X122.295 Y112.326 E.75216
G1 X122.301 Y112.009 E.76687
G1 X122.41 Y111.657 E.78397
G1 X122.173 Y111.569 E.7957
G1 X122.048 Y111.854 E.81014
G1 X122.019 Y111.963 E.81537
G1 X121.993 Y112.225 E.82758
G1 X122.023 Y112.505 E.84064
G1 X122.053 Y112.613 E.84584
G1 X122.166 Y112.847 E.8579
G1 X122.529 Y113.35 E.88668
G1 X120.611 Y113.35 E.97566
G1 X120.455 Y112.977 E.99442
G1 X120.452 Y112.978 E.99457
G1 X120.197 Y112.361 E1.02554
G1 X120.125 Y112.142 E1.03623
G1 X119.991 Y111.784 E1.05396
G1 X119.756 Y111.382 E1.07556
G1 X119.756 Y106.556 E1.29945
G1 X125.535 Y106.556 E1.56755
G1 X125.886 Y106.857 E1.589
G1 X126.09 Y107.161 E1.60598
G1 X126.292 Y107.569 E1.6271
G1 X126.472 Y107.979 E1.64787
G1 X126.772 Y108.81 E1.68886
G1 X127.023 Y109.655 E1.72975
G1 X127.224 Y110.514 E1.77068
G1 X127.373 Y111.384 E1.81163
G1 X127.422 Y111.825 E1.83222
G1 X127.463 Y112.281 E1.85346
G1 X127.425 Y112.735 E1.8746
G1 X127.273 Y113.292 E1.90139
M204 S3500
G1 X127.231 Y113.749 F18000
G1 E1.40139 F2400
G92 E0
G1 X119.756 Y106.244 F18000
G1 E.5 F2400
M204 S1000
G1 F1800
G1 X119.756 Y100.669 E.75864
G1 X120.588 Y100.935 E.79916
G1 X121.074 Y101.177 E.82435
G1 X121.446 Y101.44 E.84549
G1 X121.804 Y101.704 E.86613
G1 X122.481 Y102.271 E.9071
G1 X123.123 Y102.877 E.94806
G1 X123.729 Y103.519 E.98902
G1 X124.296 Y104.196 E1.02999
G1 X124.56 Y104.554 E1.05063
G1 X124.823 Y104.926 E1.07177
G1 X125.066 Y105.411 E1.09694
G1 X125.335 Y106.244 E1.13755
G1 X119.816 Y106.244 E1.39359
M204 S3500
G1 X119.356 Y106.265 F18000
G1 X119.444 Y106.244
M204 S1000
G1 F1800
G1 X105.65 Y106.244 E2.03353
G1 X105.65 Y100.394 E2.30493
G1 X106.144 Y99.976 E2.33495
G1 X106.606 Y99.693 E2.36008
G1 X107.022 Y99.519 E2.381
G1 X107.43 Y99.358 E2.40135
G1 X108.258 Y99.088 E2.44175
G1 X109.101 Y98.866 E2.48219
G1 X109.955 Y98.694 E2.5226
G1 X110.817 Y98.571 E2.563
G1 X111.685 Y98.499 E2.60341
G1 X112.413 Y98.478 E2.6372
G1 X113.426 Y98.505 E2.68421
G1 X114.295 Y98.584 E2.72469
G1 X115.156 Y98.714 E2.76509
G1 X116.009 Y98.892 E2.80552
G1 X116.85 Y99.12 E2.84594
G1 X117.676 Y99.397 E2.88636
G1 X118.083 Y99.56 E2.9067
G1 X118.497 Y99.738 E2.92761
G1 X118.956 Y100.022 E2.95265
G1 X119.444 Y100.442 E2.98252
G1 X119.444 Y106.184 E3.24891
M204 S3500
G1 X119.455 Y106.644 F18000
G1 E2.74891 F2400
G92 E0
G1 X127.788 Y111.16 F18000
G1 E.5 F2400
M204 S1000
;TYPE:Perimeter
G1 F1800
G1 X127.661 Y110.426 E.53456
G1 X127.455 Y109.541 E.57672
G1 X127.196 Y108.67 E.61888
G1 X126.886 Y107.813 E.66116
G1 X126.696 Y107.38 E.6831
G1 X126.477 Y106.937 E.70603
G1 X126.223 Y106.558 E.7272
G1 X125.783 Y106.18 E.75411
G1 X125.481 Y105.242 E.79983
G1 X125.207 Y104.696 E.82817
G1 X124.922 Y104.292 E.85111
G1 X124.647 Y103.92 E.87257
G1 X124.062 Y103.223 E.91479
