; generated by PrusaSlicer 2.6.1+win64 on 2023-10-05 at 16:21:52 UTC


;
;
; 

; external perimeters extrusion width = 0.45mm
; perimeters extrusion width = 0.45mm
; infill extrusion width = 0.45mm
; solid infill extrusion width = 0.45mm
; top infill extrusion width = 0.40mm
; support material extrusion width = 0.35mm
; first layer extrusion width = 0.42mm

M73 P0 R26


; Pre-Processed for Cancel-Object support by preprocess_cancellation v0.2.0
; 1 known objects
EXCLUDE_OBJECT_DEFINE NAME=Kusba_mount_m3_nuts_stl_id_0_copy_0 CENTER=110.241,108.974 POLYGON=[[90.225,99.729],[90.225,120.253],[129.775,120.253],[129.775,99.729]]
;TYPE:Custom
M104 S230 ; set extruder temp
M140 S85 ; set bed temp
M190 S85 ; wait for bed temp
M109 S230 ; wait for extruder temp
G28;
G1 Z4.0 F3000 ;Move Z Axis up
G92 E0 ;Reset Extruder
G1 X5.1 Y20 Z0.28 F5000.0 ;Move to start position
G1 X5.1 Y30.0 Z0.28 F1500.0 E1 ;Draw a short bit in case the extruder turns in the wrong direction
G1 X5.1 Y200.0 Z0.28 F1500.0 E15 ;Draw the first line
G1 X5.4 Y200.0 Z0.28 F5000.0 ;Move to side a little
G1 X5.4 Y20 Z0.28 F1500.0 E30 ;Draw the second line
G92 E0 ;Reset Extruder
G1 Z2.0 F3000 ;Move Z Axis up
G21 ; set units to millimeters
G90 ; use absolute coordinates
M83 ; use relative distances for extrusion
; Filament gcode
M107
;LAYER_CHANGE
;Z:0.25
;HEIGHT:0.25
;BEFORE_LAYER_CHANGE
G92 E0.0
;0.25


G1 E-1 F2400
G1 Z.2 F720
G1 Z.25
;AFTER_LAYER_CHANGE
;0.25
G1 Z.45
G1 X89.166 Y98.026 F10800
G1 Z.25 F720
M73 P1 R26
G1 E1 F2400
M204 S800
;TYPE:Skirt/Brim
;WIDTH:0.42
G1 F1200
G1 X90.293 Y97.263 E.05182
G1 X91 Y97.155 E.02723
G1 X129 Y97.155 E1.44695
G1 X130.304 Y97.546 E.05184
G1 X131.176 Y98.591 E.05182
G1 X131.354 Y99.284 E.02724
G1 X132.352 Y109.189 E.37907
G1 X132.345 Y116.178 E.26612
M73 P1 R25
G1 X132.051 Y117.73 E.06015
G1 X131.698 Y118.665 E.03806
G1 X131.211 Y119.552 E.03853
G1 X130.219 Y120.765 E.05967
G1 X129.512 Y121.382 E.03573
G1 X128.499 Y122.024 E.04567
G1 X127.795 Y122.347 E.02949
G1 X126.891 Y122.636 E.03614
G1 X125.171 Y122.844 E.06597
G1 X94.423 Y122.833 E1.17081
G1 X93.495 Y122.718 E.03561
G1 X92.739 Y122.53 E.02966
G1 X91.913 Y122.221 E.03358
G1 X90.951 Y121.704 E.04159
G1 X90.156 Y121.117 E.03763
G1 X89.627 Y120.615 E.02777
G1 X89.12 Y120.02 E.02977
G1 X88.524 Y119.106 E.04155
G1 X87.93 Y117.674 E.05903
G1 X87.666 Y116.287 E.05376
G1 X87.648 Y109.189 E.27028
G1 X88.646 Y99.284 E.37907
G1 X89.143 Y98.081 E.04956
M204 S1000
; printing object Kusba mount (m3 nuts).stl id:0 copy 0
EXCLUDE_OBJECT_START NAME=Kusba_mount_m3_nuts_stl_id_0_copy_0
;WIPE_START
G1 F8640
G1 X90.293 Y97.263 E-.37241
G1 X91 Y97.155 E-.18873
G1 X92.663 Y97.155 E-.43886
;WIPE_END
G1 Z.45 F720
G1 X101.922 Y102.046 F10800
G1 Z.25 F720
G1 E1 F2400
M204 S800
;TYPE:Support material
G1 F1200
G1 X101.922 Y104.996 E.11233
G1 X99.4 Y106.467 E.11117
G1 X96.877 Y104.996 E.11121
G1 X96.877 Y102.046 E.11233
G1 X99.4 Y100.575 E.11121
G1 X101.875 Y102.018 E.10909
M204 S1000
G1 X101.452 Y105.08 F10800
M204 S800
G1 F1200
G1 X101.452 Y102.153 E.11145
G1 X101.045 Y101.916 E.01793
G1 X101.045 Y105.126 E.12223
G1 X100.638 Y105.364 E.01795
G1 X100.638 Y101.678 E.14035
G1 X100.231 Y101.441 E.01793
G1 X100.231 Y105.601 E.1584
G1 X99.824 Y105.839 E.01795
G1 X99.824 Y101.203 E.17653
G1 X99.417 Y100.966 E.01793
G1 X99.417 Y106.076 E.19458
G1 X99.4 Y106.086 E.00075
G1 X99.01 Y105.858 E.0172
G1 X99.01 Y101.184 E.17797
G1 X98.602 Y101.421 E.01797
G1 X98.602 Y105.621 E.15993
G1 X98.195 Y105.383 E.01795
G1 X98.195 Y101.659 E.1418
G1 X97.788 Y101.896 E.01793
G1 X97.788 Y105.146 E.12375
G1 X97.381 Y104.909 E.01793
G1 X97.381 Y101.943 E.11294
M204 S1000
;WIPE_START
G1 F8640
G1 X97.381 Y104.909 E-.78269
G1 X97.788 Y105.146 E-.12429
G1 X97.788 Y104.794 E-.09302
;WIPE_END
G1 Z.45 F720
G1 X95.148 Y113.946 F10800
G1 Z.25 F720
G1 E1 F2400
M204 S800
G1 F1200
G1 X95.647 Y114.128 E.02023
G1 X95.802 Y114.209 E.00666
G1 X96.081 Y114.395 E.01277
G1 X96.459 Y114.744 E.01959
G1 X96.644 Y114.982 E.01148
G1 X96.831 Y115.289 E.01369
G1 X96.947 Y115.554 E.01101
G1 X97.05 Y115.894 E.01353
G1 X97.115 Y116.391 E.01909
G1 X97.111 Y116.669 E.01059
G1 X97.019 Y117.188 E.02007
G1 X96.76 Y117.796 E.02516
G1 X96.523 Y118.141 E.01594
G1 X96.282 Y118.4 E.01347
G1 X96.001 Y118.625 E.01371
G1 X95.663 Y118.826 E.01497
G1 X95.405 Y118.938 E.01071
G1 X94.886 Y119.07 E.02039
G1 X94.497 Y119.096 E.01485
G1 X94.078 Y119.064 E.016
G1 X93.726 Y118.983 E.01375
G1 X93.455 Y118.881 E.01103
G1 X93.107 Y118.697 E.01499
G1 X92.815 Y118.486 E.01372
G1 X92.627 Y118.312 E.00975
G1 X92.436 Y118.09 E.01115
G1 X92.218 Y117.761 E.01503
G1 X92.053 Y117.408 E.01484
G1 X91.942 Y117.031 E.01496
G1 X91.89 Y116.683 E.0134
G1 X91.903 Y116.167 E.01965
G1 X92.015 Y115.685 E.01884
G1 X92.172 Y115.284 E.0164
G1 X92.367 Y114.965 E.01424
G1 X92.545 Y114.743 E.01083
G1 X92.919 Y114.397 E.0194
G1 X93.137 Y114.248 E.01005
G1 X93.488 Y114.072 E.01495
G1 X93.888 Y113.938 E.01606
G1 X94.239 Y113.877 E.01357
G1 X94.594 Y113.868 E.01352
G1 X95.093 Y113.939 E.01919
M204 S1000
G1 X96.567 Y117.786 F10800
M204 S800
G1 F1200
G1 X96.567 Y115.509 E.0867
G1 X96.372 Y115.169 E.01492
G1 X96.16 Y114.908 E.0128
G1 X96.16 Y118.047 E.11953
G1 X96.057 Y118.158 E.00577
G1 X95.753 Y118.389 E.01454
G1 X95.753 Y114.573 E.1453
G1 X95.514 Y114.43 E.01061
G1 X95.346 Y114.369 E.00681
G1 X95.346 Y118.604 E.16126
G1 X94.939 Y118.716 E.01607
G1 X94.939 Y114.25 E.17005
G1 X94.532 Y114.199 E.01562
G1 X94.532 Y118.763 E.17379
G1 X94.125 Y118.737 E.01553
G1 X94.125 Y114.232 E.17154
G1 X93.969 Y114.259 E.00603
G1 X93.718 Y114.343 E.01008
G1 X93.718 Y118.627 E.16312
G1 X93.311 Y118.432 E.01718
G1 X93.311 Y114.529 E.14862
G1 X93.125 Y114.655 E.00855
G1 X92.904 Y114.86 E.01148
G1 X92.904 Y118.119 E.12409
G1 X92.699 Y117.891 E.01167
G1 X92.497 Y117.579 E.01415
G1 X92.497 Y115.07 E.09554
M204 S1000
;WIPE_START
G1 F8640
G1 X92.497 Y117.579 E-.6621
G1 X92.699 Y117.891 E-.09808
G1 X92.904 Y118.119 E-.08091
G1 X92.904 Y117.517 E-.15891
;WIPE_END
G1 Z.45 F720
G1 X125.89 Y113.897 F10800
G1 Z.25 F720
M73 P2 R25
G1 E1 F2400
M204 S800
G1 F1200
G1 X126.364 Y114.012 E.01857
G1 X126.704 Y114.156 E.01406
G1 X126.919 Y114.281 E.00947
G1 X127.219 Y114.509 E.01435
G1 X127.512 Y114.807 E.01591
G1 X127.73 Y115.111 E.01424
G1 X127.849 Y115.329 E.00946
G1 X127.981 Y115.647 E.01311
G1 X128.075 Y116.028 E.01494
G1 X128.116 Y116.45 E.01614
G1 X128.092 Y116.838 E.0148
G1 X128.011 Y117.217 E.01476
G1 X127.882 Y117.567 E.0142
G1 X127.716 Y117.874 E.01329
G1 X127.553 Y118.105 E.01077
G1 X127.063 Y118.573 E.0258
G1 X126.52 Y118.886 E.02387
G1 X125.648 Y119.093 E.03413
G1 X125.177 Y119.081 E.01794
G1 X124.727 Y118.983 E.01754
G1 X124.456 Y118.881 E.01103
G1 X124.137 Y118.717 E.01366
G1 X123.821 Y118.486 E.0149
G1 X123.53 Y118.207 E.01535
G1 X123.377 Y118.014 E.00938
G1 X123.174 Y117.676 E.01501
G1 X123.024 Y117.33 E.01436
G1 X122.894 Y116.729 E.02341
G1 X122.884 Y116.453 E.01052
G1 X122.95 Y115.915 E.02064
G1 X123.103 Y115.433 E.01926
G1 X123.301 Y115.069 E.01578
G1 X123.541 Y114.746 E.01532
G1 X123.957 Y114.365 E.02148
G1 X124.365 Y114.124 E.01804
G1 X124.73 Y113.984 E.01489
G1 X125.115 Y113.893 E.01506
G1 X125.397 Y113.868 E.01078
G1 X125.835 Y113.893 E.01671
M204 S1000
G1 X127.503 Y117.89 F10800
M204 S800
G1 F1200
G1 X127.503 Y115.385 E.09538
G1 X127.254 Y115.013 E.01705
G1 X127.096 Y114.848 E.0087
G1 X127.096 Y118.086 E.1233
G1 X126.864 Y118.307 E.0122
G1 X126.689 Y118.408 E.00769
G1 X126.689 Y114.528 E.14774
G1 X126.556 Y114.451 E.00585
G1 X126.282 Y114.336 E.01131
G1 X126.282 Y118.604 E.16252
G1 X125.875 Y118.7 E.01592
G1 X125.875 Y114.233 E.17009
G1 X125.468 Y114.202 E.01554
G1 X125.468 Y118.766 E.17379
G1 X125.225 Y118.754 E.00926
G1 X125.061 Y118.718 E.00639
G1 X125.061 Y114.244 E.17036
G1 X124.827 Y114.3 E.00916
G1 X124.654 Y114.366 E.00705
G1 X124.654 Y118.604 E.16137
G1 X124.247 Y118.388 E.01754
G1 X124.247 Y114.576 E.14515
G1 X124.09 Y114.678 E.00713
G1 X123.84 Y114.916 E.01314
G1 X123.84 Y118.047 E.11922
G1 X123.649 Y117.826 E.01112
G1 X123.433 Y117.444 E.01671
G1 X123.433 Y115.172 E.08651
M204 S1000
;WIPE_START
G1 F8640
G1 X123.433 Y117.444 E-.59956
G1 X123.649 Y117.826 E-.1158
G1 X123.84 Y118.047 E-.07708
G1 X123.84 Y117.26 E-.20756
;WIPE_END
G1 Z.45 F720
G1 X125.323 Y102.146 F10800
G1 Z.25 F720
G1 E1 F2400
M204 S800
G1 F1200
G1 X125.323 Y105.096 E.11233
G1 X122.8 Y106.567 E.11121
G1 X120.278 Y105.096 E.11117
G1 X120.278 Y102.146 E.11233
G1 X122.8 Y100.674 E.11119
G1 X125.276 Y102.118 E.10914
M204 S1000
G1 X124.654 Y105.296 F10800
M204 S800
G1 F1200
G1 X124.654 Y102.137 E.12029
G1 X124.247 Y101.9 E.01793
G1 X124.247 Y105.342 E.13106
G1 X123.84 Y105.579 E.01793
G1 X123.84 Y101.662 E.14915
G1 X123.433 Y101.425 E.01793
G1 X123.433 Y105.817 E.16724
G1 X123.026 Y106.054 E.01793
G1 X123.026 Y101.187 E.18532
G1 X122.8 Y101.055 E.00997
G1 X122.619 Y101.161 E.00799
G1 X122.619 Y106.08 E.1873
G1 X122.212 Y105.842 E.01795
G1 X122.212 Y101.399 E.16918
G1 X121.805 Y101.636 E.01793
G1 X121.805 Y105.605 E.15113
G1 X121.398 Y105.368 E.01793
G1 X121.398 Y101.874 E.13304
G1 X120.99 Y102.112 E.01799
G1 X120.99 Y105.321 E.12219
M204 S1000
;WIPE_START
G1 F8640
G1 X120.99 Y102.112 E-.84682
G1 X121.398 Y101.874 E-.12465
G1 X121.398 Y101.982 E-.02853
;WIPE_END
G1 Z.45 F720
G1 X95.83 Y105.816 F10800
G1 Z.25 F720
G1 E1 F2400
M204 S800
;TYPE:Perimeter
;WIDTH:0.419999
G1 F1200
G1 X95.889 Y105.874 E.00315
G1 X99.202 Y107.798 E.14588
G1 X99.44 Y107.834 E.00917
G1 X99.677 Y107.76 E.00945
G1 X102.975 Y105.829 E.14552
G1 X103.117 Y105.655 E.00855
G1 X103.178 Y105.402 E.00991
G1 X103.178 Y101.64 E.14325
G1 X103.126 Y101.405 E.00916
G1 X102.904 Y101.164 E.01248
G1 X101.34 Y100.275 E.0685
G1 X102 Y100.297 E.02515
G1 X120.992 Y100.289 E.72317
G1 X119.295 Y101.265 E.07454
G1 X119.074 Y101.506 E.01245
G1 X119.022 Y101.74 E.00913
G1 X119.026 Y105.571 E.14588
G1 X119.11 Y105.801 E.00932
G1 X119.291 Y105.975 E.00956
G1 X122.584 Y107.891 E.14507
G1 X122.823 Y107.935 E.00925
G1 X123.077 Y107.86 E.01008
G1 X126.307 Y105.977 E.14236
G1 X126.496 Y105.794 E.01002
G1 X126.579 Y105.502 E.01156
G1 X126.579 Y101.74 E.14325
G1 X126.534 Y101.522 E.00848
G1 X126.302 Y101.262 E.01327
G1 X124.585 Y100.282 E.07528
G1 X128.224 Y100.295 E.13857
G1 X128.224 Y108.247 E.30279
G1 X128.276 Y108.481 E.00913
G1 X128.413 Y108.662 E.00864
G1 X128.908 Y108.894 E.02082
G1 X129.136 Y109.161 E.01337
G1 X129.222 Y109.618 E.01771
G1 X129.224 Y115.443 E.2218
G1 X129.148 Y115.181 E.01039
G1 X128.784 Y114.425 E.03195
G1 X128.461 Y113.984 E.02081
G1 X128.032 Y113.548 E.02329
G1 X127.532 Y113.185 E.02353
G1 X126.736 Y112.813 E.03346
G1 X125.996 Y112.644 E.0289
G1 X125.377 Y112.614 E.0236
G1 X124.877 Y112.658 E.01911
G1 X124.294 Y112.806 E.0229
G1 X123.776 Y113.012 E.02123
G1 X123.278 Y113.307 E.02204
G1 X122.599 Y113.911 E.0346
G1 X122.278 Y114.34 E.0204
G1 X122.072 Y114.704 E.01593
G1 X121.862 Y115.192 E.02023
G1 X121.71 Y115.709 E.02052
G1 X121.627 Y116.44 E.02801
G1 X121.653 Y116.944 E.01922
G1 X121.845 Y117.769 E.03225
G1 X122.057 Y118.239 E.01963
G1 X121.664 Y117.71 E.02509
G1 X121.211 Y116.973 E.03294
G1 X120.917 Y116.559 E.01933
G1 X120.517 Y116.117 E.0227
G1 X120.127 Y115.729 E.02095
G1 X119.625 Y115.336 E.02428
G1 X119.195 Y115.063 E.01939
G1 X118.421 Y114.676 E.03295
G1 X117.541 Y114.388 E.03526
G1 X116.734 Y114.249 E.03118
G1 X116.057 Y114.206 E.02583
G1 X103.944 Y114.206 E.46123
G1 X103.006 Y114.279 E.03582
G1 X102.09 Y114.491 E.0358
G1 X101.126 Y114.889 E.03971
G1 X100.521 Y115.249 E.02681
G1 X99.934 Y115.677 E.02766
G1 X99.536 Y116.08 E.02157
G1 X99.06 Y116.583 E.02637
G1 X98.673 Y117.131 E.02555
;WIDTH:0.457533
G1 X98.574 Y117.255 E.00666
;WIDTH:0.495067
G1 X98.475 Y117.379 E.00728
;WIDTH:0.532601
G1 X98.376 Y117.503 E.0079
;WIDTH:0.570134
G1 X98.278 Y117.627 E.00848
G1 X98.284 Y117.557 E.00377
;WIDTH:0.543045
G1 X98.291 Y117.487 E.00358
;WIDTH:0.515955
G1 X98.324 Y117.159 E.01584
;WIDTH:0.467977
G1 X98.358 Y116.831 E.0142
;WIDTH:0.419999
G1 X98.367 Y116.279 E.02102
G1 X98.285 Y115.66 E.02378
G1 X97.943 Y114.708 E.03852
G1 X97.649 Y114.229 E.0214
G1 X97.252 Y113.756 E.02351
G1 X96.867 Y113.415 E.01958
G1 X96.099 Y112.956 E.03407
G1 X95.376 Y112.71 E.02908
G1 X94.575 Y112.612 E.03073
G1 X94.074 Y112.631 E.01909
G1 X93.538 Y112.731 E.02076
G1 X93.012 Y112.91 E.02116
G1 X92.529 Y113.147 E.02049
G1 X92.104 Y113.439 E.01963
G1 X91.652 Y113.857 E.02344
G1 X91.322 Y114.267 E.02004
G1 X91.04 Y114.743 E.02107
G1 X90.776 Y115.474 E.02959
G1 X90.779 Y109.49 E.22786
G1 X90.878 Y109.141 E.01381
G1 X91.071 Y108.928 E.01094
G1 X91.588 Y108.626 E.0228
G1 X91.702 Y108.487 E.00685
G1 X91.776 Y108.216 E.0107
G1 X91.776 Y100.296 E.30157
G1 X97.431 Y100.284 E.21533
G1 X95.894 Y101.164 E.06744
G1 X95.673 Y101.405 E.01245
G1 X95.621 Y101.64 E.00916
G1 X95.621 Y105.402 E.14325
G1 X95.703 Y105.691 E.01144
M73 P3 R25
G1 X95.787 Y105.774 E.0045
M204 S1000
G1 X96.076 Y105.56 F10800
M204 S800
;TYPE:External perimeter
G1 F1200
G1 X99.334 Y107.456 E.14353
G1 X99.492 Y107.444 E.00603
G1 X102.744 Y105.544 E.14341
G1 X102.812 Y105.402 E.006
G1 X102.812 Y101.64 E.14325
G1 X102.721 Y101.481 E.00698
G1 X101.303 Y100.661 E.06237
G1 X100.812 Y100.436 E.02057
;WIDTH:0.448443
G1 X100.358 Y100.216 E.0207
G1 X99.876 Y100.056 E.02084
;WIDTH:0.454497
G1 X99.638 Y99.912 E.01159
;WIDTH:0.493774
G1 X99.4 Y99.768 E.01273
G1 X99.682 Y99.748 E.01293
;WIDTH:0.454497
G1 X99.964 Y99.729 E.01178
;WIDTH:0.448691
G1 X100.467 Y99.837 E.02112
G1 X100.971 Y99.895 E.02083
;WIDTH:0.419999
G1 X102 Y99.931 E.03921
G1 X120.503 Y99.93 E.70455
G1 X121.015 Y99.921 E.0195
G1 X121.531 Y99.881 E.01971
;WIDTH:0.451079
G1 X122.017 Y99.823 E.02022
;WIDTH:0.482158
G1 X122.504 Y99.764 E.02185
;WIDTH:0.51645
G1 X122.591 Y99.784 E.00429
;WIDTH:0.550742
G1 X122.678 Y99.804 E.00461
;WIDTH:0.585034
G1 X122.765 Y99.825 E.00494
G1 X122.647 Y99.904 E.00784
;WIDTH:0.543776
G1 X122.53 Y99.984 E.00722
;WIDTH:0.502517
G1 X122.412 Y100.063 E.00663
;WIDTH:0.461258
G1 X122.295 Y100.143 E.006
;WIDTH:0.419999
G1 X121.411 Y100.483 E.03606
G1 X120.966 Y100.717 E.01914
G1 X119.479 Y101.581 E.06549
G1 X119.388 Y101.74 E.00698
G1 X119.388 Y105.502 E.14325
G1 X119.478 Y105.66 E.00692
G1 X122.746 Y107.561 E.14396
G1 X122.892 Y107.544 E.0056
G1 X126.122 Y105.661 E.14236
G1 X126.185 Y105.6 E.00334
G1 X126.213 Y105.502 E.00388
G1 X126.213 Y101.74 E.14325
G1 X126.121 Y101.581 E.00699
G1 X124.265 Y100.521 E.08139
;WIDTH:0.447404
G1 X124.033 Y100.404 E.01063
;WIDTH:0.474808
G1 X123.801 Y100.286 E.01139
G1 X123.32 Y100.133 E.02209
;WIDTH:0.488189
G1 X123.15 Y100.03 E.00898
;WIDTH:0.534613
G1 X122.98 Y99.927 E.00994
;WIDTH:0.581036
G1 X122.811 Y99.824 E.01085
G1 X122.925 Y99.809 E.0063
;WIDTH:0.541105
G1 X123.2 Y99.796 E.01395
;WIDTH:0.491435
G1 X123.475 Y99.782 E.01253
;WIDTH:0.463005
G1 X123.976 Y99.886 E.02177
G1 X124.498 Y99.915 E.02224
;WIDTH:0.419999
G1 X128.59 Y99.93 E.15581
G1 X128.59 Y108.247 E.31669
G1 X128.631 Y108.362 E.00465
G1 X129.195 Y108.657 E.02424
G1 X129.476 Y109.008 E.01712
G1 X129.588 Y109.618 E.02362
G1 X129.59 Y115.276 E.21544
G1 X129.57 Y115.861 E.02229
G1 X129.478 Y116.557 E.02673
;WIDTH:0.431378
G1 X129.148 Y117.639 E.04441
;WIDTH:0.421174
G1 X128.9 Y118.145 E.02153
;WIDTH:0.418183
G1 X128.345 Y118.894 E.03532
;WIDTH:0.427736
G1 X127.963 Y119.252 E.02036
G1 X127.619 Y119.515 E.01684
;WIDTH:0.422346
G1 X126.977 Y119.867 E.02806
;WIDTH:0.431555
G1 X126.493 Y120.027 E.02002
G1 X125.948 Y120.153 E.02197
;WIDTH:0.427297
G1 X125.51 Y120.199 E.0171
G1 X125.005 Y120.191 E.01961
;WIDTH:0.419595
G1 X124.491 Y120.111 E.01979
;WIDTH:0.421832
G1 X124 Y119.979 E.01946
;WIDTH:0.423276
G1 X123.508 Y119.766 E.0206
;WIDTH:0.450018
G1 X123.028 Y119.499 E.02263
;WIDTH:0.488546
G1 X122.596 Y119.187 E.02409
;WIDTH:0.51595
G1 X122.4 Y119.015 E.01253
;WIDTH:0.543353
G1 X122.059 Y118.714 E.02315
;WIDTH:0.502235
G1 X121.914 Y118.585 E.00905
;WIDTH:0.461117
G1 X121.768 Y118.457 E.00822
;WIDTH:0.419999
G1 X121.361 Y117.917 E.02575
G1 X120.972 Y117.284 E.02829
G1 X120.631 Y116.788 E.02292
G1 X119.9 Y116.016 E.04048
G1 X119.463 Y115.672 E.02118
G1 X119.029 Y115.39 E.01971
