; generated by PrusaSlicer 2.6.1+win64 on 2023-10-06 at 06:41:30 UTC


;
;
; 

; external perimeters extrusion width = 0.45mm
; perimeters extrusion width = 0.45mm
; infill extrusion width = 0.45mm
; solid infill extrusion width = 0.45mm
; top infill extrusion width = 0.40mm
; first layer extrusion width = 0.42mm

M73 P0 R52


; Pre-Processed for Cancel-Object support by preprocess_cancellation v0.2.0
; 3 known objects
EXCLUDE_OBJECT_DEFINE NAME=Lego_Brick_STL_id_0_copy_0 CENTER=110.153,131.819 POLYGON=[[94.325,124.125],[94.325,139.475],[125.675,139.475],[125.675,124.125]]
EXCLUDE_OBJECT_DEFINE NAME=Lego_Brick_STL_id_0_copy_2 CENTER=110.153,110.019 POLYGON=[[94.325,102.325],[94.325,117.675],[125.675,117.675],[125.675,102.325]]
EXCLUDE_OBJECT_DEFINE NAME=Lego_Brick_STL_id_0_copy_1 CENTER=110.153,88.219 POLYGON=[[94.325,80.525],[94.325,95.875],[125.675,95.875],[125.675,80.525]]
;TYPE:Custom
M104 S200 ; set extruder temp
M140 S60 ; set bed temp
M190 S60 ; wait for bed temp
M109 S200 ; wait for extruder temp
G28;
G1 Z4.0 F3000 ;Move Z Axis up
G1 x5.1 Y20
G92 E0 ;Reset Extruder
G1 X5.1 Y20 Z0.28 F5000.0 ;Move to start position
G1 X5.1 Y30.0 Z0.28 F1500.0 E1 ;Draw a short bit in case the extruder turns in the wrong direction
G1 X5.1 Y200.0 Z0.28 F1500.0 E15 ;Draw the first line
G1 X5.4 Y200.0 Z0.28 F5000.0 ;Move to side a little
G1 X5.4 Y20 Z0.28 F1500.0 E30 ;Draw the second line
G92 E0 ;Reset Extruder
G1 Z2.0 F3000 ;Move Z Axis up
G21 ; set units to millimeters
G90 ; use absolute coordinates
M83 ; use relative distances for extrusion
; Filament gcode
M107
;LAYER_CHANGE
;Z:0.2
;HEIGHT:0.2
;BEFORE_LAYER_CHANGE
G92 E0.0
;0.2


G1 E-.5 F2400
G1 Z.2 F720
;AFTER_LAYER_CHANGE
;0.2
G1 X91.519 Y78.364 F10800
G1 E.5 F2400
M204 S800
;TYPE:Skirt/Brim
;WIDTH:0.42
G1 F1200
G1 X92.164 Y77.719 E.0286
G1 X93.844 Y77.023 E.05702
G1 X126.156 Y77.023 E1.01312
G1 X127.836 Y77.719 E.05702
G1 X128.481 Y78.364 E.0286
G1 X129.177 Y80.044 E.05702
G1 X129.177 Y139.956 E1.8785
G1 X128.481 Y141.636 E.05702
G1 X127.836 Y142.281 E.0286
G1 X126.156 Y142.977 E.05702
G1 X93.844 Y142.977 E1.01312
G1 X92.164 Y142.281 E.05702
G1 X91.519 Y141.636 E.0286
G1 X90.823 Y139.956 E.05702
G1 X90.823 Y80.044 E1.8785
G1 X91.496 Y78.419 E.05515
M204 S1000
;WIPE_START
G1 F8640
G1 X92.164 Y77.719 E-.25534
G1 X93.021 Y77.364 E-.24466
;WIPE_END
G1 X94.179 Y123.434 F10800
G1 E.5 F2400
M204 S800
G1 F1200
G1 X125.835 Y123.434 E.99255
G1 X126.085 Y123.544 E.00856
G1 X126.284 Y123.752 E.00903
G1 X126.366 Y123.979 E.00757
G1 X126.366 Y139.621 E.49044
G1 X126.284 Y139.848 E.00757
G1 X126.034 Y140.089 E.01089
G1 X125.821 Y140.166 E.0071
G1 X94.179 Y140.166 E.99211
G1 X93.952 Y140.084 E.00757
G1 X93.711 Y139.834 E.01089
G1 X93.634 Y139.621 E.0071
G1 X93.634 Y123.979 E.49044
G1 X93.732 Y123.728 E.00845
M73 P1 R52
G1 X93.966 Y123.511 E.01001
G1 X94.123 Y123.455 E.00523
M204 S1000
G1 X94.221 Y123.811 F10800
M204 S800
G1 F1200
G1 X125.779 Y123.811 E.98948
G1 X125.848 Y123.84 E.00235
G1 X125.96 Y123.952 E.00497
G1 X125.989 Y124.021 E.00235
G1 X125.989 Y139.579 E.48781
G1 X125.96 Y139.648 E.00235
G1 X125.848 Y139.76 E.00497
G1 X125.779 Y139.789 E.00235
G1 X94.221 Y139.789 E.98948
G1 X94.152 Y139.76 E.00235
G1 X94.04 Y139.648 E.00497
G1 X94.011 Y139.579 E.00235
G1 X94.011 Y124.021 E.48781
G1 X94.04 Y123.952 E.00235
G1 X94.166 Y123.834 E.00541
M204 S1000
;WIPE_START
G1 F8640
G1 X96.061 Y123.833 E-.5
;WIPE_END
G1 X94.179 Y118.366 F10800
G1 E.5 F2400
M204 S800
G1 F1200
G1 X93.928 Y118.268 E.00845
G1 X93.711 Y118.034 E.01001
G1 X93.634 Y117.821 E.0071
G1 X93.634 Y102.179 E.49044
G1 X93.732 Y101.928 E.00845
G1 X93.966 Y101.711 E.01001
G1 X94.179 Y101.634 E.0071
G1 X125.835 Y101.634 E.99255
G1 X126.085 Y101.744 E.00856
G1 X126.284 Y101.952 E.00903
G1 X126.366 Y102.179 E.00757
G1 X126.366 Y117.821 E.49044
G1 X126.268 Y118.072 E.00845
G1 X126.034 Y118.289 E.01001
G1 X125.821 Y118.366 E.0071
G1 X94.239 Y118.366 E.99023
M204 S1000
G1 X94.239 Y117.989 F10800
M204 S800
G1 F1200
G1 X94.152 Y117.96 E.00288
G1 X94.04 Y117.848 E.00497
G1 X94.011 Y117.779 E.00235
G1 X94.011 Y102.221 E.48781
G1 X94.04 Y102.152 E.00235
G1 X94.152 Y102.04 E.00497
G1 X94.221 Y102.011 E.00235
G1 X125.779 Y102.011 E.98948
G1 X125.848 Y102.04 E.00235
G1 X125.96 Y102.152 E.00497
G1 X125.989 Y102.221 E.00235
G1 X125.989 Y117.779 E.48781
G1 X125.96 Y117.848 E.00235
G1 X125.848 Y117.96 E.00497
G1 X125.779 Y117.989 E.00235
G1 X94.299 Y117.989 E.98703
M204 S1000
;WIPE_START
G1 F8640
G1 X94.152 Y117.96 E-.03954
G1 X94.04 Y117.848 E-.0418
G1 X94.011 Y117.779 E-.01975
G1 X94.011 Y116.267 E-.39891
;WIPE_END
G1 X94.299 Y96.566 F10800
G1 E.5 F2400
M204 S800
G1 F1200
G1 X94.179 Y96.566 E.00376
G1 X93.928 Y96.468 E.00845
G1 X93.711 Y96.234 E.01001
G1 X93.634 Y96.021 E.0071
G1 X93.634 Y80.379 E.49044
G1 X93.732 Y80.128 E.00845
G1 X93.966 Y79.911 E.01001
G1 X94.179 Y79.834 E.0071
G1 X125.835 Y79.834 E.99255
G1 X126.085 Y79.944 E.00856
G1 X126.284 Y80.152 E.00903
G1 X126.366 Y80.379 E.00757
G1 X126.366 Y96.021 E.49044
G1 X126.268 Y96.272 E.00845
G1 X126.034 Y96.489 E.01001
G1 X125.821 Y96.566 E.0071
G1 X94.359 Y96.566 E.98647
M204 S1000
G1 X94.359 Y96.189 F10800
M204 S800
G1 F1200
G1 X94.221 Y96.189 E.00433
G1 X94.152 Y96.16 E.00235
G1 X94.04 Y96.048 E.00497
G1 X94.011 Y95.979 E.00235
G1 X94.011 Y80.421 E.48781
G1 X94.04 Y80.352 E.00235
G1 X94.152 Y80.24 E.00497
G1 X94.221 Y80.211 E.00235
G1 X125.779 Y80.211 E.98948
G1 X125.848 Y80.24 E.00235
G1 X125.96 Y80.352 E.00497
G1 X125.989 Y80.421 E.00235
G1 X125.989 Y95.979 E.48781
G1 X125.96 Y96.048 E.00235
G1 X125.848 Y96.16 E.00497
G1 X125.779 Y96.189 E.00235
G1 X94.419 Y96.189 E.98327
M204 S1000
;WIPE_START
G1 F8640
G1 X94.221 Y96.189 E-.05225
G1 X94.152 Y96.16 E-.01975
G1 X94.04 Y96.048 E-.0418
G1 X94.011 Y95.979 E-.01975
G1 X94.011 Y94.59 E-.36645
;WIPE_END
G1 X95.766 Y94.434 F10800
G1 E.5 F2400
M204 S800
G1 F1200
G1 X95.766 Y81.966 E.39093
G1 X124.234 Y81.966 E.89259
G1 X124.234 Y94.434 E.39093
M73 P1 R51
G1 X95.826 Y94.434 E.89071
M204 S1000
G1 X95.826 Y94.811 F10800
M204 S800
G1 F1200
G1 X95.389 Y94.811 E.0137
G1 X95.389 Y81.589 E.41457
G1 X124.611 Y81.589 E.91624
G1 X124.611 Y94.811 E.41457
M73 P2 R51
G1 X95.886 Y94.811 E.90065
M204 S1000
;WIPE_START
G1 F8640
G1 X95.389 Y94.811 E-.13115
G1 X95.389 Y93.413 E-.36885
;WIPE_END
G1 X95.886 Y103.766 F10800
G1 E.5 F2400
M204 S800
G1 F1200
G1 X124.234 Y103.766 E.88883
G1 X124.234 Y116.234 E.39093
G1 X95.766 Y116.234 E.89259
G1 X95.766 Y103.766 E.39093
G1 X95.826 Y103.766 E.00188
M204 S1000
G1 X95.826 Y103.389 F10800
M204 S800
G1 F1200
G1 X124.611 Y103.389 E.90253
G1 X124.611 Y116.611 E.41457
G1 X95.389 Y116.611 E.91624
G1 X95.389 Y103.389 E.41457
G1 X95.766 Y103.389 E.01182
M204 S1000
;WIPE_START
G1 F8640
G1 X97.661 Y103.389 E-.5
;WIPE_END
G1 X95.766 Y125.566 F10800
G1 E.5 F2400
M204 S800
G1 F1200
G1 X124.234 Y125.566 E.89259
G1 X124.234 Y138.034 E.39093
G1 X95.766 Y138.034 E.89259
G1 X95.766 Y125.626 E.38904
M204 S1000
G1 X95.389 Y125.626 F10800
M204 S800
G1 F1200
G1 X95.389 Y125.189 E.0137
G1 X124.611 Y125.189 E.91624
G1 X124.611 Y138.411 E.41457
G1 X95.389 Y138.411 E.91624
G1 X95.389 Y125.686 E.39898
M204 S1000
; printing object Lego_Brick.STL id:0 copy 0
EXCLUDE_OBJECT_START NAME=Lego_Brick_STL_id_0_copy_0
G1 X94.543 Y124.343 F10800
M204 S800
;TYPE:External perimeter
;WIDTH:0.486408
G1 F1200
G1 X94.811 Y124.327 E.0099
;WIDTH:0.453934
G1 X95.079 Y124.311 E.00918
;WIDTH:0.42146
G1 X124.921 Y124.311 E.9393
;WIDTH:0.453934
G1 X125.189 Y124.327 E.00918
;WIDTH:0.486408
G1 X125.457 Y124.343 E.0099
G1 X125.457 Y124.565 E.00819
G1 X125.473 Y124.722 E.00582
;WIDTH:0.453935
G1 X125.489 Y124.879 E.00539
;WIDTH:0.421461
G1 X125.489 Y138.721 E.43569
;WIDTH:0.453934
G1 X125.473 Y138.989 E.00918
;WIDTH:0.486407
G1 X125.457 Y139.257 E.0099
G1 X125.189 Y139.273 E.0099
;WIDTH:0.453934
G1 X124.921 Y139.289 E.00918
;WIDTH:0.42146
G1 X95.079 Y139.289 E.9393
;WIDTH:0.453934
G1 X94.811 Y139.273 E.00918
;WIDTH:0.486407
G1 X94.543 Y139.257 E.0099
G1 X94.527 Y138.989 E.0099
;WIDTH:0.453934
G1 X94.511 Y138.721 E.00918
;WIDTH:0.421461
G1 X94.511 Y124.879 E.43569
;WIDTH:0.453935
G1 X94.527 Y124.611 E.00918
;WIDTH:0.486408
G1 X94.54 Y124.403 E.00769
M204 S1000
G1 X94.889 Y124.879 F10800
M204 S800
;WIDTH:0.453935
G1 F1200
G1 X94.906 Y124.8 E.00276
;WIDTH:0.486408
G1 X94.922 Y124.722 E.00294
G1 X95 Y124.706 E.00294
;WIDTH:0.453934
G1 X95.079 Y124.689 E.00276
;WIDTH:0.42146
G1 X124.921 Y124.689 E.9393
;WIDTH:0.453934
G1 X125 Y124.706 E.00276
;WIDTH:0.486408
G1 X125.078 Y124.722 E.00294
G1 X125.094 Y124.8 E.00294
;WIDTH:0.453935
G1 X125.111 Y124.879 E.00276
;WIDTH:0.421461
G1 X125.111 Y138.721 E.43569
;WIDTH:0.453934
G1 X125.094 Y138.8 E.00276
;WIDTH:0.486407
G1 X125.078 Y138.878 E.00294
G1 X125 Y138.894 E.00294
;WIDTH:0.453934
G1 X124.921 Y138.911 E.00276
;WIDTH:0.42146
G1 X95.079 Y138.911 E.9393
;WIDTH:0.453934
G1 X95 Y138.894 E.00276
;WIDTH:0.486407
G1 X94.922 Y138.878 E.00294
G1 X94.906 Y138.8 E.00294
;WIDTH:0.453934
G1 X94.889 Y138.721 E.00276
;WIDTH:0.421461
G1 X94.889 Y124.939 E.4338
M204 S1000
;WIPE_START
G1 F8640
G1 X94.906 Y124.8 E-.03695
G1 X94.922 Y124.722 E-.02101
G1 X95 Y124.706 E-.02101
G1 X95.079 Y124.689 E-.02132
G1 X96.594 Y124.689 E-.39971
;WIPE_END
G1 X115.259 Y130.554 F10800
G1 E.5 F2400
M204 S800
;WIDTH:0.420246
G1 F1200
G1 X115.262 Y130.545 E.0003
;WIDTH:0.420563
G1 X115.514 Y130.1 E.01606
G1 X115.837 Y129.704 E.01605
;WIDTH:0.420239
G1 X116.222 Y129.369 E.01601
G1 X116.658 Y129.103 E.01602
G1 X117.133 Y128.915 E.01603
G1 X117.633 Y128.811 E.01602
;WIDTH:0.420578
G1 X118.144 Y128.792 E.01606
G1 X118.65 Y128.859 E.01603
;WIDTH:0.420238
G1 X119.138 Y129.011 E.01604
G1 X119.593 Y129.244 E.01604
G1 X120.002 Y129.55 E.01603
G1 X120.353 Y129.92 E.016
G1 X120.637 Y130.345 E.01604
G1 X120.845 Y130.812 E.01604
G1 X120.971 Y131.307 E.01603
G1 X121.012 Y131.816 E.01602
;WIDTH:0.420246
G1 X120.966 Y132.325 E.01603
G1 X120.834 Y132.818 E.01601
G1 X120.622 Y133.283 E.01603
G1 X120.333 Y133.705 E.01605
G1 X119.978 Y134.072 E.01602
G1 X119.566 Y134.373 E.01601
G1 X119.108 Y134.601 E.01605
G1 X118.619 Y134.748 E.01602
G1 X118.112 Y134.81 E.01603
G1 X117.602 Y134.785 E.01602
G1 X117.103 Y134.675 E.01603
G1 X116.63 Y134.482 E.01603
G1 X116.196 Y134.212 E.01604
G1 X115.814 Y133.872 E.01604
G1 X115.496 Y133.473 E.01601
G1 X115.249 Y133.026 E.01602
G1 X115.081 Y132.543 E.01604
G1 X114.998 Y132.039 E.01603
G1 X115 Y131.529 E.016
G1 X115.089 Y131.026 E.01603
G1 X115.239 Y130.61 E.01387
M204 S1000
G1 X115.268 Y130.552 F10800
G1 X115.437 Y131.219
M204 S800
;WIDTH:0.419559
G1 F1200
G1 X115.455 Y131.121 E.00312
G1 X115.606 Y130.7 E.01401
;WIDTH:0.420145
G1 X115.823 Y130.318 E.01378
G1 X116.087 Y129.989 E.01323
;WIDTH:0.419557
G1 X116.446 Y129.673 E.01498
G1 X116.828 Y129.441 E.014
G1 X117.244 Y129.277 E.014
G1 X117.681 Y129.185 E.01399
;WIDTH:0.420164
G1 X118.12 Y129.169 E.01378
G1 X118.571 Y129.228 E.01427
;WIDTH:0.419559
G1 X118.997 Y129.362 E.01399
G1 X119.395 Y129.565 E.01399
G1 X119.752 Y129.833 E.01398
G1 X120.06 Y130.158 E.01402
G1 X120.307 Y130.529 E.01396
G1 X120.489 Y130.937 E.01399
G1 X120.599 Y131.371 E.01402
G1 X120.634 Y131.816 E.01398
G1 X120.594 Y132.261 E.01399
G1 X120.478 Y132.693 E.01401
G1 X120.292 Y133.099 E.01399
G1 X120.039 Y133.467 E.01399
G1 X119.728 Y133.788 E.014
G1 X119.368 Y134.051 E.01396
G1 X118.967 Y134.25 E.01402
G1 X118.539 Y134.378 E.01399
G1 X118.096 Y134.432 E.01398
G1 X117.65 Y134.411 E.01398
G1 X117.213 Y134.314 E.01402
G1 X116.8 Y134.145 E.01398
G1 X116.421 Y133.908 E.014
G1 X116.087 Y133.611 E.014
G1 X115.809 Y133.262 E.01397
G1 X115.593 Y132.87 E.01402
G1 X115.447 Y132.448 E.01398
G1 X115.374 Y132.007 E.014
G1 X115.377 Y131.561 E.01397
G1 X115.427 Y131.278 E.009
M204 S1000
G1 X115.359 Y131.157 F10800
;WIPE_START
G1 F8640
G1 X115.455 Y131.121 E-.04208
G1 X115.606 Y130.7 E-.11803
G1 X115.823 Y130.318 E-.11593
G1 X116.087 Y129.989 E-.11132
G1 X116.407 Y129.707 E-.11264
;WIPE_END
G1 X107.259 Y130.554 F10800
G1 E.5 F2400
M204 S800
;WIDTH:0.420238
G1 F1200
G1 X107.514 Y130.1 E.01634
G1 X107.837 Y129.705 E.01601
G1 X108.222 Y129.369 E.01603
G1 X108.658 Y129.103 E.01602
G1 X109.133 Y128.915 E.01603
M73 P3 R51
G1 X109.633 Y128.811 E.01602
;WIDTH:0.420578
G1 X110.144 Y128.792 E.01606
G1 X110.65 Y128.859 E.01603
;WIDTH:0.420246
G1 X111.138 Y129.011 E.01604
G1 X111.593 Y129.244 E.01604
G1 X112.002 Y129.55 E.01603
G1 X112.353 Y129.92 E.016
G1 X112.637 Y130.345 E.01604
G1 X112.845 Y130.812 E.01604
G1 X112.971 Y131.307 E.01603
G1 X113.012 Y131.816 E.01602
;WIDTH:0.420238
G1 X112.966 Y132.325 E.01603
G1 X112.834 Y132.818 E.01601
G1 X112.622 Y133.283 E.01603
G1 X112.333 Y133.705 E.01605
G1 X111.978 Y134.072 E.01602
G1 X111.566 Y134.373 E.01601
G1 X111.108 Y134.601 E.01605
G1 X110.619 Y134.748 E.01602
G1 X110.112 Y134.81 E.01603
G1 X109.602 Y134.785 E.01602
G1 X109.103 Y134.675 E.01603
G1 X108.63 Y134.482 E.01603
G1 X108.196 Y134.212 E.01604
G1 X107.814 Y133.872 E.01604
G1 X107.496 Y133.473 E.01601
G1 X107.249 Y133.026 E.01602
G1 X107.081 Y132.543 E.01604
G1 X106.998 Y132.039 E.01603
G1 X107 Y131.529 E.016
G1 X107.089 Y131.026 E.01603
G1 X107.239 Y130.61 E.01387
M204 S1000
G1 X107.657 Y130.515 F10800
G1 X107.376 Y131.745
M204 S800
;WIDTH:0.419558
G1 F1200
G1 X107.377 Y131.561 E.00576
G1 X107.455 Y131.121 E.01399
G1 X107.606 Y130.7 E.01401
G1 X107.826 Y130.312 E.01397
G1 X108.109 Y129.966 E.014
G1 X108.446 Y129.673 E.01399
G1 X108.828 Y129.441 E.014
G1 X109.244 Y129.277 E.014
G1 X109.681 Y129.185 E.01399
;WIDTH:0.420163
G1 X110.12 Y129.169 E.01378
G1 X110.571 Y129.228 E.01427
;WIDTH:0.419559
G1 X110.997 Y129.362 E.01399
G1 X111.395 Y129.565 E.01399
G1 X111.752 Y129.833 E.01398
G1 X112.06 Y130.158 E.01402
G1 X112.307 Y130.529 E.01396
G1 X112.489 Y130.938 E.01402
G1 X112.599 Y131.371 E.01399
G1 X112.634 Y131.816 E.01398
G1 X112.594 Y132.261 E.01399
G1 X112.478 Y132.693 E.01401
G1 X112.292 Y133.099 E.01399
G1 X112.039 Y133.467 E.01399
G1 X111.728 Y133.788 E.014
G1 X111.368 Y134.051 E.01396
G1 X110.967 Y134.25 E.01402
G1 X110.539 Y134.378 E.01399
G1 X110.096 Y134.432 E.01398
G1 X109.65 Y134.411 E.01398
G1 X109.213 Y134.314 E.01402
G1 X108.8 Y134.145 E.01398
G1 X108.421 Y133.908 E.014
;WIDTH:0.420238
G1 X108.097 Y133.623 E.01354
G1 X107.809 Y133.262 E.01449
;WIDTH:0.419558
G1 X107.593 Y132.87 E.01402
G1 X107.447 Y132.448 E.01398
G1 X107.374 Y132.007 E.014
G1 X107.375 Y131.805 E.00633
M204 S1000
G1 X107.213 Y131.658 F10800
;WIPE_START
G1 F8640
G1 X107.377 Y131.561 E-.06439
G1 X107.455 Y131.121 E-.11792
G1 X107.606 Y130.7 E-.11803
G1 X107.826 Y130.312 E-.1177
G1 X108.023 Y130.072 E-.08196
;WIPE_END
G1 X104.625 Y133.274 F10800
G1 E.5 F2400
M204 S800
;WIDTH:0.420238
G1 F1200
G1 X104.333 Y133.705 E.01633
G1 X103.978 Y134.072 E.01602
G1 X103.566 Y134.373 E.01601
G1 X103.108 Y134.601 E.01605
G1 X102.619 Y134.748 E.01602
G1 X102.112 Y134.81 E.01603
G1 X101.602 Y134.785 E.01602
G1 X101.103 Y134.675 E.01603
G1 X100.63 Y134.482 E.01603
G1 X100.196 Y134.212 E.01604
G1 X99.814 Y133.872 E.01604
G1 X99.496 Y133.473 E.01601
G1 X99.249 Y133.026 E.01602
G1 X99.081 Y132.543 E.01604
G1 X98.998 Y132.04 E.01599
G1 X99 Y131.529 E.01603
G1 X99.089 Y131.026 E.01603
G1 X99.262 Y130.545 E.01604
G1 X99.514 Y130.1 E.01604
G1 X99.837 Y129.704 E.01603
G1 X100.222 Y129.369 E.01601
G1 X100.658 Y129.103 E.01602
G1 X101.133 Y128.915 E.01603
G1 X101.633 Y128.811 E.01602
;WIDTH:0.420577
G1 X102.144 Y128.792 E.01606
G1 X102.65 Y128.859 E.01603
;WIDTH:0.420239
G1 X103.138 Y129.011 E.01604
G1 X103.593 Y129.244 E.01604
G1 X104.002 Y129.55 E.01603
G1 X104.353 Y129.92 E.016
G1 X104.637 Y130.345 E.01604
G1 X104.845 Y130.812 E.01604
G1 X104.971 Y131.307 E.01603
G1 X105.012 Y131.816 E.01602
;WIDTH:0.420238
G1 X104.966 Y132.325 E.01603
G1 X104.834 Y132.818 E.01601
G1 X104.65 Y133.22 E.01387
M204 S1000
G1 X104.226 Y133.279 F10800
;WIPE_START
G1 F8640
G1 X104.333 Y133.705 E-.1529
G1 X103.978 Y134.072 E-.13474
G1 X103.566 Y134.373 E-.13465
G1 X103.302 Y134.504 E-.07771
;WIPE_END
G1 X99.819 Y133.274 F10800
G1 E.5 F2400
M204 S800
;WIDTH:0.419559
G1 F1200
G1 X99.593 Y132.87 E.0145
