; generated by PrusaSlicer 2.6.1+win64 on 2023-10-13 at 22:22:41 UTC

; 

; external perimeters extrusion width = 0.40mm
; perimeters extrusion width = 0.40mm
; infill extrusion width = 0.64mm
; solid infill extrusion width = 0.56mm
; top infill extrusion width = 0.40mm
; first layer extrusion width = 0.50mm

; external perimeters extrusion width = 0.40mm
; perimeters extrusion width = 0.40mm
; infill extrusion width = 0.64mm
; solid infill extrusion width = 0.56mm
; top infill extrusion width = 0.40mm
; first layer extrusion width = 0.50mm

; external perimeters extrusion width = 0.40mm
; perimeters extrusion width = 0.40mm
; infill extrusion width = 0.64mm
; solid infill extrusion width = 0.56mm
; top infill extrusion width = 0.40mm
; first layer extrusion width = 0.50mm

;TYPE:Custom
M104 S0 ; Stops PS/SS from sending temp waits separately


; Pre-Processed for Cancel-Object support by preprocess_cancellation v0.2.0
; 3 known objects
EXCLUDE_OBJECT_DEFINE NAME=MAK_Sovol_SV06_Plus_Sensor_Arm_Mod_42mm_stl_id_0_copy_0 CENTER=115.629,136.139 POLYGON=[[91.7,130.0],[91.7,142.8],[133.3,142.8],[133.3,130.0]]
EXCLUDE_OBJECT_DEFINE NAME=MAK_Sovol_SV06_Plus_Sensor_Arm_Mod_52mm_stl_id_2_copy_0 CENTER=116.368,117.142 POLYGON=[[86.7,111.0],[86.7,123.8],[138.3,123.8],[138.3,111.0]]
EXCLUDE_OBJECT_DEFINE NAME=MAK_Sovol_SV06_Plus_Sensor_Arm_Mod_47mm_stl_id_1_copy_0 CENTER=115.956,98.197 POLYGON=[[89.2,92.0],[89.2,104.8],[135.8,104.8],[135.8,92.0]]
M140 S0
M117
PRINT_START BED=70 HOTEND=200
PURGE_LINE

;; If you are passing variables to PRINT_START, comment out above line and uncomment the last 3 lines instead. (I already did this)
;; Guide: https://github.com/AndrewEllis93/Print-Tuning-Guide/blob/main/articles/passing_slicer_variables.md
;; Make sure the variable names match (for example if you use "EXTRUDER" instead of "HOTEND")
G21 ; set units to millimeters
G90 ; use absolute coordinates
M82 ; use absolute distances for extrusion
G92 E0
; Filament gcode
M107
;LAYER_CHANGE
;Z:0.25
;HEIGHT:0.25
G1 Z.25 F18000
G1 E-.5 F2400
G92 E0
M204 S3500
G1 X87.76 Y90.715 F18000
G1 E.5 F2400
M204 S1000
;TYPE:Skirt/Brim
;WIDTH:0.5
G1 F1800
G1 X89 Y90.215 E.56203
G1 X128.125 Y90.215 E2.37714
G1 X129.237 Y90.603 E2.43178
G1 X129.895 Y91.767 E2.49381
G1 X132.395 Y110.767 E3.38287
G1 X132.41 Y124 E3.99678
G1 X132.352 Y124.454 E4.01801
G1 X127.352 Y143.454 E4.92948
G1 X126.693 Y144.431 E4.98415
G1 X125.625 Y144.785 E5.03635
G1 X91.5 Y144.785 E6.6195
G1 X90.388 Y144.397 E6.67414
G1 X89.773 Y143.454 E6.72637
G1 X84.773 Y124.454 E7.63784
G1 X84.715 Y124 E7.65907
G1 X84.73 Y110.767 E8.27298
G1 X87.23 Y91.767 E9.16204
G1 X87.733 Y90.769 E9.21389
M204 S3500
G1 X88.143 Y91.003 F18000
M204 S1000
G1 F1800
G1 X88.177 Y90.944 E9.21705
G1 X89 Y90.661 E9.25743
G1 X128.125 Y90.661 E11.07254
G1 X129.065 Y91.046 E11.11967
G1 X129.453 Y91.825 E11.16004
G1 X131.953 Y110.825 E12.0491
G1 X131.964 Y124 E12.66032
G1 X126.92 Y143.341 E13.58761
G1 X126.308 Y144.152 E13.63475
G1 X125.625 Y144.339 E13.6676
G1 X91.5 Y144.339 E15.25075
G1 X90.56 Y143.954 E15.29788
G1 X90.205 Y143.341 E15.33074
G1 X85.161 Y124 E16.25803
G1 X85.172 Y110.825 E16.86925
G1 X87.672 Y91.825 E17.75831
G1 X88.113 Y91.055 E17.79948
M204 S3500
G1 X88.503 Y91.327 F18000
M204 S1000
G1 F1800
G1 X88.584 Y91.21 E17.80608
G1 X89 Y91.107 E17.82596
G1 X128.125 Y91.107 E19.64107
G1 X128.854 Y91.485 E19.67917
G1 X129.01 Y91.884 E19.69905
G1 X131.51 Y110.884 E20.58811
G1 X131.518 Y124 E21.1966
G1 X126.488 Y143.227 E22.11861
G1 X125.625 Y143.893 E22.16918
G1 X91.5 Y143.893 E23.75233
G1 X90.637 Y143.227 E23.8029
G1 X85.607 Y124 E24.72491
G1 X85.615 Y110.884 E25.3334
G1 X88.115 Y91.884 E26.22246
G1 X88.469 Y91.376 E26.25119
M204 S3500
G1 X88.788 Y91.74 F18000
M204 S1000
G1 F1800
G1 X89 Y91.554 E26.26427
G1 X128.125 Y91.554 E28.07938
G1 X128.568 Y91.942 E28.1067
G1 X131.068 Y110.942 E28.99576
G1 X131.071 Y124 E29.60156
G1 X126.057 Y143.114 E30.51831
G1 X125.625 Y143.446 E30.54359
G1 X91.5 Y143.446 E32.12674
G1 X91.068 Y143.114 E32.15202
G1 X86.054 Y124 E33.06877
G1 X86.057 Y110.942 E33.67457
G1 X88.557 Y91.942 E34.56363
G1 X88.743 Y91.779 E34.5751
M204 S3500
; printing object MAK Sovol SV06 Plus Sensor Arm Mod - 42mm.stl id:0 copy 0
EXCLUDE_OBJECT_START NAME=MAK_Sovol_SV06_Plus_Sensor_Arm_Mod_42mm_stl_id_0_copy_0
G1 E34.0751 F2400
G92 E0
G1 X125.175 Y142.55 F18000
G1 E.5 F2400
M204 S1000
;TYPE:External perimeter
G1 F1800
G1 X91.95 Y142.55 E2.0414
G1 X91.95 Y130.45 E2.60275
G1 X125.175 Y130.45 E4.14415
G1 X125.175 Y142.49 E4.70272
M204 S3500
G1 X124.778 Y142.504 F18000
G1 X124.729 Y142.104
M204 S1000
;TYPE:Perimeter
G1 F1800
G1 X92.396 Y142.104 E6.20273
G1 X92.396 Y130.896 E6.7227
G1 X124.729 Y130.896 E8.22271
G1 X124.729 Y142.044 E8.7399
M204 S3500
G1 X124.282 Y141.657 F18000
M204 S1000
G1 F1800
G1 X92.843 Y141.657 E10.19844
G1 X92.843 Y131.343 E10.67693
G1 X124.282 Y131.343 E12.13547
G1 X124.282 Y141.597 E12.61118
M204 S3500
G1 E12.11118 F2400
G92 E0
G1 X96.593 Y138.668 F18000
G1 E.5 F2400
M204 S1000
;TYPE:External perimeter
G1 F1800
G1 X96.576 Y138.663 E.50082
G1 X96.218 Y138.47 E.51969
G1 X95.876 Y138.201 E.53988
G1 X95.597 Y137.882 E.55954
G1 X95.381 Y137.52 E.5791
G1 X95.233 Y137.126 E.59863
G1 X95.158 Y136.711 E.61819
G1 X95.158 Y136.289 E.63777
G1 X95.233 Y135.874 E.65733
G1 X95.381 Y135.48 E.67686
G1 X95.597 Y135.118 E.69642
G1 X95.875 Y134.8 E.71602
G1 X96.204 Y134.537 E.73556
G1 X96.576 Y134.337 E.75515
G1 X96.977 Y134.207 E.77471
G1 X97.379 Y134.153 E.79353
G1 X97.814 Y134.169 E.81372
G1 X98.227 Y134.263 E.83337
G1 X98.614 Y134.429 E.85291
G1 X98.966 Y134.661 E.87247
G1 X99.271 Y134.953 E.89206
G1 X99.519 Y135.294 E.91162
G1 X99.702 Y135.674 E.93119
G1 X99.814 Y136.08 E.95073
G1 X99.852 Y136.5 E.97029
G1 X99.814 Y136.92 E.98985
G1 X99.702 Y137.326 E1.00939
G1 X99.519 Y137.706 E1.02896
G1 X99.271 Y138.047 E1.04852
G1 X98.966 Y138.339 E1.06811
G1 X98.614 Y138.571 E1.08767
G1 X98.227 Y138.737 E1.10721
G1 X97.816 Y138.831 E1.12677
G1 X97.394 Y138.849 E1.14637
G1 X96.977 Y138.793 E1.16589
G1 X96.65 Y138.687 E1.18184
M204 S3500
G1 X96.58 Y138.681 F18000
G1 X96.431 Y139.085
M204 S1000
;TYPE:Perimeter
G1 F1800
G1 X96.4 Y139.075 E1.18335
G1 X95.973 Y138.845 E1.20585
G1 X95.567 Y138.526 E1.2298
G1 X95.235 Y138.146 E1.25321
G1 X94.977 Y137.715 E1.27651
G1 X94.801 Y137.245 E1.29979
G1 X94.711 Y136.751 E1.32309
G1 X94.711 Y136.249 E1.34638
G1 X94.801 Y135.755 E1.36968
G1 X94.977 Y135.285 E1.39296
G1 X95.235 Y134.854 E1.41626
G1 X95.565 Y134.476 E1.43954
G1 X95.958 Y134.163 E1.46285
G1 X96.4 Y133.925 E1.48614
G1 X96.877 Y133.77 E1.50941
G1 X97.357 Y133.705 E1.53188
G1 X97.873 Y133.725 E1.55584
G1 X98.365 Y133.837 E1.57925
G1 X98.827 Y134.034 E1.60255
G1 X99.246 Y134.311 E1.62585
G1 X99.609 Y134.658 E1.64915
G1 X99.904 Y135.064 E1.67243
G1 X100.121 Y135.516 E1.69569
G1 X100.255 Y136 E1.71899
G1 X100.3 Y136.5 E1.74228
G1 X100.255 Y137 E1.76557
G1 X100.121 Y137.484 E1.78887
G1 X99.904 Y137.936 E1.81213
G1 X99.609 Y138.342 E1.83541
G1 X99.246 Y138.689 E1.85871
G1 X98.827 Y138.966 E1.88201
G1 X98.365 Y139.163 E1.90531
G1 X97.876 Y139.275 E1.92858
G1 X97.374 Y139.297 E1.95189
G1 X96.877 Y139.23 E1.97516
G1 X96.488 Y139.103 E1.99414
M204 S3500
G1 X96.288 Y139.508 F18000
M204 S1000
G1 F1800
G1 X96.223 Y139.487 E1.99731
G1 X95.727 Y139.22 E2.02344
G1 X95.259 Y138.851 E2.05109
G1 X94.872 Y138.409 E2.07834
G1 X94.574 Y137.909 E2.10534
G1 X94.369 Y137.364 E2.13235
G1 X94.265 Y136.791 E2.15937
G1 X94.265 Y136.209 E2.18637
G1 X94.369 Y135.636 E2.21339
G1 X94.574 Y135.091 E2.2404
G1 X94.872 Y134.591 E2.2674
G1 X95.255 Y134.152 E2.29443
G1 X95.711 Y133.789 E2.32147
G1 X96.223 Y133.513 E2.34845
G1 X96.777 Y133.333 E2.37547
G1 X97.335 Y133.258 E2.40159
G1 X97.931 Y133.28 E2.42926
G1 X98.504 Y133.411 E2.45653
G1 X99.039 Y133.64 E2.48353
G1 X99.525 Y133.961 E2.51055
G1 X99.946 Y134.363 E2.53756
G1 X100.288 Y134.834 E2.56456
G1 X100.541 Y135.359 E2.5916
G1 X100.696 Y135.92 E2.6186
G1 X100.748 Y136.5 E2.64562
G1 X100.696 Y137.08 E2.67264
G1 X100.541 Y137.641 E2.69964
G1 X100.288 Y138.166 E2.72668
G1 X99.946 Y138.637 E2.75368
G1 X99.525 Y139.039 E2.78069
G1 X99.039 Y139.36 E2.80771
G1 X98.504 Y139.589 E2.83471
G1 X97.936 Y139.719 E2.86174
G1 X97.354 Y139.745 E2.88877
G1 X96.777 Y139.667 E2.91578
G1 X96.345 Y139.526 E2.93686
M204 S3500
G1 E2.43686 F2400
G92 E0
G1 X123.24 Y131.477 F18000
G1 E.5 F2400
M204 S1000
;TYPE:Solid infill
;WIDTH:0.50302
G1 F1800
G1 X124.148 Y132.385 E.55998
M204 S3500
G1 X124.148 Y133.021 F18000
M204 S1000
G1 F1800
G1 X122.604 Y131.477 E.66197
M204 S3500
G1 X121.969 Y131.477 F18000
M204 S1000
G1 F1800
G1 X124.148 Y133.656 E.8059
M204 S3500
G1 X124.148 Y134.292 F18000
M204 S1000
G1 F1800
G1 X121.333 Y131.477 E.99184
M204 S3500
G1 X120.698 Y131.477 F18000
M204 S1000
G1 F1800
G1 X124.148 Y134.927 E1.21972
M204 S3500
G1 X124.148 Y135.563 F18000
M204 S1000
G1 F1800
G1 X120.062 Y131.477 E1.48961
M204 S3500
G1 X119.427 Y131.477 F18000
M204 S1000
G1 F1800
G1 X124.148 Y136.198 E1.80145
M204 S3500
G1 X124.148 Y136.834 F18000
M204 S1000
G1 F1800
G1 X118.791 Y131.477 E2.1553
M204 S3500
G1 X118.156 Y131.477 F18000
M204 S1000
G1 F1800
G1 X124.148 Y137.469 E2.55109
M204 S3500
G1 X124.148 Y138.105 F18000
M204 S1000
G1 F1800
G1 X117.52 Y131.477 E2.98889
M204 S3500
G1 X116.885 Y131.477 F18000
M204 S1000
G1 F1800
G1 X124.148 Y138.74 E3.46863
M204 S3500
G1 X124.148 Y139.376 F18000
M204 S1000
G1 F1800
G1 X116.249 Y131.477 E3.99038
M204 S3500
G1 X115.614 Y131.477 F18000
M204 S1000
G1 F1800
G1 X124.148 Y140.011 E4.55408
M204 S3500
G1 X124.148 Y140.647 F18000
M204 S1000
G1 F1800
G1 X114.978 Y131.477 E5.15979
M204 S3500
G1 X114.343 Y131.477 F18000
M204 S1000
G1 F1800
G1 X124.148 Y141.282 E5.80744
M204 S3500
G1 X123.754 Y141.523 F18000
M204 S1000
G1 F1800
G1 X113.707 Y131.477 E6.47104
M204 S3500
G1 X113.072 Y131.477 F18000
M204 S1000
G1 F1800
G1 X123.118 Y141.523 E7.13461
M204 S3500
G1 X122.483 Y141.523 F18000
M204 S1000
G1 F1800
G1 X112.436 Y131.477 E7.79821
M204 S3500
G1 X111.801 Y131.477 F18000
M204 S1000
G1 F1800
G1 X121.847 Y141.523 E8.46178
M204 S3500
G1 X121.212 Y141.523 F18000
M204 S1000
G1 F1800
G1 X111.165 Y131.477 E9.12538
M204 S3500
G1 X110.53 Y131.477 F18000
M204 S1000
G1 F1800
G1 X120.576 Y141.523 E9.78895
M204 S3500
G1 X119.941 Y141.523 F18000
M204 S1000
G1 F1800
G1 X109.894 Y131.477 E10.45255
M204 S3500
G1 X109.259 Y131.477 F18000
M204 S1000
G1 F1800
G1 X119.305 Y141.523 E11.11612
M204 S3500
G1 X118.67 Y141.523 F18000
M204 S1000
G1 F1800
G1 X108.623 Y131.477 E11.77972
M204 S3500
G1 X107.988 Y131.477 F18000
M204 S1000
G1 F1800
G1 X118.034 Y141.523 E12.44329
M204 S3500
G1 X117.399 Y141.523 F18000
M204 S1000
G1 F1800
G1 X107.352 Y131.477 E13.10689
M204 S3500
G1 X106.717 Y131.477 F18000
M204 S1000
G1 F1800
G1 X116.763 Y141.523 E13.77046
M204 S3500
G1 X116.128 Y141.523 F18000
M204 S1000
G1 F1800
G1 X106.081 Y131.477 E14.43406
M204 S3500
G1 X105.446 Y131.477 F18000
M204 S1000
G1 F1800
G1 X115.492 Y141.523 E15.09763
M204 S3500
G1 X114.857 Y141.523 F18000
M204 S1000
G1 F1800
G1 X104.81 Y131.477 E15.76123
M204 S3500
G1 X104.175 Y131.477 F18000
M204 S1000
G1 F1800
G1 X114.221 Y141.523 E16.4248
M204 S3500
G1 X113.586 Y141.523 F18000
M204 S1000
G1 F1800
G1 X103.539 Y131.477 E17.0884
M204 S3500
G1 X102.904 Y131.477 F18000
M204 S1000
G1 F1800
G1 X112.95 Y141.523 E17.75197
M204 S3500
G1 X112.315 Y141.523 F18000
M204 S1000
G1 F1800
G1 X102.268 Y131.477 E18.41557
M204 S3500
G1 X101.633 Y131.477 F18000
M204 S1000
G1 F1800
G1 X111.679 Y141.523 E19.07914
M204 S3500
G1 X111.044 Y141.523 F18000
M204 S1000
G1 F1800
G1 X100.997 Y131.477 E19.74274
M204 S3500
G1 X100.362 Y131.477 F18000
M204 S1000
G1 F1800
G1 X110.408 Y141.523 E20.40631
M204 S3500
G1 X109.773 Y141.523 F18000
M204 S1000
G1 F1800
G1 X99.726 Y131.477 E21.06991
M204 S3500
G1 X99.091 Y131.477 F18000
M204 S1000
G1 F1800
G1 X109.137 Y141.523 E21.73348
M204 S3500
G1 X108.502 Y141.523 F18000
M204 S1000
G1 F1800
G1 X98.455 Y131.477 E22.39708
M204 S3500
G1 X97.82 Y131.477 F18000
M204 S1000
G1 F1800
G1 X107.866 Y141.523 E23.06065
M204 S3500
G1 X107.231 Y141.523 F18000
M204 S1000
G1 F1800
G1 X100.221 Y134.514 E23.52365
M204 S3500
G1 X100.775 Y135.703 F18000
M204 S1000
G1 F1800
G1 X106.595 Y141.523 E23.90808
M204 S3500
G1 X105.96 Y141.523 F18000
M204 S1000
G1 F1800
G1 X100.877 Y136.441 E24.24379
M204 S3500
G1 X100.835 Y137.034 F18000
M204 S1000
G1 F1800
G1 X105.324 Y141.523 E24.5403
M204 S3500
G1 X104.689 Y141.523 F18000
M204 S1000
G1 F1800
G1 X100.707 Y137.542 E24.80329
M204 S3500
G1 X100.521 Y137.991 F18000
M204 S1000
G1 F1800
G1 X104.053 Y141.523 E25.03659
M204 S3500
G1 X103.418 Y141.523 F18000
M204 S1000
G1 F1800
G1 X100.288 Y138.394 E25.2433
M204 S3500
G1 X100.015 Y138.756 F18000
M204 S1000
G1 F1800
G1 X102.782 Y141.523 E25.42607
M204 S3500
G1 X102.147 Y141.523 F18000
M204 S1000
G1 F1800
G1 X99.69 Y139.067 E25.58833
M204 S3500
G1 X99.322 Y139.334 F18000
M204 S1000
G1 F1800
G1 X101.511 Y141.523 E25.73292
M204 S3500
G1 X100.876 Y141.523 F18000
M204 S1000
G1 F1800
G1 X98.912 Y139.56 E25.86262
M204 S3500
G1 X98.455 Y139.738 F18000
M204 S1000
G1 F1800
G1 X100.24 Y141.523 E25.98052
M204 S3500
G1 X99.605 Y141.523 F18000
M204 S1000
G1 F1800
G1 X97.934 Y139.853 E26.09086
M204 S3500
G1 X97.321 Y139.876 F18000
M204 S1000
G1 F1800
G1 X98.969 Y141.523 E26.19968
M204 S3500
G1 X98.334 Y141.523 F18000
M204 S1000
G1 F1800
G1 X96.541 Y139.731 E26.31808
M204 S3500
G1 E25.81808 F2400
G92 E0
G1 X99.473 Y133.766 F18000
G1 E.5 F2400
M204 S1000
G1 F1800
G1 X97.184 Y131.477 E.6512
M204 S3500
G1 X96.548 Y131.477 F18000
M204 S1000
G1 F1800
G1 X98.299 Y133.227 E.76683
M204 S3500
G1 X97.569 Y133.133 F18000
M204 S1000
G1 F1800
G1 X95.913 Y131.477 E.87621
M204 S3500
G1 X95.277 Y131.477 F18000
M204 S1000
G1 F1800
G1 X96.973 Y133.172 E.9882
M204 S3500
G1 X96.461 Y133.295 F18000
M204 S1000
G1 F1800
G1 X94.642 Y131.477 E1.10832
M204 S3500
G1 X94.006 Y131.477 F18000
M204 S1000
G1 F1800
G1 X96.007 Y133.477 E1.24046
M204 S3500
G1 X95.6 Y133.706 F18000
M204 S1000
G1 F1800
G1 X93.371 Y131.477 E1.38769
M204 S3500
G1 X92.977 Y131.718 F18000
M204 S1000
G1 F1800
G1 X95.247 Y133.988 E1.53763
M204 S3500
G1 X94.937 Y134.313 F18000
M204 S1000
G1 F1800
G1 X92.977 Y132.353 E1.66709
M204 S3500
G1 X92.977 Y132.989 F18000
M204 S1000
G1 F1800
G1 X94.665 Y134.677 E1.77859
M204 S3500
G1 X94.434 Y135.082 F18000
M204 S1000
G1 F1800
G1 X92.977 Y133.624 E1.87486
M204 S3500
G1 X92.977 Y134.26 F18000
M204 S1000
G1 F1800
G1 X94.261 Y135.544 E1.95967
M204 S3500
G1 X94.154 Y136.072 F18000
M204 S1000
G1 F1800
G1 X92.977 Y134.895 E2.03741
M204 S3500
G1 X92.977 Y135.531 F18000
M204 S1000
G1 F1800
G1 X94.131 Y136.685 E2.11364
M204 S3500
G1 X94.257 Y137.447 F18000
M204 S1000
G1 F1800
G1 X92.977 Y136.166 E2.19822
M204 S3500
G1 X92.977 Y136.802 F18000
M204 S1000
G1 F1800
G1 X97.698 Y141.523 E2.51006
M204 S3500
G1 X97.063 Y141.523 F18000
M204 S1000
G1 F1800
G1 X92.977 Y137.437 E2.77995
M204 S3500
G1 X92.977 Y138.073 F18000
M204 S1000
G1 F1800
G1 X96.427 Y141.523 E3.00783
M204 S3500
G1 X95.792 Y141.523 F18000
M204 S1000
G1 F1800
G1 X92.977 Y138.708 E3.19377
M204 S3500
G1 X92.977 Y139.344 F18000
M204 S1000
G1 F1800
G1 X95.156 Y141.523 E3.3377
M204 S3500
G1 X94.521 Y141.523 F18000
M204 S1000
G1 F1800
G1 X92.977 Y139.979 E3.43969
M204 S3500
G1 X92.977 Y140.615 F18000
M204 S1000
G1 F1800
G1 X93.885 Y141.523 E3.49967
M204 S3500
; stop printing object MAK Sovol SV06 Plus Sensor Arm Mod - 42mm.stl id:0 copy 0
EXCLUDE_OBJECT_END NAME=MAK_Sovol_SV06_Plus_Sensor_Arm_Mod_42mm_stl_id_0_copy_0
; printing object MAK Sovol SV06 Plus Sensor Arm Mod - 52mm.stl id:2 copy 0
EXCLUDE_OBJECT_START NAME=MAK_Sovol_SV06_Plus_Sensor_Arm_Mod_52mm_stl_id_2_copy_0
G1 E2.99967 F2400
G92 E0
G1 X130.175 Y123.55 F18000
G1 E.5 F2400
M204 S1000
;TYPE:External perimeter
;WIDTH:0.5
G1 F1800
G1 X86.95 Y123.55 E2.50532
G1 X86.95 Y111.45 E3.06667
G1 X130.175 Y111.45 E5.07199
G1 X130.175 Y123.49 E5.63056
M204 S3500
G1 X129.777 Y123.514 F18000
G1 X129.729 Y123.104
M204 S1000
;TYPE:Perimeter
G1 F1800
G1 X87.396 Y123.104 E7.5945
G1 X87.396 Y111.896 E8.11447
G1 X129.729 Y111.896 E10.07841
