; generated by PrusaSlicer 2.6.1+win64 on 2023-10-13 at 22:47:59 UTC

; 

; external perimeters extrusion width = 0.40mm
; perimeters extrusion width = 0.40mm
; infill extrusion width = 0.64mm
; solid infill extrusion width = 0.56mm
; top infill extrusion width = 0.40mm
; first layer extrusion width = 0.50mm

; external perimeters extrusion width = 0.40mm
; perimeters extrusion width = 0.40mm
; infill extrusion width = 0.64mm
; solid infill extrusion width = 0.56mm
; top infill extrusion width = 0.40mm
; first layer extrusion width = 0.50mm

; external perimeters extrusion width = 0.40mm
; perimeters extrusion width = 0.40mm
; infill extrusion width = 0.64mm
; solid infill extrusion width = 0.56mm
; top infill extrusion width = 0.40mm
; first layer extrusion width = 0.50mm

;TYPE:Custom
M104 S0 ; Stops PS/SS from sending temp waits separately


; Pre-Processed for Cancel-Object support by preprocess_cancellation v0.2.0
; 3 known objects
EXCLUDE_OBJECT_DEFINE NAME=MAK_Sovol_SV06_Plus_Sensor_Arm_Mod_47mm_stl_id_1_copy_0 CENTER=113.693,93.116 POLYGON=[[86.937,86.919],[86.937,99.719],[133.537,99.719],[133.537,86.919]]
EXCLUDE_OBJECT_DEFINE NAME=MAK_Sovol_SV06_Plus_Sensor_Arm_Mod_52mm_stl_id_2_copy_0 CENTER=116.368,117.142 POLYGON=[[86.7,111.0],[86.7,123.8],[138.3,123.8],[138.3,111.0]]
EXCLUDE_OBJECT_DEFINE NAME=MAK_Sovol_SV06_Plus_Sensor_Arm_Mod_42mm_stl_id_0_copy_0 CENTER=116.461,139.669 POLYGON=[[92.531,133.53],[92.531,146.33],[134.131,146.33],[134.131,133.53]]
M140 S0
M117
PRINT_START BED=60 HOTEND=215
PURGE_LINE

;; If you are passing variables to PRINT_START, comment out above line and uncomment the last 3 lines instead. (I already did this)
;; Guide: https://github.com/AndrewEllis93/Print-Tuning-Guide/blob/main/articles/passing_slicer_variables.md
;; Make sure the variable names match (for example if you use "EXTRUDER" instead of "HOTEND")
G21 ; set units to millimeters
G90 ; use absolute coordinates
M82 ; use absolute distances for extrusion
G92 E0
; Filament gcode
M107
;LAYER_CHANGE
;Z:0.25
;HEIGHT:0.25
G1 Z.25 F18000
; printing object MAK Sovol SV06 Plus Sensor Arm Mod - 47mm.stl id:1 copy 0
EXCLUDE_OBJECT_START NAME=MAK_Sovol_SV06_Plus_Sensor_Arm_Mod_47mm_stl_id_1_copy_0
G1 E-.5 F2400
G92 E0
M204 S3500
G1 X125.412 Y99.469 F18000
G1 E.5 F2400
M204 S1000
;TYPE:External perimeter
;WIDTH:0.5
G1 F1800
G1 X87.187 Y99.469 E2.27336
G1 X87.187 Y87.369 E2.83471
G1 X125.412 Y87.369 E4.60807
G1 X125.412 Y99.409 E5.16664
M204 S3500
G1 X125.014 Y99.428 F18000
G1 X124.966 Y99.023
M204 S1000
;TYPE:Perimeter
G1 F1800
G1 X87.634 Y99.023 E6.89857
G1 X87.634 Y87.815 E7.41854
G1 X124.966 Y87.815 E9.15047
G1 X124.966 Y98.963 E9.66766
M204 S3500
G1 X124.52 Y98.576 F18000
M204 S1000
G1 F1800
G1 X88.08 Y98.576 E11.35821
G1 X88.08 Y88.262 E11.8367
G1 X124.52 Y88.262 E13.52725
G1 X124.52 Y98.516 E14.00296
M204 S3500
G1 E13.50296 F2400
G92 E0
G1 X91.673 Y95.515 F18000
G1 E.5 F2400
M204 S1000
;TYPE:External perimeter
G1 F1800
G1 X91.32 Y95.296 E.51927
G1 X90.999 Y95.004 E.5394
G1 X90.738 Y94.657 E.55954
G1 X90.544 Y94.269 E.57966
G1 X90.425 Y93.851 E.59982
G1 X90.385 Y93.419 E.61995
G1 X90.425 Y92.987 E.64008
G1 X90.544 Y92.569 E.66024
G1 X90.738 Y92.181 E.68036
G1 X90.989 Y91.848 E.69971
G1 X91.318 Y91.543 E.72052
G1 X91.689 Y91.314 E.74075
G1 X92.094 Y91.157 E.7609
G1 X92.52 Y91.077 E.78101
G1 X92.954 Y91.077 E.80114
G1 X93.381 Y91.157 E.82129
G1 X93.786 Y91.314 E.84144
G1 X94.155 Y91.542 E.86156
G1 X94.463 Y91.824 E.88093
G1 X94.736 Y92.179 E.90171
G1 X94.93 Y92.569 E.92192
G1 X95.049 Y92.987 E.94208
G1 X95.089 Y93.419 E.96221
G1 X95.049 Y93.851 E.98234
G1 X94.93 Y94.269 E1.0025
G1 X94.737 Y94.657 E1.0226
G1 X94.475 Y95.004 E1.04277
G1 X94.155 Y95.296 E1.06287
G1 X93.786 Y95.524 E1.08299
G1 X93.381 Y95.681 E1.10314
G1 X92.954 Y95.761 E1.12329
G1 X92.52 Y95.761 E1.14342
G1 X92.094 Y95.681 E1.16353
G1 X91.727 Y95.539 E1.18179
M204 S3500
G1 X91.339 Y95.735 F18000
G1 X91.52 Y95.938
M204 S1000
;TYPE:Perimeter
G1 F1800
G1 X91.489 Y95.926 E1.18333
G1 X91.05 Y95.654 E1.20729
G1 X90.668 Y95.306 E1.23126
G1 X90.356 Y94.893 E1.25527
G1 X90.126 Y94.431 E1.27921
G1 X89.985 Y93.934 E1.30318
G1 X89.937 Y93.419 E1.32718
G1 X89.985 Y92.905 E1.35113
G1 X90.126 Y92.408 E1.3751
G1 X90.356 Y91.945 E1.39908
G1 X90.657 Y91.547 E1.42223
G1 X91.047 Y91.186 E1.44688
G1 X91.489 Y90.912 E1.47101
G1 X91.971 Y90.726 E1.49498
G1 X92.479 Y90.631 E1.51896
G1 X92.996 Y90.631 E1.54294
G1 X93.504 Y90.726 E1.56692
G1 X93.985 Y90.912 E1.59085
G1 X94.425 Y91.184 E1.61485
G1 X94.793 Y91.521 E1.638
G1 X95.117 Y91.942 E1.66265
G1 X95.348 Y92.408 E1.68678
G1 X95.49 Y92.905 E1.71076
G1 X95.537 Y93.419 E1.73471
G1 X95.49 Y93.934 E1.7587
G1 X95.348 Y94.431 E1.78268
G1 X95.118 Y94.893 E1.80662
G1 X94.807 Y95.306 E1.83061
G1 X94.425 Y95.654 E1.85458
G1 X93.985 Y95.926 E1.87858
G1 X93.504 Y96.112 E1.90251
G1 X92.996 Y96.207 E1.92649
G1 X92.479 Y96.207 E1.95047
G1 X91.971 Y96.112 E1.97445
G1 X91.576 Y95.96 E1.99409
M204 S3500
G1 X91.354 Y96.352 F18000
M204 S1000
G1 F1800
G1 X91.289 Y96.327 E1.99732
G1 X90.78 Y96.011 E2.02511
G1 X90.337 Y95.608 E2.05289
G1 X89.975 Y95.129 E2.08074
G1 X89.708 Y94.593 E2.10852
G1 X89.544 Y94.016 E2.13635
G1 X89.489 Y93.419 E2.16416
G1 X89.544 Y92.822 E2.19197
G1 X89.708 Y92.246 E2.21975
G1 X89.975 Y91.709 E2.24757
G1 X90.325 Y91.246 E2.2745
G1 X90.775 Y90.829 E2.30296
G1 X91.289 Y90.511 E2.331
G1 X91.848 Y90.295 E2.3588
G1 X92.438 Y90.184 E2.38665
G1 X93.037 Y90.184 E2.41444
G1 X93.626 Y90.295 E2.44225
G1 X94.185 Y90.511 E2.47005
G1 X94.695 Y90.827 E2.49788
G1 X95.123 Y91.217 E2.52474
G1 X95.497 Y91.705 E2.55326
G1 X95.766 Y92.246 E2.58129
G1 X95.93 Y92.822 E2.60907
G1 X95.986 Y93.419 E2.63689
G1 X95.93 Y94.016 E2.66471
G1 X95.766 Y94.593 E2.69254
G1 X95.499 Y95.129 E2.72032
G1 X95.138 Y95.608 E2.74815
G1 X94.695 Y96.011 E2.77593
G1 X94.185 Y96.327 E2.80376
G1 X93.626 Y96.544 E2.83158
G1 X93.037 Y96.654 E2.85938
G1 X92.438 Y96.654 E2.88717
G1 X91.848 Y96.544 E2.91501
G1 X91.41 Y96.374 E2.93681
M204 S3500
G1 E2.43681 F2400
G92 E0
G1 X123.479 Y88.396 F18000
G1 E.5 F2400
M204 S1000
;TYPE:Solid infill
;WIDTH:0.502206
G1 F1800
G1 X124.386 Y89.303 E.5598
M204 S3500
G1 X124.386 Y89.937 F18000
M204 S1000
G1 F1800
G1 X122.844 Y88.396 E.66144
M204 S3500
G1 X122.21 Y88.396 F18000
M204 S1000
G1 F1800
G1 X124.386 Y90.571 E.80488
M204 S3500
G1 X124.386 Y91.206 F18000
M204 S1000
G1 F1800
G1 X121.576 Y88.396 E.99015
M204 S3500
G1 X120.941 Y88.396 F18000
M204 S1000
G1 F1800
G1 X124.386 Y91.84 E1.21726
M204 S3500
G1 X124.386 Y92.474 F18000
M204 S1000
G1 F1800
G1 X120.307 Y88.396 E1.48617
M204 S3500
G1 X119.673 Y88.396 F18000
M204 S1000
G1 F1800
G1 X124.386 Y93.109 E1.79691
M204 S3500
G1 X124.386 Y93.743 F18000
M204 S1000
G1 F1800
G1 X119.038 Y88.396 E2.14949
M204 S3500
G1 X118.404 Y88.396 F18000
M204 S1000
G1 F1800
G1 X124.386 Y94.377 E2.54387
M204 S3500
G1 X124.386 Y95.012 F18000
M204 S1000
G1 F1800
G1 X117.769 Y88.396 E2.98012
M204 S3500
G1 X117.135 Y88.396 F18000
M204 S1000
G1 F1800
G1 X124.386 Y95.646 E3.45817
M204 S3500
G1 X124.386 Y96.281 F18000
M204 S1000
G1 F1800
G1 X116.501 Y88.396 E3.97806
M204 S3500
G1 X115.866 Y88.396 F18000
M204 S1000
G1 F1800
G1 X124.386 Y96.915 E4.53978
M204 S3500
G1 X124.386 Y97.549 F18000
M204 S1000
G1 F1800
G1 X115.232 Y88.396 E5.1433
M204 S3500
G1 X114.598 Y88.396 F18000
M204 S1000
G1 F1800
G1 X124.386 Y98.184 E5.78866
M204 S3500
G1 X124.01 Y98.442 F18000
M204 S1000
G1 F1800
G1 X113.963 Y88.396 E6.45106
M204 S3500
G1 X113.329 Y88.396 F18000
M204 S1000
G1 F1800
G1 X123.376 Y98.442 E7.11346
M204 S3500
G1 X122.741 Y98.442 F18000
M204 S1000
G1 F1800
G1 X112.695 Y88.396 E7.77583
M204 S3500
G1 X112.06 Y88.396 F18000
M204 S1000
G1 F1800
G1 X122.107 Y98.442 E8.43823
M204 S3500
G1 X121.473 Y98.442 F18000
M204 S1000
G1 F1800
G1 X111.426 Y88.396 E9.10063
M204 S3500
G1 X110.792 Y88.396 F18000
M204 S1000
G1 F1800
G1 X120.838 Y98.442 E9.763
M204 S3500
G1 X120.204 Y98.442 F18000
M204 S1000
G1 F1800
G1 X110.157 Y88.396 E10.4254
M204 S3500
G1 X109.523 Y88.396 F18000
M204 S1000
G1 F1800
G1 X119.57 Y98.442 E11.0878
M204 S3500
G1 X118.935 Y98.442 F18000
M204 S1000
G1 F1800
G1 X108.889 Y88.396 E11.75017
M204 S3500
G1 X108.254 Y88.396 F18000
M204 S1000
G1 F1800
G1 X118.301 Y98.442 E12.41257
M204 S3500
G1 X117.667 Y98.442 F18000
M204 S1000
G1 F1800
G1 X107.62 Y88.396 E13.07497
M204 S3500
G1 X106.985 Y88.396 F18000
M204 S1000
G1 F1800
G1 X117.032 Y98.442 E13.73737
M204 S3500
G1 X116.398 Y98.442 F18000
M204 S1000
G1 F1800
G1 X106.351 Y88.396 E14.39977
M204 S3500
G1 X105.717 Y88.396 F18000
M204 S1000
G1 F1800
G1 X115.764 Y98.442 E15.06217
M204 S3500
G1 X115.129 Y98.442 F18000
M204 S1000
G1 F1800
G1 X105.082 Y88.396 E15.72457
M204 S3500
G1 X104.448 Y88.396 F18000
M204 S1000
G1 F1800
G1 X114.495 Y98.442 E16.38697
M204 S3500
G1 X113.861 Y98.442 F18000
M204 S1000
G1 F1800
G1 X103.814 Y88.396 E17.04937
M204 S3500
G1 X103.179 Y88.396 F18000
M204 S1000
G1 F1800
G1 X113.226 Y98.442 E17.71177
M204 S3500
G1 X112.592 Y98.442 F18000
M204 S1000
G1 F1800
G1 X102.545 Y88.396 E18.37417
M204 S3500
G1 X101.911 Y88.396 F18000
M204 S1000
G1 F1800
G1 X111.957 Y98.442 E19.03654
M204 S3500
G1 X111.323 Y98.442 F18000
M204 S1000
G1 F1800
G1 X101.276 Y88.396 E19.69894
M204 S3500
G1 X100.642 Y88.396 F18000
M204 S1000
G1 F1800
G1 X110.689 Y98.442 E20.36134
M204 S3500
G1 X110.054 Y98.442 F18000
M204 S1000
G1 F1800
G1 X100.008 Y88.396 E21.02371
M204 S3500
G1 X99.373 Y88.396 F18000
M204 S1000
G1 F1800
G1 X109.42 Y98.442 E21.68611
M204 S3500
G1 X108.786 Y98.442 F18000
M204 S1000
G1 F1800
G1 X98.739 Y88.396 E22.34851
M204 S3500
G1 X98.105 Y88.396 F18000
M204 S1000
G1 F1800
G1 X108.151 Y98.442 E23.01088
M204 S3500
G1 X107.517 Y98.442 F18000
M204 S1000
G1 F1800
G1 X97.47 Y88.396 E23.67328
M204 S3500
G1 X96.836 Y88.396 F18000
M204 S1000
G1 F1800
G1 X106.883 Y98.442 E24.33568
M204 S3500
G1 X106.248 Y98.442 F18000
M204 S1000
G1 F1800
G1 X96.201 Y88.396 E24.99808
M204 S3500
G1 X95.567 Y88.396 F18000
M204 S1000
G1 F1800
G1 X105.614 Y98.442 E25.66048
M204 S3500
G1 X104.98 Y98.442 F18000
M204 S1000
G1 F1800
G1 X94.933 Y88.396 E26.32288
M204 S3500
G1 X94.298 Y88.396 F18000
M204 S1000
G1 F1800
G1 X104.345 Y98.442 E26.98528
M204 S3500
G1 X103.711 Y98.442 F18000
M204 S1000
G1 F1800
G1 X93.664 Y88.396 E27.64768
M204 S3500
G1 X93.03 Y88.396 F18000
M204 S1000
G1 F1800
G1 X103.076 Y98.442 E28.31005
M204 S3500
G1 X102.442 Y98.442 F18000
M204 S1000
G1 F1800
G1 X95.539 Y91.539 E28.76519
M204 S3500
G1 X96.023 Y92.657 F18000
M204 S1000
G1 F1800
G1 X101.808 Y98.442 E29.14661
M204 S3500
G1 X101.173 Y98.442 F18000
M204 S1000
G1 F1800
G1 X96.117 Y93.386 E29.47997
M204 S3500
G1 X96.069 Y93.972 F18000
M204 S1000
G1 F1800
G1 X100.539 Y98.442 E29.77469
M204 S3500
G1 X99.905 Y98.442 F18000
M204 S1000
G1 F1800
G1 X95.939 Y94.476 E30.03618
M204 S3500
G1 X95.751 Y94.923 F18000
M204 S1000
G1 F1800
G1 X99.27 Y98.442 E30.2682
M204 S3500
G1 X98.636 Y98.442 F18000
M204 S1000
G1 F1800
G1 X95.519 Y95.325 E30.47371
M204 S3500
G1 X95.246 Y95.687 F18000
M204 S1000
G1 F1800
G1 X98.002 Y98.442 E30.65539
M204 S3500
G1 X97.367 Y98.442 F18000
M204 S1000
G1 F1800
G1 X94.916 Y95.991 E30.81699
M204 S3500
G1 X94.549 Y96.259 F18000
M204 S1000
G1 F1800
G1 X96.733 Y98.442 E30.96096
M204 S3500
G1 X96.099 Y98.442 F18000
M204 S1000
G1 F1800
G1 X94.143 Y96.487 E31.08989
M204 S3500
G1 X93.686 Y96.664 F18000
M204 S1000
G1 F1800
G1 X95.464 Y98.442 E31.20712
M204 S3500
G1 X94.83 Y98.442 F18000
M204 S1000
G1 F1800
G1 X93.155 Y96.768 E31.31753
M204 S3500
G1 X92.541 Y96.788 F18000
M204 S1000
G1 F1800
G1 X94.196 Y98.442 E31.42662
M204 S3500
G1 X93.561 Y98.442 F18000
M204 S1000
G1 F1800
G1 X91.779 Y96.66 E31.54411
M204 S3500
G1 E31.04411 F2400
G92 E0
G1 X94.627 Y90.627 F18000
G1 E.5 F2400
M204 S1000
G1 F1800
G1 X92.395 Y88.396 E.64713
M204 S3500
G1 X91.761 Y88.396 F18000
M204 S1000
G1 F1800
G1 X93.5 Y90.135 E.76179
M204 S3500
G1 X92.782 Y90.051 F18000
M204 S1000
G1 F1800
G1 X91.127 Y88.396 E.87091
M204 S3500
G1 X90.492 Y88.396 F18000
M204 S1000
G1 F1800
G1 X92.191 Y90.094 E.9829
M204 S3500
G1 X91.679 Y90.217 F18000
M204 S1000
G1 F1800
G1 X89.858 Y88.396 E1.10296
M204 S3500
G1 X89.224 Y88.396 F18000
M204 S1000
G1 F1800
G1 X91.223 Y90.395 E1.23476
M204 S3500
G1 X90.831 Y90.637 F18000
M204 S1000
G1 F1800
G1 X88.589 Y88.396 E1.38255
M204 S3500
G1 X88.214 Y88.655 F18000
M204 S1000
G1 F1800
G1 X90.48 Y90.921 E1.53196
M204 S3500
G1 X90.163 Y91.238 F18000
M204 S1000
G1 F1800
G1 X88.214 Y89.289 E1.66046
M204 S3500
G1 X88.214 Y89.923 F18000
M204 S1000
G1 F1800
G1 X89.89 Y91.6 E1.771
M204 S3500
G1 X89.673 Y92.017 F18000
M204 S1000
G1 F1800
G1 X88.214 Y90.558 E1.8672
M204 S3500
G1 X88.214 Y91.192 F18000
M204 S1000
G1 F1800
G1 X89.502 Y92.48 E1.95212
M204 S3500
G1 X89.393 Y93.005 F18000
M204 S1000
G1 F1800
G1 X88.214 Y91.826 E2.02986
M204 S3500
G1 X88.214 Y92.461 F18000
M204 S1000
G1 F1800
G1 X89.373 Y93.62 E2.10628
M204 S3500
G1 X89.512 Y94.394 F18000
M204 S1000
G1 F1800
G1 X88.214 Y93.095 E2.19189
M204 S3500
G1 X88.214 Y93.73 F18000
M204 S1000
G1 F1800
G1 X92.927 Y98.442 E2.5026
M204 S3500
G1 X92.292 Y98.442 F18000
M204 S1000
G1 F1800
G1 X88.214 Y94.364 E2.77148
M204 S3500
G1 X88.214 Y94.998 F18000
M204 S1000
G1 F1800
G1 X91.658 Y98.442 E2.99855
M204 S3500
G1 X91.024 Y98.442 F18000
M204 S1000
G1 F1800
G1 X88.214 Y95.633 E3.18379
M204 S3500
G1 X88.214 Y96.267 F18000
M204 S1000
G1 F1800
G1 X90.389 Y98.442 E3.3272
M204 S3500
G1 X89.755 Y98.442 F18000
M204 S1000
G1 F1800
G1 X88.214 Y96.901 E3.4288
M204 S3500
G1 X88.214 Y97.536 F18000
M204 S1000
G1 F1800
G1 X89.121 Y98.442 E3.48857
M204 S3500
; stop printing object MAK Sovol SV06 Plus Sensor Arm Mod - 47mm.stl id:1 copy 0
EXCLUDE_OBJECT_END NAME=MAK_Sovol_SV06_Plus_Sensor_Arm_Mod_47mm_stl_id_1_copy_0
; printing object MAK Sovol SV06 Plus Sensor Arm Mod - 52mm.stl id:2 copy 0
EXCLUDE_OBJECT_START NAME=MAK_Sovol_SV06_Plus_Sensor_Arm_Mod_52mm_stl_id_2_copy_0
G1 E2.98857 F2400
G92 E0
G1 X130.175 Y123.55 F18000
G1 E.5 F2400
M204 S1000
;TYPE:External perimeter
;WIDTH:0.5
G1 F1800
G1 X86.95 Y123.55 E2.50532
G1 X86.95 Y111.45 E3.06667
G1 X130.175 Y111.45 E5.07199
G1 X130.175 Y123.49 E5.63056
M204 S3500
G1 X129.777 Y123.514 F18000
G1 X129.729 Y123.104
M204 S1000
;TYPE:Perimeter
G1 F1800
G1 X87.396 Y123.104 E7.5945
G1 X87.396 Y111.896 E8.11447
G1 X129.729 Y111.896 E10.07841
G1 X129.729 Y123.044 E10.5956
M204 S3500
G1 X129.282 Y122.657 F18000
M204 S1000
G1 F1800
G1 X87.843 Y122.657 E12.51806
G1 X87.843 Y112.343 E12.99655
G1 X129.282 Y112.343 E14.91901
G1 X129.282 Y122.597 E15.39472
M204 S3500
G1 E14.89472 F2400
G92 E0
G1 X90.825 Y115.851 F18000
G1 E.5 F2400
M204 S1000
;TYPE:External perimeter
G1 F1800
G1 X90.837 Y115.837 E.50086
G1 X91.193 Y115.544 E.52225
G1 X91.6 Y115.327 E.54365
G1 X92.041 Y115.193 E.56503
G1 X92.483 Y115.15 E.58563
G1 X92.957 Y115.193 E.60771
G1 X93.4 Y115.327 E.62918
G1 X93.807 Y115.544 E.65058
G1 X94.163 Y115.837 E.67197
G1 X94.456 Y116.193 E.69336
G1 X94.673 Y116.6 E.71476
G1 X94.807 Y117.041 E.73614
G1 X94.852 Y117.5 E.75754
G1 X94.807 Y117.959 E.77894
G1 X94.673 Y118.4 E.80032
G1 X94.456 Y118.807 E.82172
G1 X94.163 Y119.163 E.84311
G1 X93.807 Y119.456 E.8645
G1 X93.4 Y119.673 E.8859
G1 X92.959 Y119.807 E.90728
G1 X92.5 Y119.852 E.92868
G1 X92.041 Y119.807 E.95008
G1 X91.6 Y119.673 E.97146
G1 X91.193 Y119.456 E.99286
G1 X90.837 Y119.163 E1.01425
G1 X90.544 Y118.807 E1.03564
G1 X90.327 Y118.4 E1.05704
G1 X90.193 Y117.959 E1.07842
G1 X90.148 Y117.5 E1.09982
G1 X90.193 Y117.041 E1.12122
G1 X90.327 Y116.6 E1.1426
G1 X90.544 Y116.193 E1.164
G1 X90.787 Y115.898 E1.18173
M204 S3500
G1 X90.818 Y115.834 F18000
G1 X90.497 Y115.547
M204 S1000
;TYPE:Perimeter
G1 F1800
G1 X90.52 Y115.52 E1.18338
G1 X90.944 Y115.171 E1.20886
G1 X91.428 Y114.913 E1.23431
G1 X91.954 Y114.753 E1.25982
G1 X92.481 Y114.701 E1.28439
G1 X93.043 Y114.752 E1.31057
G1 X93.572 Y114.913 E1.33622
G1 X94.056 Y115.171 E1.36167
G1 X94.48 Y115.52 E1.38715
G1 X94.829 Y115.944 E1.41263
G1 X95.087 Y116.428 E1.43808
G1 X95.247 Y116.954 E1.46359
G1 X95.301 Y117.5 E1.48904
G1 X95.247 Y118.046 E1.51449
G1 X95.087 Y118.572 E1.54
