; generated by PrusaSlicer 2.6.1+win64 on 2023-10-13 at 23:56:13 UTC

; 

; external perimeters extrusion width = 0.40mm
; perimeters extrusion width = 0.40mm
; infill extrusion width = 0.64mm
; solid infill extrusion width = 0.56mm
; top infill extrusion width = 0.40mm
; first layer extrusion width = 0.50mm

; external perimeters extrusion width = 0.40mm
; perimeters extrusion width = 0.40mm
; infill extrusion width = 0.64mm
; solid infill extrusion width = 0.56mm
; top infill extrusion width = 0.40mm
; first layer extrusion width = 0.50mm

;TYPE:Custom
M104 S0 ; Stops PS/SS from sending temp waits separately


; Pre-Processed for Cancel-Object support by preprocess_cancellation v0.2.0
; 2 known objects
EXCLUDE_OBJECT_DEFINE NAME=MAK_Sovol_SV06_Plus_Low_Friction_Sensor_Mod_Case_stl_id_0_copy_0 CENTER=95.037,117.210 POLYGON=[[82.7,101.5],[82.7,133.3],[109.3,133.3],[109.3,101.5]]
EXCLUDE_OBJECT_DEFINE NAME=MAK_Sovol_SV06_Plus_Low_Friction_Sensor_Mod_Cover_stl_id_1_copy_0 CENTER=128.178,117.536 POLYGON=[[115.7,101.7],[115.7,133.3],[142.3,133.3],[142.3,101.7]]
M140 S0
M117
PRINT_START BED=60 HOTEND=215
PURGE_LINE

;; If you are passing variables to PRINT_START, comment out above line and uncomment the last 3 lines instead. (I already did this)
;; Guide: https://github.com/AndrewEllis93/Print-Tuning-Guide/blob/main/articles/passing_slicer_variables.md
;; Make sure the variable names match (for example if you use "EXTRUDER" instead of "HOTEND")
G21 ; set units to millimeters
G90 ; use absolute coordinates
M82 ; use absolute distances for extrusion
G92 E0
; Filament gcode
M107
;LAYER_CHANGE
;Z:0.25
;HEIGHT:0.25
G1 Z.25 F18000
; printing object MAK Sovol SV06 Plus Low Friction Sensor Mod - Case.stl id:0 copy 0
EXCLUDE_OBJECT_START NAME=MAK_Sovol_SV06_Plus_Low_Friction_Sensor_Mod_Case_stl_id_0_copy_0
G1 E-.5 F2400
G92 E0
M204 S3500
G1 X108.928 Y132.841 F18000
G1 E.5 F2400
M204 S1000
;TYPE:External perimeter
;WIDTH:0.5
G1 F1800
G1 X108.841 Y132.928 E.50571
G1 X108.737 Y132.993 E.5114
G1 X108.622 Y133.033 E.51705
G1 X108.475 Y133.05 E.52392
G1 X88.51 Y133.05 E1.45015
G1 X87.988 Y133.026 E1.47439
G1 X87.48 Y132.955 E1.49819
G1 X86.981 Y132.838 E1.52197
G1 X86.495 Y132.675 E1.54575
G1 X86.026 Y132.468 E1.56953
G1 X85.579 Y132.218 E1.59329
G1 X85.156 Y131.929 E1.61706
G1 X84.761 Y131.601 E1.64088
G1 X84.399 Y131.239 E1.66463
G1 X84.071 Y130.844 E1.68845
G1 X83.782 Y130.421 E1.71222
G1 X83.532 Y129.974 E1.73598
G1 X83.325 Y129.505 E1.75976
G1 X83.161 Y129.013 E1.78382
G1 X83.045 Y128.52 E1.80732
G1 X82.974 Y128.012 E1.83112
G1 X82.95 Y127.49 E1.85536
G1 X82.95 Y107.51 E2.78229
G1 X82.974 Y106.988 E2.80653
G1 X83.046 Y106.474 E2.83061
G1 X83.162 Y105.981 E2.85411
G1 X83.325 Y105.496 E2.87785
G1 X83.535 Y105.021 E2.90194
G1 X83.782 Y104.579 E2.92543
G1 X84.071 Y104.156 E2.9492
G1 X84.399 Y103.761 E2.97302
G1 X84.761 Y103.399 E2.99677
G1 X85.155 Y103.072 E3.02052
G1 X85.584 Y102.779 E3.04462
G1 X86.026 Y102.532 E3.06811
G1 X86.495 Y102.325 E3.09189
G1 X86.981 Y102.162 E3.11567
G1 X87.48 Y102.045 E3.13945
G1 X87.988 Y101.974 E3.16325
G1 X88.51 Y101.95 E3.18749
G1 X108.479 Y101.95 E4.1139
G1 X108.622 Y101.967 E4.12058
G1 X108.737 Y102.007 E4.12623
G1 X108.841 Y102.072 E4.13192
G1 X108.927 Y102.158 E4.13756
G1 X108.995 Y102.268 E4.14356
G1 X109.033 Y102.378 E4.14896
G1 X109.05 Y102.525 E4.15583
G1 X109.05 Y132.475 E5.54529
G1 X109.033 Y132.622 E5.55216
G1 X108.993 Y132.737 E5.55781
G1 X108.96 Y132.79 E5.56071
M204 S3500
G1 X108.807 Y132.823 F18000
G1 X108.588 Y132.588
M204 S1000
;TYPE:Perimeter
G1 F1800
G1 X108.45 Y132.604 E5.56716
G1 X88.521 Y132.604 E6.49172
G1 X88.029 Y132.581 E6.51457
G1 X87.562 Y132.516 E6.53644
G1 X87.104 Y132.408 E6.55827
G1 X86.657 Y132.258 E6.58014
G1 X86.226 Y132.068 E6.60199
G1 X85.814 Y131.838 E6.62388
G1 X85.425 Y131.572 E6.64574
G1 X85.062 Y131.271 E6.66762
G1 X84.729 Y130.938 E6.68947
G1 X84.428 Y130.575 E6.71135
G1 X84.162 Y130.186 E6.73321
G1 X83.932 Y129.774 E6.7551
G1 X83.742 Y129.344 E6.77691
G1 X83.591 Y128.891 E6.79906
G1 X83.484 Y128.438 E6.82065
G1 X83.419 Y127.971 E6.84252
G1 X83.396 Y127.479 E6.86537
G1 X83.396 Y107.521 E7.79127
G1 X83.419 Y107.03 E7.81407
G1 X83.486 Y106.556 E7.83628
G1 X83.592 Y106.104 E7.85782
G1 X83.742 Y105.657 E7.87969
G1 X83.935 Y105.22 E7.90185
G1 X84.162 Y104.814 E7.92343
G1 X84.428 Y104.425 E7.94529
G1 X84.729 Y104.062 E7.96717
G1 X85.062 Y103.729 E7.98902
G1 X85.425 Y103.428 E8.0109
G1 X85.819 Y103.159 E8.03303
G1 X86.226 Y102.932 E8.05465
G1 X86.657 Y102.742 E8.0765
G1 X87.104 Y102.592 E8.09837
G1 X87.562 Y102.484 E8.1202
G1 X88.029 Y102.419 E8.14207
G1 X88.521 Y102.396 E8.16492
G1 X108.454 Y102.397 E9.08966
G1 X108.588 Y102.412 E9.09592
G1 X108.604 Y102.55 E9.10237
G1 X108.604 Y132.45 E10.48951
G1 X108.595 Y132.528 E10.49315
M204 S3500
G1 X108.157 Y132.157 F18000
M204 S1000
G1 F1800
G1 X88.531 Y132.157 E11.40365
G1 X88.07 Y132.136 E11.42506
G1 X87.644 Y132.077 E11.44501
G1 X87.226 Y131.978 E11.46494
G1 X86.818 Y131.841 E11.48491
G1 X86.425 Y131.668 E11.50483
G1 X86.049 Y131.459 E11.52479
G1 X85.694 Y131.215 E11.54477
G1 X85.363 Y130.941 E11.5647
G1 X85.059 Y130.637 E11.58465
G1 X84.785 Y130.306 E11.60458
G1 X84.542 Y129.951 E11.62454
G1 X84.332 Y129.575 E11.64452
G1 X84.159 Y129.183 E11.6644
G1 X84.021 Y128.768 E11.68469
G1 X83.923 Y128.356 E11.70434
G1 X83.864 Y127.93 E11.72429
G1 X83.843 Y127.469 E11.7457
G1 X83.843 Y107.531 E12.67068
G1 X83.864 Y107.071 E12.69204
G1 X83.925 Y106.639 E12.71228
G1 X84.022 Y106.226 E12.73196
G1 X84.158 Y105.819 E12.75187
G1 X84.335 Y105.42 E12.77212
G1 X84.542 Y105.049 E12.79183
G1 X84.785 Y104.694 E12.81179
G1 X85.059 Y104.363 E12.83172
G1 X85.363 Y104.059 E12.85167
G1 X85.694 Y103.785 E12.8716
G1 X86.054 Y103.539 E12.89183
G1 X86.425 Y103.332 E12.91154
G1 X86.818 Y103.159 E12.93146
G1 X87.226 Y103.022 E12.95143
G1 X87.644 Y102.923 E12.97136
G1 X88.07 Y102.864 E12.99131
G1 X88.531 Y102.843 E13.01272
G1 X108.157 Y102.843 E13.92322
G1 X108.157 Y121.824 E14.8038
G1 X107.959 Y121.877 E14.81331
G1 X107.275 Y120.693 E14.87675
G1 X106.643 Y120.693 E14.90607
G1 X106.643 Y108.157 E15.48765
G1 X102.357 Y108.157 E15.68649
G1 X102.357 Y120.693 E16.26807
G1 X100.174 Y120.693 E16.36935
G1 X103.725 Y126.843 E16.69881
G1 X105.275 Y126.843 E16.77072
G1 X107.959 Y122.195 E17.01972
G1 X108.157 Y122.248 E17.02923
G1 X108.157 Y132.097 E17.48615
M204 S3500
G1 E16.98615 F2400
G92 E0
G1 X92.799 Y109.457 F18000
G1 E.5 F2400
M204 S1000
;TYPE:External perimeter
G1 F1800
G1 X92.507 Y109.23 E.51716
G1 X92.244 Y108.944 E.53519
G1 X92.032 Y108.619 E.55319
G1 X91.876 Y108.264 E.57118
G1 X91.781 Y107.887 E.58922
G1 X91.748 Y107.5 E.60724
G1 X91.781 Y107.113 E.62526
G1 X91.876 Y106.736 E.6433
G1 X92.032 Y106.381 E.66129
G1 X92.244 Y106.056 E.67929
G1 X92.507 Y105.77 E.69732
G1 X92.814 Y105.531 E.71537
G1 X93.155 Y105.347 E.73335
G1 X93.523 Y105.22 E.75141
G1 X93.906 Y105.156 E.76942
G1 X94.295 Y105.156 E.78747
G1 X94.683 Y105.222 E.80573
G1 X95.045 Y105.347 E.8235
G1 X95.386 Y105.531 E.84148
G1 X95.693 Y105.77 E.85953
G1 X95.956 Y106.056 E.87756
G1 X96.171 Y106.387 E.89587
G1 X96.324 Y106.736 E.91355
G1 X96.419 Y107.113 E.93159
G1 X96.452 Y107.5 E.94961
G1 X96.419 Y107.887 E.96763
G1 X96.324 Y108.264 E.98567
G1 X96.168 Y108.62 E1.0037
G1 X95.951 Y108.949 E1.02198
G1 X95.693 Y109.23 E1.03968
G1 X95.386 Y109.469 E1.05773
G1 X95.045 Y109.653 E1.07571
G1 X94.677 Y109.78 E1.09377
G1 X94.294 Y109.844 E1.11178
G1 X93.906 Y109.844 E1.12978
G1 X93.523 Y109.78 E1.14779
G1 X93.155 Y109.653 E1.16585
G1 X92.85 Y109.488 E1.18194
M204 S3500
G1 X92.469 Y109.624 F18000
G1 X92.596 Y109.858
M204 S1000
;TYPE:Perimeter
G1 F1800
G1 X92.569 Y109.844 E1.18335
G1 X92.204 Y109.56 E1.20481
G1 X91.891 Y109.219 E1.22628
G1 X91.638 Y108.832 E1.24773
G1 X91.452 Y108.409 E1.26917
G1 X91.339 Y107.961 E1.2906
G1 X91.301 Y107.5 E1.31206
G1 X91.339 Y107.039 E1.33352
G1 X91.452 Y106.591 E1.35495
G1 X91.638 Y106.168 E1.37639
G1 X91.891 Y105.781 E1.39784
G1 X92.204 Y105.44 E1.41931
G1 X92.569 Y105.156 E1.44077
G1 X92.975 Y104.936 E1.46219
G1 X93.413 Y104.786 E1.48367
G1 X93.869 Y104.71 E1.50512
G1 X94.332 Y104.71 E1.5266
G1 X94.794 Y104.788 E1.54834
G1 X95.225 Y104.936 E1.56948
G1 X95.631 Y105.156 E1.5909
G1 X95.996 Y105.44 E1.61236
G1 X96.31 Y105.782 E1.6339
G1 X96.565 Y106.174 E1.6556
G1 X96.748 Y106.591 E1.67673
G1 X96.861 Y107.039 E1.69816
G1 X96.899 Y107.5 E1.71962
G1 X96.861 Y107.961 E1.74108
G1 X96.748 Y108.409 E1.76251
G1 X96.561 Y108.834 E1.78405
G1 X96.304 Y109.225 E1.80576
G1 X95.996 Y109.56 E1.82687
G1 X95.631 Y109.844 E1.84833
G1 X95.224 Y110.064 E1.86979
G1 X94.787 Y110.214 E1.89122
G1 X94.331 Y110.29 E1.91267
G1 X93.869 Y110.29 E1.9341
G1 X93.413 Y110.214 E1.95555
G1 X92.975 Y110.064 E1.97703
G1 X92.648 Y109.887 E1.99428
M204 S3500
G1 X92.379 Y110.249 F18000
M204 S1000
G1 F1800
G1 X92.324 Y110.219 E1.99719
G1 X91.901 Y109.889 E2.02208
G1 X91.537 Y109.495 E2.04697
G1 X91.244 Y109.046 E2.07184
G1 X91.029 Y108.554 E2.09675
G1 X90.897 Y108.034 E2.12164
G1 X90.853 Y107.5 E2.1465
G1 X90.897 Y106.966 E2.17136
G1 X91.029 Y106.446 E2.19625
G1 X91.244 Y105.954 E2.22116
G1 X91.537 Y105.505 E2.24603
G1 X91.901 Y105.111 E2.27092
G1 X92.324 Y104.781 E2.29581
G1 X92.796 Y104.526 E2.3207
G1 X93.303 Y104.352 E2.34557
G1 X93.832 Y104.264 E2.37045
G1 X94.37 Y104.264 E2.39541
G1 X94.904 Y104.355 E2.42054
G1 X95.404 Y104.526 E2.44506
G1 X95.876 Y104.781 E2.46995
G1 X96.299 Y105.111 E2.49484
G1 X96.664 Y105.507 E2.51982
G1 X96.959 Y105.961 E2.54494
G1 X97.171 Y106.446 E2.5695
G1 X97.303 Y106.966 E2.59439
G1 X97.347 Y107.5 E2.61925
G1 X97.303 Y108.034 E2.64411
G1 X97.171 Y108.554 E2.669
G1 X96.955 Y109.047 E2.69397
G1 X96.657 Y109.5 E2.71913
G1 X96.299 Y109.889 E2.74366
G1 X95.876 Y110.219 E2.76855
G1 X95.404 Y110.474 E2.79344
G1 X94.897 Y110.648 E2.81831
G1 X94.368 Y110.736 E2.84319
G1 X93.832 Y110.736 E2.86806
G1 X93.303 Y110.648 E2.89294
G1 X92.796 Y110.474 E2.91781
G1 X92.432 Y110.277 E2.93701
M204 S3500
G1 E2.43701 F2400
G92 E0
G1 X91.22 Y116.224 F18000
G1 E.5 F2400
M204 S1000
;TYPE:External perimeter
G1 F1800
G1 X91.213 Y116.234 E.50057
G1 X90.968 Y116.466 E.51622
G1 X90.676 Y116.634 E.53185
G1 X90.352 Y116.731 E.54754
G1 X90.016 Y116.751 E.56316
G1 X89.683 Y116.692 E.57885
G1 X89.373 Y116.558 E.59452
G1 X89.103 Y116.357 E.61014
G1 X88.886 Y116.098 E.62582
G1 X88.735 Y115.797 E.64144
G1 X88.657 Y115.469 E.65708
G1 X88.657 Y115.131 E.67276
G1 X88.728 Y114.831 E.68706
G1 X88.883 Y114.505 E.70381
G1 X89.103 Y114.243 E.71968
G1 X89.373 Y114.042 E.7353
G1 X89.683 Y113.908 E.75097
G1 X89.987 Y113.854 E.76529
G1 X90.348 Y113.868 E.78205
G1 X90.676 Y113.966 E.79793
G1 X90.968 Y114.134 E.81356
G1 X91.213 Y114.366 E.82921
G1 X91.399 Y114.648 E.84488
G1 X91.514 Y114.965 E.86052
G1 X91.553 Y115.3 E.87617
G1 X91.514 Y115.635 E.89182
G1 X91.399 Y115.952 E.90746
G1 X91.253 Y116.174 E.91979
M204 S3500
G1 X91.226 Y116.235 F18000
G1 X91.527 Y116.551
M204 S1000
;TYPE:Perimeter
G1 F1800
G1 X91.236 Y116.826 E.93836
G1 X90.854 Y117.047 E.95883
G1 X90.43 Y117.174 E.97936
G1 X89.989 Y117.199 E.99985
G1 X89.554 Y117.123 E1.02034
G1 X89.149 Y116.948 E1.04081
G1 X88.794 Y116.684 E1.06133
G1 X88.511 Y116.345 E1.08182
G1 X88.312 Y115.951 E1.1023
G1 X88.21 Y115.521 E1.1228
G1 X88.21 Y115.079 E1.14331
G1 X88.304 Y114.682 E1.16224
G1 X88.504 Y114.262 E1.18382
G1 X88.794 Y113.916 E1.20476
G1 X89.149 Y113.652 E1.22528
G1 X89.554 Y113.477 E1.24575
G1 X89.956 Y113.407 E1.26468
G1 X90.421 Y113.424 E1.28627
G1 X90.854 Y113.553 E1.30723
G1 X91.236 Y113.774 E1.3277
G1 X91.557 Y114.077 E1.34818
G1 X91.8 Y114.446 E1.36868
G1 X91.951 Y114.861 E1.38917
G1 X92.002 Y115.3 E1.40967
G1 X91.951 Y115.739 E1.43017
G1 X91.8 Y116.154 E1.45066
G1 X91.568 Y116.507 E1.47026
M204 S3500
G1 X91.84 Y116.87 F18000
M204 S1000
G1 F1800
G1 X91.504 Y117.186 E1.49166
G1 X91.032 Y117.459 E1.51696
G1 X90.508 Y117.616 E1.54234
G1 X89.963 Y117.648 E1.56767
G1 X89.425 Y117.553 E1.59302
G1 X88.924 Y117.337 E1.61833
G1 X88.486 Y117.011 E1.64366
G1 X88.135 Y116.592 E1.66902
G1 X87.89 Y116.104 E1.69435
G1 X87.764 Y115.573 E1.71967
G1 X87.764 Y115.027 E1.745
G1 X87.881 Y114.534 E1.76851
G1 X88.126 Y114.019 E1.79497
G1 X88.486 Y113.589 E1.82099
G1 X88.924 Y113.263 E1.84632
G1 X89.425 Y113.047 E1.87163
G1 X89.925 Y112.959 E1.89518
G1 X90.494 Y112.98 E1.9216
G1 X91.032 Y113.141 E1.94765
G1 X91.504 Y113.414 E1.97295
G1 X91.902 Y113.788 E1.99829
G1 X92.202 Y114.244 E2.02361
G1 X92.388 Y114.758 E2.04897
G1 X92.452 Y115.3 E2.07429
G1 X92.388 Y115.842 E2.09961
G1 X92.202 Y116.356 E2.12497
G1 X91.902 Y116.812 E2.15029
G1 X91.884 Y116.829 E2.15144
M204 S3500
G1 E1.65144 F2400
G92 E0
G1 X93.14 Y125.355 F18000
G1 E.5 F2400
M204 S1000
;TYPE:External perimeter
G1 F1800
G1 X93.155 Y125.347 E.50079
G1 X93.523 Y125.22 E.51885
G1 X93.906 Y125.156 E.53686
G1 X94.295 Y125.156 E.55491
G1 X94.683 Y125.222 E.57317
G1 X95.045 Y125.347 E.59094
G1 X95.386 Y125.531 E.60892
G1 X95.693 Y125.77 E.62697
G1 X95.956 Y126.056 E.645
G1 X96.171 Y126.387 E.66331
G1 X96.324 Y126.736 E.68099
G1 X96.419 Y127.113 E.69903
G1 X96.452 Y127.5 E.71705
G1 X96.419 Y127.887 E.73507
G1 X96.324 Y128.264 E.75311
G1 X96.168 Y128.62 E.77114
G1 X95.951 Y128.949 E.78942
G1 X95.693 Y129.23 E.80712
G1 X95.386 Y129.469 E.82517
G1 X95.045 Y129.653 E.84315
G1 X94.677 Y129.78 E.86121
G1 X94.294 Y129.844 E.87922
G1 X93.906 Y129.844 E.89722
G1 X93.523 Y129.78 E.91523
G1 X93.155 Y129.653 E.93329
G1 X92.814 Y129.469 E.95127
G1 X92.507 Y129.23 E.96932
G1 X92.244 Y128.944 E.98735
G1 X92.032 Y128.619 E1.00535
G1 X91.876 Y128.264 E1.02334
G1 X91.781 Y127.887 E1.04138
G1 X91.748 Y127.5 E1.0594
G1 X91.781 Y127.113 E1.07742
G1 X91.876 Y126.736 E1.09546
G1 X92.032 Y126.381 E1.11345
G1 X92.244 Y126.056 E1.13145
G1 X92.507 Y125.77 E1.14948
G1 X92.814 Y125.531 E1.16753
G1 X93.087 Y125.384 E1.18191
M204 S3500
G1 X93.14 Y125.337 F18000
G1 X92.949 Y124.951
M204 S1000
;TYPE:Perimeter
G1 F1800
G1 X92.975 Y124.936 E1.1833
G1 X93.413 Y124.786 E1.20478
G1 X93.869 Y124.71 E1.22623
G1 X94.332 Y124.71 E1.24771
G1 X94.794 Y124.788 E1.26945
G1 X95.225 Y124.936 E1.29059
G1 X95.631 Y125.156 E1.31201
G1 X95.996 Y125.44 E1.33347
G1 X96.31 Y125.782 E1.35501
G1 X96.565 Y126.174 E1.37671
G1 X96.748 Y126.591 E1.39784
G1 X96.861 Y127.039 E1.41927
G1 X96.899 Y127.5 E1.44073
G1 X96.861 Y127.961 E1.46219
G1 X96.748 Y128.409 E1.48362
G1 X96.561 Y128.834 E1.50516
G1 X96.304 Y129.225 E1.52687
G1 X95.996 Y129.56 E1.54798
G1 X95.631 Y129.844 E1.56944
G1 X95.224 Y130.064 E1.5909
G1 X94.787 Y130.214 E1.61233
G1 X94.331 Y130.29 E1.63378
G1 X93.869 Y130.29 E1.65521
G1 X93.413 Y130.214 E1.67666
G1 X92.975 Y130.064 E1.69814
G1 X92.569 Y129.844 E1.71956
G1 X92.204 Y129.56 E1.74102
G1 X91.891 Y129.219 E1.76249
G1 X91.638 Y128.832 E1.78394
G1 X91.452 Y128.409 E1.80538
G1 X91.339 Y127.961 E1.82681
G1 X91.301 Y127.5 E1.84827
G1 X91.339 Y127.039 E1.86973
G1 X91.452 Y126.591 E1.89116
G1 X91.638 Y126.168 E1.9126
G1 X91.891 Y125.781 E1.93405
G1 X92.204 Y125.44 E1.95552
G1 X92.569 Y125.156 E1.97698
G1 X92.896 Y124.979 E1.99423
M204 S3500
G1 X92.74 Y124.556 F18000
M204 S1000
G1 F1800
G1 X92.796 Y124.526 E1.99718
G1 X93.303 Y124.352 E2.02205
G1 X93.832 Y124.264 E2.04693
G1 X94.37 Y124.264 E2.07189
G1 X94.904 Y124.355 E2.09702
G1 X95.404 Y124.526 E2.12154
G1 X95.876 Y124.781 E2.14643
G1 X96.299 Y125.111 E2.17132
G1 X96.664 Y125.507 E2.1963
G1 X96.959 Y125.961 E2.22142
G1 X97.171 Y126.446 E2.24598
G1 X97.303 Y126.966 E2.27087
G1 X97.347 Y127.5 E2.29573
G1 X97.303 Y128.034 E2.32059
G1 X97.171 Y128.554 E2.34548
G1 X96.955 Y129.047 E2.37045
G1 X96.657 Y129.5 E2.39561
G1 X96.299 Y129.889 E2.42014
G1 X95.876 Y130.219 E2.44503
G1 X95.404 Y130.474 E2.46992
G1 X94.897 Y130.648 E2.49479
G1 X94.368 Y130.736 E2.51967
G1 X93.832 Y130.736 E2.54454
G1 X93.303 Y130.648 E2.56942
G1 X92.796 Y130.474 E2.59429
G1 X92.324 Y130.219 E2.61918
G1 X91.901 Y129.889 E2.64407
G1 X91.537 Y129.495 E2.66896
G1 X91.244 Y129.046 E2.69383
G1 X91.029 Y128.554 E2.71874
G1 X90.897 Y128.034 E2.74363
G1 X90.853 Y127.5 E2.76849
G1 X90.897 Y126.966 E2.79335
G1 X91.029 Y126.446 E2.81824
G1 X91.244 Y125.954 E2.84315
