; generated by PrusaSlicer 2.6.1+win64 on 2023-10-02 at 18:41:23 UTC


;
;

;
;
; 

; external perimeters extrusion width = 0.45mm
; perimeters extrusion width = 0.45mm
; infill extrusion width = 0.45mm
; solid infill extrusion width = 0.45mm
; top infill extrusion width = 0.40mm
; first layer extrusion width = 0.42mm

M73 P0 R33


; Pre-Processed for Cancel-Object support by preprocess_cancellation v0.2.0
; 1 known objects
EXCLUDE_OBJECT_DEFINE NAME=mocowanie_filament_id_0_copy_0 CENTER=114.594,108.735 POLYGON=[[73.881,87.897],[73.881,131.274],[146.952,131.274],[146.952,87.897]]
;TYPE:Custom
G90 ; Use absoulte coordinates
M83 ; Extruder relative mode

M117 Przygotowanie drukarki

G28 ; Home all axes

M117 Wygrzewanie

G1 Z5 F150 ; lower nozzle
G1 X0.1 Y10 Z5.0 F5000.0 ; Move to start position
G1 Z1.0 F150; Lower to ready

M104 S230 ; set extruder temp
M140 S85 ; set bed temp
M190 S85 ; wait for bed temp
M109 S230 ; wait for extruder temp

G4 S2 ; wait 2 seconds

M117 Linia Testowa

G1 Z0.3 F150 ; Move lower
G1 X0.1 Y150 Z0.3 F1500.0 E15 ; Draw the first line
G1 X0.4 Y150 Z0.3 F5000.0 ; Move to side a little
G1 X0.4 Y15 Z0.3 F1500.0 E30 ; Draw the second line


;G1 Z0.6 F150 ; Lift A BIT
G92 E0.0 ; Reset Extruder
M83 ; Extruder relative mode
;G1 Z1.0 F150 ; Move Z Axis up little to prevent scratching of Heat Bed
G4 S2 ; wait 02 seconds


G21 ; set units to millimeters
G90 ; use absolute coordinates
M83 ; use relative distances for extrusion
; Filament gcode
M107
;LAYER_CHANGE
;Z:0.2
;HEIGHT:0.2
;BEFORE_LAYER_CHANGE
;0.2
;   ; zmiana tem od warstwy

G1 E-1 F2400
G1 Z.2 F720
;AFTER_LAYER_CHANGE
;0.2
G1 Z.4
G1 X98.187 Y97.95 F10800
G1 Z.2 F720
G1 E1 F2400
M204 S800
;TYPE:Skirt/Brim
;WIDTH:0.42
G1 F1200
G1 X100.224 Y95.908 E.09043
G1 X100.829 Y95.37 E.02538
G1 X101.62 Y94.818 E.03024
G1 X102.476 Y94.373 E.03025
G1 X103.62 Y93.977 E.03796
G1 X141.434 Y85.391 E1.21581
G1 X142.605 Y85.307 E.03681
G1 X143.806 Y85.548 E.03841
G1 X144.969 Y86.17 E.04135
G1 X148.679 Y89.88 E.16451
G1 X149.301 Y91.044 E.04138
G1 X149.544 Y92.266 E.03907
G1 X149.415 Y93.579 E.04137
G1 X148.938 Y94.731 E.03909
G1 X148.274 Y95.594 E.03414
G1 X121.757 Y122.111 E1.17581
G1 X120.683 Y122.728 E.03884
M73 P1 R33
G1 X78.923 Y133.748 E1.35418
G1 X78.024 Y133.866 E.02843
G1 X77.201 Y133.862 E.0258
G1 X76.293 Y133.732 E.02876
G1 X75.413 Y133.472 E.02877
G1 X74.595 Y133.098 E.0282
G1 X73.807 Y132.59 E.0294
G1 X73.116 Y131.984 E.02882
G1 X72.45 Y131.186 E.03259
G1 X72.027 Y130.508 E.02506
G1 X71.611 Y129.536 E.03315
G1 X71.308 Y128.13 E.0451
G1 X71.283 Y127.22 E.02854
G1 X71.443 Y126.046 E.03715
G1 X71.731 Y125.136 E.02993
G1 X72.13 Y124.314 E.02865
G1 X72.648 Y123.551 E.02892
G1 X98.145 Y97.993 E1.13193
M204 S1000
; printing object mocowanie filament id:0 copy 0
EXCLUDE_OBJECT_START NAME=mocowanie_filament_id_0_copy_0
G1 E-1 F2400
G1 Z.4 F720
G1 X119.921 Y109.628 F10800
G1 Z.2 F720
G1 E1 F2400
M204 S800
;TYPE:Perimeter
;WIDTH:0.419999
G1 F1200
G1 X119.996 Y109.699 E.00324
G1 X120.267 Y109.781 E.00888
G1 X120.545 Y109.72 E.00892
G1 X120.69 Y109.616 E.00559
G1 X141.465 Y88.84 E.92122
G1 X141.887 Y88.554 E.01598
G1 X142.35 Y88.462 E.0148
G1 X142.813 Y88.554 E.0148
G1 X143.235 Y88.84 E.01598
G1 X143.838 Y89.443 E.02674
G1 X144.272 Y89.845 E.01855
;WIDTH:0.373844
G1 X144.64 Y90.194 E.01396
G1 X144.989 Y90.562 E.01396
;WIDTH:0.419999
G1 X145.391 Y90.996 E.01855
G1 X145.992 Y91.597 E.02665
G1 X146.268 Y91.986 E.01495
G1 X146.37 Y92.322 E.01101
G1 X146.388 Y92.499 E.00558
G1 X146.296 Y92.962 E.0148
G1 X146.009 Y93.384 E.016
G1 X119.75 Y119.643 E1.16437
G1 X117.574 Y119.643 E.06823
G1 X107.873 Y109.943 E.43014
G1 X107.306 Y109.453 E.0235
G1 X106.674 Y109.036 E.02374
G1 X105.993 Y108.706 E.02373
G1 X105.275 Y108.467 E.02373
G1 X104.531 Y108.324 E.02375
G1 X103.776 Y108.28 E.02371
G1 X103.021 Y108.334 E.02373
G1 X102.279 Y108.486 E.02375
G1 X101.564 Y108.734 E.02373
G1 X100.888 Y109.073 E.02371
G1 X100.261 Y109.498 E.02375
G1 X99.726 Y109.969 E.02235
G1 X94.91 Y114.785 E.21355
;WIDTH:0.464084
G1 X94.779 Y114.885 E.00577
;WIDTH:0.508169
G1 X94.648 Y114.985 E.00638
;WIDTH:0.552254
G1 X94.517 Y115.084 E.00695
;WIDTH:0.596339
G1 X94.386 Y115.184 E.00758
G1 X94.031 Y115.557 E.0237
;WIDTH:0.595634
G1 X93.627 Y115.943 E.02568
G1 X93.525 Y116.077 E.00774
;WIDTH:0.551726
G1 X93.423 Y116.21 E.00709
;WIDTH:0.507817
G1 X93.32 Y116.343 E.0065
;WIDTH:0.463908
G1 X93.218 Y116.476 E.00587
;WIDTH:0.419999
G1 X80.767 Y128.927 E.5521
;WIDTH:0.464084
G1 X80.636 Y129.027 E.00577
;WIDTH:0.508169
G1 X80.505 Y129.127 E.00638
;WIDTH:0.552254
G1 X80.374 Y129.227 E.00698
;WIDTH:0.596339
G1 X80.243 Y129.326 E.00756
G1 X79.808 Y129.77 E.0286
;WIDTH:0.569009
G1 X79.326 Y130.146 E.02674
;WIDTH:0.567914
G1 X78.802 Y130.415 E.02571
;WIDTH:0.573447
G1 X78.334 Y130.558 E.02159
G1 X77.855 Y130.629 E.02136
;WIDTH:0.569865
G1 X77.192 Y130.597 E.02908
;WIDTH:0.565621
G1 X76.671 Y130.476 E.02325
;WIDTH:0.571646
G1 X76.165 Y130.26 E.02419
;WIDTH:0.572837
G1 X75.757 Y129.998 E.02137
G1 X75.353 Y129.629 E.02411
;WIDTH:0.566535
G1 X75.005 Y129.177 E.02484
;WIDTH:0.567888
G1 X74.736 Y128.653 E.02571
;WIDTH:0.573413
G1 X74.593 Y128.185 E.02159
G1 X74.522 Y127.706 E.02136
;WIDTH:0.569821
G1 X74.554 Y127.043 E.02908
;WIDTH:0.56578
G1 X74.667 Y126.551 E.02195
;WIDTH:0.572042
G1 X74.891 Y126.016 E.02552
;WIDTH:0.572768
G1 X75.13 Y125.639 E.01967
G1 X75.459 Y125.253 E.02235
;WIDTH:0.59634
G1 X75.824 Y124.907 E.02314
G1 X75.924 Y124.776 E.00758
;WIDTH:0.552255
G1 X76.024 Y124.645 E.00698
;WIDTH:0.50817
G1 X76.124 Y124.514 E.00638
;WIDTH:0.464085
G1 X76.224 Y124.383 E.00577
;WIDTH:0.419999
G1 X88.674 Y111.933 E.55205
;WIDTH:0.464084
G1 X88.805 Y111.833 E.00577
;WIDTH:0.508169
G1 X88.936 Y111.733 E.00638
;WIDTH:0.552254
G1 X89.067 Y111.633 E.00698
;WIDTH:0.59634
G1 X89.198 Y111.533 E.00758
G1 X89.573 Y111.139 E.02503
G1 X89.967 Y110.765 E.025
G1 X90.066 Y110.634 E.00756
;WIDTH:0.552255
G1 X90.166 Y110.503 E.00698
;WIDTH:0.50817
G1 X90.266 Y110.372 E.00638
;WIDTH:0.464085
G1 X90.366 Y110.241 E.00577
;WIDTH:0.419999
G1 X102.443 Y98.164 E.53551
G1 X102.877 Y97.783 E.01811
G1 X103.335 Y97.477 E.01727
G1 X103.829 Y97.234 E.01726
G1 X104.351 Y97.057 E.01728
G1 X104.891 Y96.949 E.01727
G1 X105.441 Y96.913 E.01728
G1 X105.99 Y96.949 E.01725
G1 X106.531 Y97.057 E.0173
G1 X107.052 Y97.234 E.01725
G1 X107.546 Y97.477 E.01726
G1 X108.004 Y97.783 E.01727
G1 X108.438 Y98.164 E.01811
G1 X119.878 Y109.587 E.50689
M204 S1000
G1 X120.156 Y109.349 F10800
M204 S800
;TYPE:External perimeter
G1 F1200
G1 X120.282 Y109.404 E.00431
G1 X120.423 Y109.349 E.00475
G1 X140.994 Y88.778 E.91215
G1 X141.468 Y88.35 E.02002
G1 X141.835 Y88.176 E.01273
G1 X142.35 Y88.083 E.01641
G1 X142.752 Y88.141 E.01273
G1 X143.152 Y88.307 E.01358
G1 X143.489 Y88.561 E.01323
G1 X146.092 Y91.164 E.11542
G1 X146.441 Y91.546 E.01622
G1 X146.646 Y91.891 E.01258
G1 X146.746 Y92.285 E.01275
G1 X146.736 Y92.809 E.01643
G1 X146.544 Y93.297 E.01644
G1 X146.289 Y93.638 E.01335
G1 X119.906 Y120.02 E1.16984
G1 X117.418 Y120.02 E.07801
G1 X107.633 Y110.235 E.43388
G1 X107.096 Y109.766 E.02235
M73 P2 R33
G1 X106.507 Y109.374 E.02218
G1 X105.872 Y109.063 E.02217
G1 X105.201 Y108.837 E.0222
G1 X104.507 Y108.7 E.02218
G1 X103.8 Y108.656 E.02221
G1 X103.094 Y108.704 E.02219
G1 X102.401 Y108.843 E.02216
G1 X101.731 Y109.072 E.0222
G1 X101.097 Y109.387 E.0222
G1 X100.51 Y109.781 E.02217
G1 X99.992 Y110.235 E.0216
G1 X80.197 Y130.031 E.87776
G1 X79.801 Y130.374 E.01643
G1 X79.37 Y130.651 E.01606
G1 X78.904 Y130.864 E.01607
G1 X78.413 Y131.008 E.01604
G1 X77.906 Y131.081 E.01606
G1 X77.394 Y131.081 E.01605
G1 X76.887 Y131.008 E.01606
G1 X76.396 Y130.864 E.01604
G1 X75.93 Y130.651 E.01607
G1 X75.499 Y130.374 E.01606
G1 X75.112 Y130.039 E.01605
G1 X74.777 Y129.652 E.01605
G1 X74.5 Y129.221 E.01606
G1 X74.287 Y128.755 E.01607
G1 X74.143 Y128.264 E.01604
G1 X74.07 Y127.757 E.01606
G1 X74.07 Y127.245 E.01605
G1 X74.143 Y126.738 E.01606
G1 X74.287 Y126.247 E.01604
G1 X74.5 Y125.781 E.01607
G1 X74.777 Y125.35 E.01606
G1 X75.122 Y124.952 E.01651
G1 X102.185 Y97.888 E1.20004
G1 X102.647 Y97.484 E.01924
G1 X103.146 Y97.15 E.01883
G1 X103.684 Y96.885 E.0188
G1 X104.253 Y96.692 E.01884
G1 X104.842 Y96.575 E.01883
G1 X105.441 Y96.535 E.01882
G1 X106.04 Y96.575 E.01882
G1 X106.628 Y96.692 E.0188
G1 X107.197 Y96.885 E.01884
G1 X107.735 Y97.15 E.0188
G1 X108.234 Y97.484 E.01883
G1 X108.696 Y97.888 E.01924
G1 X120.114 Y109.307 E.50631
M204 S1000
G1 X120.155 Y109.486 F10800
G1 E-1 F2400
G1 Z.4 F720
G1 X142.969 Y89.68 F10800
G1 Z.2 F720
G1 E1 F2400
M204 S800
;TYPE:Perimeter
G1 F1200
G1 X143.032 Y89.681 E.00198
G1 X143.571 Y89.819 E.01745
G1 X144.026 Y90.07 E.01629
;WIDTH:0.376967
G1 X144.424 Y90.409 E.01452
;WIDTH:0.39249
G1 X144.816 Y90.881 E.01783
;WIDTH:0.419999
G1 X145.057 Y91.382 E.01743
G1 X145.167 Y91.928 E.01746
G1 X145.154 Y92.481 E.01734
G1 X145.015 Y93.024 E.01757
G1 X144.782 Y93.491 E.01636
G1 X144.45 Y93.903 E.01659
G1 X143.959 Y94.281 E.01943
G1 X143.451 Y94.51 E.01747
G1 X142.906 Y94.62 E.01743
G1 X142.349 Y94.605 E.01747
G1 X141.81 Y94.468 E.01744
G1 X141.315 Y94.214 E.01744
G1 X140.889 Y93.856 E.01745
G1 X140.553 Y93.412 E.01746
G1 X140.324 Y92.904 E.01747
G1 X140.214 Y92.359 E.01743
G1 X140.228 Y91.802 E.01747
G1 X140.366 Y91.263 E.01745
G1 X140.62 Y90.768 E.01744
G1 X140.978 Y90.341 E.01747
G1 X141.422 Y90.005 E.01746
G1 X141.93 Y89.777 E.01746
G1 X142.433 Y89.668 E.01614
G1 X142.909 Y89.678 E.01493
M204 S1000
G1 X142.843 Y90.047 F10800
M204 S800
;TYPE:External perimeter
G1 F1200
G1 X142.948 Y90.049 E.00329
G1 X143.407 Y90.158 E.01479
G1 X143.831 Y90.368 E.01484
G1 X144.198 Y90.666 E.01482
G1 X144.489 Y91.038 E.01481
G1 X144.689 Y91.466 E.01481
G1 X144.79 Y91.939 E.01516
G1 X144.761 Y92.506 E.0178
G1 X144.675 Y92.86 E.01142
G1 X144.466 Y93.284 E.01482
G1 X144.168 Y93.65 E.0148
G1 X143.795 Y93.941 E.01483
G1 X143.368 Y94.142 E.0148
G1 X142.906 Y94.243 E.01483
G1 X142.433 Y94.238 E.01483
G1 X141.974 Y94.128 E.0148
G1 X141.55 Y93.919 E.01482
G1 X141.183 Y93.62 E.01484
G1 X140.892 Y93.248 E.01481
G1 X140.692 Y92.82 E.01481
G1 X140.591 Y92.359 E.0148
G1 X140.596 Y91.886 E.01483
G1 X140.706 Y91.426 E.01483
G1 X140.915 Y91.003 E.01479
G1 X141.213 Y90.636 E.01482
G1 X141.586 Y90.345 E.01483
G1 X142.035 Y90.14 E.01548
G1 X142.591 Y90.044 E.01769
G1 X142.783 Y90.046 E.00602
M204 S1000
G1 X142.893 Y89.955 F10800
G1 E-1 F2400
G1 Z.4 F720
G1 X120.457 Y116.526 F10800
G1 Z.2 F720
G1 E1 F2400
M204 S800
;TYPE:Perimeter
G1 F1200
G1 X120.017 Y116.438 E.01407
G1 X119.51 Y116.209 E.01744
G1 X119.066 Y115.873 E.01746
G1 X118.708 Y115.447 E.01745
G1 X118.453 Y114.952 E.01746
G1 X118.316 Y114.412 E.01747
G1 X118.302 Y113.856 E.01744
G1 X118.412 Y113.31 E.01746
G1 X118.64 Y112.803 E.01743
G1 X118.976 Y112.359 E.01746
G1 X119.402 Y112.001 E.01745
G1 X119.897 Y111.747 E.01744
G1 X120.437 Y111.609 E.01748
G1 X120.993 Y111.595 E.01744
G1 X121.539 Y111.705 E.01746
G1 X122.046 Y111.934 E.01744
G1 X122.49 Y112.269 E.01744
G1 X122.848 Y112.696 E.01747
G1 X123.103 Y113.191 E.01746
G1 X123.24 Y113.73 E.01744
G1 X123.254 Y114.287 E.01747
G1 X123.144 Y114.832 E.01743
G1 X122.916 Y115.34 E.01746
G1 X122.58 Y115.784 E.01746
G1 X122.154 Y116.142 E.01745
G1 X121.658 Y116.396 E.01747
G1 X121.119 Y116.533 E.01744
G1 X120.516 Y116.538 E.01891
M204 S1000
G1 X120.69 Y116.168 F10800
M204 S800
;TYPE:External perimeter
G1 F1200
G1 X120.521 Y116.166 E.0053
G1 X119.948 Y116.002 E.01869
G1 X119.637 Y115.847 E.0109
G1 X119.271 Y115.549 E.0148
G1 X118.98 Y115.176 E.01483
G1 X118.779 Y114.748 E.01483
G1 X118.679 Y114.287 E.01479
G1 X118.683 Y113.814 E.01483
G1 X118.779 Y113.394 E.01351
G1 X119.002 Y112.931 E.01611
G1 X119.301 Y112.564 E.01484
G1 X119.673 Y112.273 E.01481
G1 X120.101 Y112.073 E.01481
G1 X120.563 Y111.972 E.01483
G1 X121.035 Y111.977 E.0148
G1 X121.495 Y112.086 E.01482
G1 X121.919 Y112.296 E.01484
G1 X122.285 Y112.594 E.0148
G1 X122.576 Y112.966 E.01481
G1 X122.777 Y113.394 E.01483
G1 X122.877 Y113.856 E.01482
G1 X122.873 Y114.329 E.01483
G1 X122.763 Y114.788 E.0148
G1 X122.553 Y115.212 E.01484
G1 X122.255 Y115.578 E.0148
G1 X121.883 Y115.869 E.01481
G1 X121.455 Y116.07 E.01483
G1 X120.993 Y116.171 E.01483
G1 X120.75 Y116.168 E.00762
M204 S1000
G1 X120.61 Y116.317 F10800
G1 E-1 F2400
G1 Z.4 F720
G1 X89.982 Y111.479 F10800
G1 Z.2 F720
G1 E1 F2400
M204 S800
;TYPE:Perimeter
;WIDTH:0.596338
G1 F1200
G1 X90.335 Y111.177 E.02138
G1 X90.475 Y111.13 E.0068
;WIDTH:0.552255
G1 X90.615 Y111.082 E.00627
;WIDTH:0.50817
G1 X90.755 Y111.035 E.00571
;WIDTH:0.464085
G1 X90.895 Y110.987 E.00518
;WIDTH:0.419999
G1 X91.417 Y110.853 E.0169
G1 X91.535 Y110.839 E.00373
G1 X92.139 Y110.847 E.01894
G1 X92.689 Y110.987 E.01779
G1 X93.194 Y111.246 E.01779
G1 X93.587 Y111.564 E.01585
G1 X93.905 Y111.957 E.01585
G1 X94.164 Y112.462 E.01779
G1 X94.304 Y113.012 E.01779
G1 X94.318 Y113.58 E.01781
G1 X94.206 Y114.136 E.01778
;WIDTH:0.456841
G1 X94.144 Y114.317 E.00658
;WIDTH:0.493682
G1 X94.083 Y114.497 E.00712
;WIDTH:0.530523
G1 X94.022 Y114.678 E.00774
;WIDTH:0.563431
G1 X93.998 Y114.747 E.00316
;WIDTH:0.596339
G1 X93.974 Y114.816 E.00336
G1 X93.612 Y115.227 E.0252
;WIDTH:0.595634
G1 X93.256 Y115.534 E.0216
G1 X93.114 Y115.583 E.0069
;WIDTH:0.551726
G1 X92.973 Y115.632 E.00632
;WIDTH:0.507817
G1 X92.831 Y115.681 E.00581
;WIDTH:0.463908
G1 X92.689 Y115.731 E.00527
;WIDTH:0.419999
G1 X92.139 Y115.871 E.01779
G1 X91.571 Y115.885 E.01781
G1 X91.015 Y115.772 E.01779
G1 X90.497 Y115.539 E.01781
G1 X90.044 Y115.196 E.01782
G1 X89.679 Y114.761 E.0178
G1 X89.42 Y114.256 E.01779
G1 X89.28 Y113.706 E.01779
G1 X89.266 Y113.138 E.01781
G1 X89.378 Y112.581 E.01781
;WIDTH:0.45684
G1 X89.44 Y112.401 E.00655
;WIDTH:0.49368
G1 X89.501 Y112.22 E.00716
;WIDTH:0.53052
G1 X89.562 Y112.04 E.00771
;WIDTH:0.563429
G1 X89.586 Y111.971 E.00316
;WIDTH:0.596338
G1 X89.61 Y111.902 E.00336
G1 X89.938 Y111.519 E.0232
M204 S1000
G1 X90.3 Y111.801 F10800
M204 S800
;TYPE:External perimeter
;WIDTH:0.419999
G1 F1200
G1 X90.661 Y111.518 E.01438
G1 X91.098 Y111.313 E.01513
G1 X91.54 Y111.216 E.01419
G1 X92.055 Y111.214 E.01615
G1 X92.525 Y111.327 E.01516
G1 X92.959 Y111.541 E.01517
G1 X93.334 Y111.846 E.01516
G1 X93.632 Y112.227 E.01517
G1 X93.838 Y112.665 E.01518
G1 X93.941 Y113.138 E.01518
G1 X93.936 Y113.622 E.01518
G1 X93.824 Y114.092 E.01515
G1 X93.61 Y114.526 E.01517
G1 X93.325 Y114.877 E.01418
G1 X92.924 Y115.199 E.01612
G1 X92.486 Y115.405 E.01518
G1 X92.013 Y115.508 E.01518
G1 X91.529 Y115.503 E.01518
G1 X91.059 Y115.391 E.01515
G1 X90.625 Y115.177 E.01517
G1 X90.25 Y114.871 E.01518
G1 X89.952 Y114.49 E.01517
G1 X89.746 Y114.052 E.01518
G1 X89.643 Y113.58 E.01515
G1 X89.648 Y113.096 E.01518
G1 X89.76 Y112.625 E.01518
G1 X89.974 Y112.192 E.01514
G1 X90.258 Y111.843 E.01411
M204 S1000
G1 X90.201 Y111.413 F10800
G1 E-1 F2400
G1 Z.4 F720
G1 X77.977 Y124.998 F10800
G1 Z.2 F720
G1 E1 F2400
M204 S800
;TYPE:Perimeter
G1 F1200
G1 X78.427 Y125.087 E.01438
G1 X78.945 Y125.321 E.01782
G1 X79.398 Y125.664 E.01782
G1 X79.763 Y126.099 E.0178
G1 X80.022 Y126.604 E.01779
G1 X80.162 Y127.154 E.01779
G1 X80.176 Y127.722 E.01781
G1 X80.063 Y128.278 E.01779
;WIDTH:0.461359
G1 X79.965 Y128.546 E.00993
;WIDTH:0.502719
G1 X79.867 Y128.814 E.01091
;WIDTH:0.549529
G1 X79.849 Y128.886 E.00313
;WIDTH:0.596339
G1 X79.831 Y128.958 E.00342
G1 X79.521 Y129.322 E.022
;WIDTH:0.570334
G1 X79.105 Y129.665 E.02365
;WIDTH:0.567914
G1 X78.579 Y129.939 E.02589
G1 X78.013 Y130.084 E.02551
;WIDTH:0.569866
G1 X77.445 Y130.102 E.0249
G1 X76.856 Y129.986 E.0263
;WIDTH:0.571646
G1 X76.389 Y129.782 E.0224
G1 X75.856 Y129.395 E.02896
;WIDTH:0.56654
G1 X75.48 Y128.949 E.0254
;WIDTH:0.567888
G1 X75.211 Y128.43 E.02552
G1 X75.067 Y127.864 E.02549
;WIDTH:0.569824
G1 X75.049 Y127.296 E.0249
G1 X75.158 Y126.736 E.025
;WIDTH:0.572042
G1 X75.371 Y126.237 E.02387
G1 X75.755 Y125.708 E.02876
;WIDTH:0.59634
G1 X76.193 Y125.319 E.02696
G1 X76.333 Y125.272 E.0068
;WIDTH:0.552255
G1 X76.473 Y125.224 E.00627
;WIDTH:0.50817
G1 X76.613 Y125.177 E.00571
;WIDTH:0.464085
G1 X76.753 Y125.129 E.00518
;WIDTH:0.419999
