; generated by PrusaSlicer 2.6.1+win64 on 2023-10-04 at 15:40:53 UTC


;
;
; 

; external perimeters extrusion width = 0.45mm
; perimeters extrusion width = 0.45mm
; infill extrusion width = 0.45mm
; solid infill extrusion width = 0.45mm
; top infill extrusion width = 0.40mm
; first layer extrusion width = 0.42mm

M73 P0 R37


; Pre-Processed for Cancel-Object support by preprocess_cancellation v0.2.0
; 1 known objects
EXCLUDE_OBJECT_DEFINE NAME=Simple_Indoor_Glider_V2_stl_id_0_copy_0 CENTER=110.581,140.493 POLYGON=[[6.395,34.949],[6.395,185.05],[213.605,185.05],[213.605,34.949]]
;TYPE:Custom
M104 S215 ; set extruder temp
M140 S60 ; set bed temp
M190 S60 ; wait for bed temp
M109 S215 ; wait for extruder temp
G28;
G1 Z4.0 F3000 ;Move Z Axis up
G92 E0 ;Reset Extruder
G1 X5.1 Y20 Z0.28 F5000.0 ;Move to start position
G1 X5.1 Y30.0 Z0.28 F1500.0 E1 ;Draw a short bit in case the extruder turns in the wrong direction
G1 X5.1 Y200.0 Z0.28 F1500.0 E15 ;Draw the first line
G1 X5.4 Y200.0 Z0.28 F5000.0 ;Move to side a little
G1 X5.4 Y20 Z0.28 F1500.0 E30 ;Draw the second line
G92 E0 ;Reset Extruder
G1 Z2.0 F3000 ;Move Z Axis up
G21 ; set units to millimeters
G90 ; use absolute coordinates
M83 ; use relative distances for extrusion
; Filament gcode
M107
;LAYER_CHANGE
;Z:0.2
;HEIGHT:0.2
;BEFORE_LAYER_CHANGE
G92 E0.0
;0.2


G1 E-.5 F2400
G1 Z.2 F720
;AFTER_LAYER_CHANGE
;0.2
G1 X39.28 Y33.645 F10800
G1 E.5 F2400
M204 S800
;TYPE:Skirt/Brim
;WIDTH:0.42
G1 F1200
G1 X40.222 Y32.658 E.04278
G1 X41.398 Y32.347 E.03814
G1 X178.602 Y32.347 E4.30194
G1 X179.909 Y32.738 E.04277
M73 P1 R36
G1 X180.72 Y33.645 E.03815
G1 X215.948 Y102.865 E2.43525
G1 X216.207 Y103.943 E.03476
G1 X216.207 Y125.574 E.67822
G1 X215.815 Y126.881 E.04278
G1 X215.024 Y127.629 E.03413
G1 X113.196 Y186.84 E3.69328
G1 X111.869 Y187.376 E.04487
G1 X110.285 Y187.636 E.05033
G1 X108.684 Y187.512 E.05035
G1 X108.131 Y187.376 E.01786
G1 X106.804 Y186.84 E.04487
G1 X4.976 Y127.629 E3.69328
G1 X4.043 Y126.634 E.04277
G1 X3.793 Y125.574 E.03415
G1 X3.793 Y103.943 E.67822
G1 X4.052 Y102.865 E.03476
G1 X39.253 Y33.699 E2.43335
M204 S1000
; printing object Simple Indoor Glider V2.stl id:0 copy 0
EXCLUDE_OBJECT_START NAME=Simple_Indoor_Glider_V2_stl_id_0_copy_0
;WIPE_START
G1 F8640
M73 P2 R36
G1 X40.222 Y32.658 E-.3753
G1 X40.679 Y32.537 E-.1247
;WIPE_END
G1 X158.207 Y39.815 F10800
G1 E.5 F2400
M204 S800
;TYPE:Perimeter
;WIDTH:0.419999
G1 F1200
G1 X158.415 Y39.749 E.00684
G1 X158.611 Y39.538 E.00903
G1 X158.678 Y39.271 E.00863
G1 X158.678 Y35.511 E.11789
G1 X169.477 Y35.511 E.33859
G1 X169.486 Y39.368 E.12093
G1 X169.581 Y39.598 E.0078
G1 X169.761 Y39.762 E.00764
G1 X170.043 Y39.837 E.00915
G1 X170.911 Y39.823 E.02722
G1 X171.173 Y39.687 E.00926
G1 X171.303 Y39.507 E.00696
G1 X171.354 Y39.271 E.00757
G1 X171.354 Y35.511 E.11789
G1 X177.814 Y35.511 E.20255
G1 X177.814 Y45.766 E.32154
G1 X118.834 Y58.873 E1.89439
G1 X117.24 Y59.304 E.05177
G1 X115.775 Y59.79 E.0484
G1 X114.448 Y60.343 E.04508
G1 X113.342 Y60.937 E.03936
G1 X112.359 Y61.648 E.03804
G1 X111.496 Y62.543 E.03898
G1 X110.912 Y63.46 E.03409
G1 X110.551 Y64.362 E.03046
G1 X110.511 Y64.572 E.0067
G1 X110.511 Y96.162 E.99048
G1 X110.747 Y97.721 E.04944
G1 X111.135 Y99.136 E.046
G1 X111.743 Y100.521 E.04743
G1 X112.523 Y101.686 E.04396
G1 X113.495 Y102.679 E.04357
G1 X114.636 Y103.501 E.04409
G1 X115.86 Y104.141 E.04331
G1 X117.314 Y104.694 E.04878
G1 X117.513 Y104.73 E.00634
G1 X213.042 Y104.73 E2.99524
G1 X213.042 Y124.887 E.63201
G1 X119.099 Y137.698 E2.97277
G1 X118.463 Y137.789 E.02014
G1 X116.823 Y138.232 E.05326
G1 X115.33 Y138.839 E.05053
G1 X114.085 Y139.573 E.04532
G1 X112.948 Y140.548 E.04696
G1 X112.025 Y141.732 E.04707
G1 X111.292 Y143.178 E.05083
G1 X110.815 Y144.675 E.04926
G1 X110.511 Y146.356 E.05356
G1 X110.511 Y152.622 E.19647
G1 X110.836 Y154.711 E.06629
G1 X111.115 Y155.748 E.03367
G1 X111.487 Y156.76 E.03381
G1 X111.916 Y157.659 E.03123
G1 X112.434 Y158.533 E.03186
G1 X113.661 Y160.116 E.0628
G1 X114.384 Y160.868 E.03271
G1 X114.936 Y161.661 E.03029
G1 X115.345 Y162.533 E.0302
G1 X115.602 Y163.461 E.03019
G1 X115.696 Y164.396 E.02946
G1 X113.516 Y181.354 E.53608
G1 X113.296 Y182.222 E.02808
M73 P3 R36
G1 X112.899 Y182.971 E.02658
G1 X112.334 Y183.603 E.02658
G1 X111.635 Y184.083 E.02659
G1 X110.842 Y184.382 E.02657
G1 X110 Y184.484 E.02659
G1 X109.158 Y184.382 E.02659
G1 X108.365 Y184.083 E.02657
G1 X107.666 Y183.603 E.02659
G1 X107.101 Y182.971 E.02658
G1 X106.704 Y182.222 E.02658
G1 X106.484 Y181.354 E.02808
G1 X104.304 Y164.396 E.53608
G1 X104.398 Y163.461 E.02946
G1 X104.655 Y162.533 E.03019
G1 X105.064 Y161.661 E.0302
G1 X105.616 Y160.868 E.03029
G1 X106.339 Y160.116 E.03271
G1 X107.566 Y158.533 E.0628
G1 X108.108 Y157.613 E.03348
G1 X108.533 Y156.712 E.03124
G1 X108.885 Y155.748 E.03218
G1 X109.164 Y154.711 E.03367
G1 X109.489 Y152.622 E.06629
G1 X109.489 Y146.356 E.19647
G1 X109.185 Y144.675 E.05356
G1 X108.708 Y143.178 E.04926
G1 X107.975 Y141.732 E.05083
G1 X107.052 Y140.548 E.04707
G1 X105.915 Y139.573 E.04696
G1 X104.67 Y138.839 E.04532
G1 X103.113 Y138.211 E.05264
G1 X101.468 Y137.775 E.05336
G1 X6.958 Y124.887 E2.99072
G1 X6.958 Y104.73 E.63201
G1 X102.487 Y104.73 E2.99524
G1 X102.686 Y104.694 E.00634
M73 P3 R35
G1 X104.14 Y104.141 E.04878
G1 X105.364 Y103.501 E.04331
G1 X106.505 Y102.679 E.04409
G1 X107.543 Y101.604 E.04685
G1 X108.303 Y100.436 E.04369
G1 X108.838 Y99.211 E.04191
G1 X109.253 Y97.721 E.0485
G1 X109.489 Y96.162 E.04944
G1 X109.489 Y64.572 E.99048
G1 X109.449 Y64.362 E.0067
G1 X109.037 Y63.361 E.03394
G1 X108.436 Y62.458 E.03401
G1 X107.714 Y61.712 E.03255
G1 X106.724 Y60.979 E.03862
G1 X105.501 Y60.318 E.04359
G1 X104.186 Y59.775 E.04461
G1 X102.73 Y59.294 E.04808
G1 X101.141 Y58.868 E.05158
G1 X42.186 Y45.766 E1.89359
G1 X42.186 Y35.511 E.32154
G1 X48.646 Y35.511 E.20255
G1 X48.654 Y39.369 E.12096
G1 X48.756 Y39.606 E.00809
G1 X48.995 Y39.794 E.00953
G1 X49.211 Y39.837 E.00691
G1 X50.059 Y39.828 E.02659
G1 X50.311 Y39.712 E.0087
G1 X50.456 Y39.538 E.0071
G1 X50.523 Y39.271 E.00863
G1 X50.523 Y35.511 E.11789
G1 X61.322 Y35.511 E.33859
G1 X61.322 Y39.271 E.11789
G1 X61.35 Y39.447 E.00559
G1 X61.469 Y39.652 E.00743
G1 X61.654 Y39.787 E.00718
G1 X61.887 Y39.837 E.00747
G1 X62.633 Y39.837 E.02339
G1 X62.913 Y39.763 E.00908
G1 X63.122 Y39.556 E.00922
G1 X63.199 Y39.271 E.00926
G1 X63.199 Y35.511 E.11789
G1 X78.929 Y35.511 E.4932
G1 X78.938 Y39.369 E.12097
M73 P4 R35
G1 X79.039 Y39.605 E.00805
G1 X79.259 Y39.785 E.00891
G1 X79.495 Y39.837 E.00758
G1 X80.3 Y39.834 E.02524
G1 X80.559 Y39.739 E.00865
G1 X80.75 Y39.518 E.00916
G1 X80.806 Y39.271 E.00794
G1 X80.806 Y35.511 E.11789
G1 X100.258 Y35.511 E.6099
G1 X100.265 Y39.36 E.12068
G1 X100.352 Y39.583 E.00751
G1 X100.567 Y39.776 E.00906
G1 X100.823 Y39.837 E.00825
G1 X101.661 Y39.829 E.02628
G1 X101.899 Y39.73 E.00808
G1 X102.082 Y39.51 E.00897
G1 X102.135 Y39.271 E.00768
G1 X102.135 Y35.511 E.11789
G1 X117.865 Y35.511 E.4932
G1 X117.874 Y39.369 E.12097
G1 X117.972 Y39.601 E.0079
G1 X118.167 Y39.772 E.00813
G1 X118.431 Y39.837 E.00852
G1 X119.265 Y39.83 E.02615
G1 X119.507 Y39.731 E.0082
G1 X119.673 Y39.543 E.00786
G1 X119.742 Y39.271 E.0088
G1 X119.742 Y35.511 E.11789
G1 X139.194 Y35.511 E.6099
G1 X139.203 Y39.373 E.12109
G1 X139.278 Y39.569 E.00658
G1 X139.486 Y39.766 E.00898
G1 X139.759 Y39.837 E.00884
G1 X140.626 Y39.824 E.02719
G1 X140.843 Y39.725 E.00748
G1 X141.017 Y39.511 E.00865
G1 X141.071 Y39.271 E.00771
G1 X141.071 Y35.511 E.11789
G1 X156.801 Y35.511 E.4932
G1 X156.801 Y39.271 E.11789
G1 X156.878 Y39.556 E.00926
G1 X157.087 Y39.763 E.00922
G1 X157.367 Y39.837 E.00908
G1 X158.15 Y39.833 E.02455
M204 S1000
G1 X158.113 Y39.46 F10800
M204 S800
;TYPE:External perimeter
G1 F1200
G1 X158.234 Y39.415 E.00405
G1 X158.301 Y39.271 E.00498
G1 X158.301 Y35.134 E.12971
G1 X169.854 Y35.134 E.36224
G1 X169.854 Y39.271 E.12971
G1 X169.905 Y39.4 E.00435
G1 X170.043 Y39.46 E.00472
G1 X170.789 Y39.46 E.02339
G1 X170.917 Y39.41 E.00431
G1 X170.977 Y39.271 E.00475
G1 X170.977 Y35.134 E.12971
G1 X178.192 Y35.134 E.22622
G1 X178.192 Y46.069 E.34286
G1 X118.932 Y59.238 E1.90338
G1 X117.358 Y59.662 E.05111
G1 X115.919 Y60.138 E.04752
G1 X114.626 Y60.675 E.0439
G1 X113.521 Y61.269 E.03934
G1 X112.581 Y61.953 E.03645
G1 X111.812 Y62.749 E.0347
G1 X111.262 Y63.6 E.03177
G1 X110.888 Y64.572 E.03265
G1 X110.888 Y96.162 E.99048
G1 X111.119 Y97.663 E.04762
G1 X111.498 Y99.035 E.04463
G1 X112.058 Y100.313 E.04375
G1 X112.794 Y101.424 E.04178
G1 X113.717 Y102.374 E.04153
G1 X114.811 Y103.167 E.04237
G1 X116.035 Y103.807 E.04331
G1 X117.513 Y104.353 E.0494
G1 X213.42 Y104.353 E3.00709
G1 X213.42 Y125.217 E.65417
G1 X118.56 Y138.153 E3.00179
G1 X116.963 Y138.582 E.05185
M73 P5 R35
G1 X115.522 Y139.164 E.04873
G1 X114.276 Y139.897 E.04533
G1 X113.195 Y140.833 E.04483
G1 X112.324 Y141.962 E.04471
G1 X111.651 Y143.293 E.04676
G1 X111.185 Y144.745 E.04781
G1 X110.888 Y146.356 E.05136
G1 X110.888 Y152.622 E.19647
G1 X111.209 Y154.652 E.06444
G1 X111.479 Y155.648 E.03236
G1 X111.828 Y156.599 E.03176
G1 X112.241 Y157.467 E.03014
G1 X112.758 Y158.341 E.03184
G1 X113.959 Y159.885 E.06133
G1 X114.676 Y160.628 E.03237
G1 X115.264 Y161.472 E.03225
G1 X115.7 Y162.402 E.0322
G1 X115.974 Y163.392 E.03221
G1 X116.076 Y164.401 E.0318
G1 X113.887 Y181.425 E.53817
G1 X113.651 Y182.359 E.03021
G1 X113.21 Y183.188 E.02944
G1 X112.585 Y183.888 E.02942
G1 X111.81 Y184.419 E.02946
G1 X110.932 Y184.751 E.02943
G1 X110 Y184.863 E.02943
G1 X109.068 Y184.751 E.02943
G1 X108.19 Y184.419 E.02943
G1 X107.415 Y183.888 E.02946
G1 X106.79 Y183.188 E.02942
G1 X106.349 Y182.359 E.02944
G1 X106.113 Y181.425 E.03021
G1 X103.924 Y164.401 E.53817
G1 X104.026 Y163.392 E.0318
G1 X104.3 Y162.402 E.03221
G1 X104.736 Y161.472 E.0322
G1 X105.324 Y160.628 E.03225
G1 X106.041 Y159.885 E.03237
G1 X107.242 Y158.341 E.06133
G1 X107.767 Y157.451 E.0324
G1 X108.179 Y156.582 E.03015
G1 X108.521 Y155.648 E.03119
G1 X108.791 Y154.652 E.03236
G1 X109.112 Y152.622 E.06444
G1 X109.112 Y146.356 E.19647
G1 X108.815 Y144.745 E.05136
G1 X108.349 Y143.293 E.04781
G1 X107.676 Y141.962 E.04676
G1 X106.805 Y140.833 E.04471
G1 X105.724 Y139.897 E.04483
G1 X104.479 Y139.164 E.0453
G1 X103.015 Y138.575 E.04948
G1 X101.417 Y138.149 E.05185
G1 X6.58 Y125.217 E3.00106
G1 X6.58 Y104.353 E.65417
G1 X102.487 Y104.353 E3.00709
G1 X103.965 Y103.807 E.0494
G1 X105.189 Y103.167 E.04331
G1 X106.308 Y102.353 E.04339
G1 X107.228 Y101.396 E.04162
G1 X107.957 Y100.285 E.04166
G1 X108.493 Y99.06 E.04192
G1 X108.881 Y97.663 E.04546
G1 X109.112 Y96.162 E.04762
G1 X109.112 Y64.572 E.99048
G1 X109.099 Y64.502 E.00223
G1 X108.721 Y63.567 E.03162
G1 X108.165 Y62.721 E.03174
G1 X107.443 Y61.974 E.03257
G1 X106.479 Y61.269 E.03745
G1 X105.357 Y60.667 E.03992
G1 X104.068 Y60.133 E.04375
G1 X102.632 Y59.659 E.04741
G1 X101.06 Y59.236 E.05104
G1 X41.808 Y46.069 E1.90312
G1 X41.808 Y35.134 E.34286
M73 P6 R35
G1 X49.023 Y35.134 E.22622
M73 P6 R34
G1 X49.023 Y39.271 E.12971
G1 X49.083 Y39.41 E.00475
G1 X49.211 Y39.46 E.00431
G1 X49.957 Y39.46 E.02339
G1 X50.075 Y39.418 E.00393
G1 X50.146 Y39.271 E.00512
G1 X50.146 Y35.134 E.12971
G1 X61.699 Y35.134 E.36224
G1 X61.699 Y39.271 E.12971
G1 X61.748 Y39.398 E.00427
G1 X61.887 Y39.46 E.00477
G1 X62.633 Y39.46 E.02339
G1 X62.761 Y39.41 E.00431
G1 X62.821 Y39.271 E.00475
G1 X62.821 Y35.134 E.12971
G1 X79.306 Y35.134 E.51687
G1 X79.306 Y39.271 E.12971
G1 X79.354 Y39.397 E.00423
G1 X79.495 Y39.46 E.00484
G1 X80.241 Y39.46 E.02339
G1 X80.36 Y39.417 E.00397
G1 X80.429 Y39.271 E.00506
G1 X80.429 Y35.134 E.12971
G1 X100.635 Y35.134 E.63354
G1 X100.635 Y39.271 E.12971
G1 X100.682 Y39.397 E.00422
G1 X100.823 Y39.46 E.00484
G1 X101.569 Y39.46 E.02339
G1 X101.693 Y39.413 E.00416
G1 X101.758 Y39.271 E.0049
G1 X101.758 Y35.134 E.12971
G1 X118.242 Y35.134 E.51684
G1 X118.242 Y39.271 E.12971
G1 X118.286 Y39.391 E.00401
G1 X118.431 Y39.46 E.00503
G1 X119.177 Y39.46 E.02339
G1 X119.298 Y39.416 E.00404
G1 X119.365 Y39.271 E.00501
G1 X119.365 Y35.134 E.12971
G1 X139.571 Y35.134 E.63354
G1 X139.571 Y39.271 E.12971
G1 X139.617 Y39.395 E.00415
G1 X139.759 Y39.46 E.0049
G1 X140.505 Y39.46 E.02339
G1 X140.633 Y39.41 E.00431
G1 X140.694 Y39.271 E.00476
G1 X140.694 Y35.134 E.12971
G1 X157.179 Y35.134 E.51687
G1 X157.179 Y39.271 E.12971
G1 X157.225 Y39.395 E.00415
G1 X157.367 Y39.46 E.0049
G1 X158.053 Y39.46 E.02151
M204 S1000
G1 X158.199 Y39.556 F10800
;WIPE_START
G1 F8640
G1 X158.234 Y39.415 E-.04922
G1 X158.301 Y39.271 E-.04191
G1 X158.301 Y37.722 E-.40887
;WIPE_END
G1 X156.632 Y36.267 F10800
G1 E.5 F2400
M204 S800
;TYPE:Solid infill
;WIDTH:0.420697
G1 F1200
G1 X156.215 Y35.85 E.01852
G1 X155.68 Y35.85 E.01681
G1 X156.462 Y36.632 E.03474
G1 X156.462 Y37.166 E.01677
G1 X155.146 Y35.85 E.05846
G1 X154.612 Y35.85 E.01677
G1 X156.462 Y37.7 E.08218
G1 X156.462 Y38.234 E.01677
G1 X154.078 Y35.85 E.10591
G1 X153.543 Y35.85 E.01681
G1 X156.632 Y38.938 E.1372
M204 S1000
;WIPE_START
G1 F8640
G1 X155.292 Y37.598 E-.5
;WIPE_END
G1 X168.867 Y35.68 F10800
G1 E.5 F2400
M204 S800
G1 F1200
G1 X169.138 Y35.951 E.01204
G1 X169.138 Y36.485 E.01677
G1 X168.503 Y35.85 E.02821
G1 X167.968 Y35.85 E.01681
G1 X169.138 Y37.02 E.05198
G1 X169.138 Y37.554 E.01677
G1 X167.434 Y35.85 E.0757
G1 X166.9 Y35.85 E.01677
G1 X169.138 Y38.088 E.09942
G1 X169.138 Y38.622 E.01677
G1 X166.196 Y35.68 E.13069
M204 S1000
;WIPE_START
G1 F8640
G1 X167.536 Y37.02 E-.5
;WIPE_END
G1 X176.881 Y35.68 F10800
G1 E.5 F2400
M204 S800
G1 F1200
G1 X177.475 Y36.274 E.02639
G1 X177.475 Y36.809 E.01681
G1 X176.516 Y35.85 E.0426
G1 X175.982 Y35.85 E.01677
G1 X177.475 Y37.343 E.06632
G1 X177.475 Y37.877 E.01677
G1 X175.448 Y35.85 E.09005
G1 X174.914 Y35.85 E.01677
G1 X177.475 Y38.411 E.11377
G1 X177.475 Y38.946 E.01681
G1 X174.379 Y35.85 E.13754
G1 X173.845 Y35.85 E.01677
G1 X177.475 Y39.48 E.16126
G1 X177.475 Y40.014 E.01677
G1 X173.311 Y35.85 E.18498
G1 X172.777 Y35.85 E.01677
G1 X177.475 Y40.548 E.2087
G1 X177.475 Y41.083 E.01681
G1 X172.242 Y35.85 E.23247
G1 X171.708 Y35.85 E.01677
G1 X177.475 Y41.617 E.25619
G1 X177.475 Y42.151 E.01677
G1 X171.692 Y36.368 E.2569
G1 X171.69 Y36.9 E.01671
G1 X177.475 Y42.686 E.25701
G1 X177.475 Y43.22 E.01677
G1 X171.688 Y37.433 E.25708
G1 X171.687 Y37.966 E.01674
G1 X177.475 Y43.754 E.25712
G1 X177.475 Y44.288 E.01677
G1 X171.685 Y38.498 E.25721
G1 X171.683 Y39.031 E.01674
G1 X177.475 Y44.823 E.2573
G1 X177.475 Y45.357 E.01677
G1 X171.649 Y39.531 E.25881
G1 X171.613 Y39.648 E.00385
G1 X171.459 Y39.875 E.00862
G1 X177.15 Y45.566 E.25282
G1 X176.713 Y45.663 E.01406
G1 X171.15 Y40.1 E.24713
G1 X170.839 Y40.176 E.01006
G1 X170.691 Y40.176 E.00465
G1 X176.276 Y45.76 E.24808
G1 X175.839 Y45.858 E.01407
G1 X170.157 Y40.176 E.25242
G1 X170.03 Y40.176 E.00399
G1 X169.735 Y40.123 E.00941
G1 X169.587 Y40.054 E.00513
G1 X169.38 Y39.89 E.0083
G1 X169.246 Y39.702 E.00725
G1 X169.18 Y39.548 E.00526
G1 X169.138 Y39.283 E.00843
G1 X169.138 Y39.157 E.00396
G1 X165.831 Y35.85 E.14691
G1 X165.297 Y35.85 E.01677
G1 X175.402 Y45.955 E.4489
G1 X174.965 Y46.052 E.01406
M73 P7 R34
G1 X164.763 Y35.85 E.45321
G1 X164.229 Y35.85 E.01677
G1 X174.528 Y46.149 E.45752
G1 X174.09 Y46.246 E.01409
G1 X163.694 Y35.85 E.46183
G1 X163.16 Y35.85 E.01677
G1 X173.653 Y46.343 E.46614
G1 X173.216 Y46.44 E.01406
G1 X162.626 Y35.85 E.47045
G1 X162.092 Y35.85 E.01677
G1 X172.779 Y46.538 E.47478
G1 X172.342 Y46.635 E.01406
G1 X161.557 Y35.85 E.47911
G1 X161.023 Y35.85 E.01677
G1 X171.905 Y46.732 E.48342
G1 X171.468 Y46.829 E.01406
G1 X160.489 Y35.85 E.48773
G1 X159.954 Y35.85 E.01681
G1 X171.031 Y46.926 E.49206
G1 X170.593 Y47.023 E.01409
G1 X159.42 Y35.85 E.49635
G1 X159.017 Y35.85 E.01266
G1 X159.017 Y35.981 E.00412
G1 X170.156 Y47.12 E.49484
G1 X169.719 Y47.218 E.01407
G1 X159.015 Y36.514 E.47551
G1 X159.014 Y37.046 E.01671
G1 X169.282 Y47.315 E.45616
G1 X168.845 Y47.412 E.01406
G1 X159.012 Y37.579 E.43682
G1 X159.011 Y38.112 E.01674
G1 X168.408 Y47.509 E.41745
G1 X167.971 Y47.606 E.01406
G1 X159.009 Y38.644 E.39813
G1 X159.007 Y39.177 E.01674
G1 X167.534 Y47.703 E.37878
