; generated by PrusaSlicer 2.6.1+win64 on 2023-10-10 at 02:12:10 UTC

; 

; external perimeters extrusion width = 0.40mm
; perimeters extrusion width = 0.46mm
; infill extrusion width = 0.46mm
; solid infill extrusion width = 0.56mm
; top infill extrusion width = 0.40mm
; support material extrusion width = 0.46mm
; first layer extrusion width = 0.50mm

;TYPE:Custom
M104 S0 ; Stops PS/SS from sending temp waits separately


; Pre-Processed for Cancel-Object support by preprocess_cancellation v0.2.0
; 1 known objects
EXCLUDE_OBJECT_DEFINE NAME=Sovol_SV06_Plus_Print_Head_Cable_Support_stl_id_0_copy_0 CENTER=112.463,113.734 POLYGON=[[97.7,92.7],[97.7,142.3],[127.3,142.3],[127.3,92.7]]
M140 S0
M117
PRINT_START BED=70 HOTEND=195
PURGE_LINE

;; If you are passing variables to PRINT_START, comment out above line and uncomment the last 3 lines instead. (I already did this)
;; Guide: https://github.com/AndrewEllis93/Print-Tuning-Guide/blob/main/articles/passing_slicer_variables.md
;; Make sure the variable names match (for example if you use "EXTRUDER" instead of "HOTEND")
G21 ; set units to millimeters
G90 ; use absolute coordinates
M82 ; use absolute distances for extrusion
G92 E0
; Filament gcode
M107
;LAYER_CHANGE
;Z:0.26
;HEIGHT:0.26
G1 Z.26 F18000
G1 E-.5 F2400
G92 E0
M204 S3500
G1 X100.176 Y92.432 F18000
G1 E.5 F2400
M204 S1000
;TYPE:Skirt/Brim
;WIDTH:0.5
G1 F1800
G1 X101.719 Y90.936 E.60319
G1 X103.167 Y89.921 E.6881
G1 X104.103 Y89.414 E.73921
G1 X106.21 Y88.615 E.84741
G1 X108.237 Y88.235 E.94643
G1 X109.5 Y88.167 E1.00716
G1 X115.5 Y88.167 E1.29526
G1 X117.455 Y88.326 E1.38944
G1 X119.523 Y88.845 E1.49182
G1 X121.36 Y89.652 E1.58816
G1 X122.855 Y90.604 E1.67326
G1 X124.351 Y91.916 E1.7688
G1 X125.491 Y93.274 E1.85394
G1 X126.594 Y95.118 E1.95711
G1 X127.15 Y96.461 E2.0269
G1 X127.669 Y98.509 E2.12835
G1 X131.798 Y128.011 E3.55874
G1 X131.833 Y129.686 E3.63918
G1 X131.715 Y130.689 E3.68767
G1 X130.715 Y134.889 E3.89498
G1 X127.592 Y143.925 E4.35404
G1 X126.623 Y145.503 E4.44296
G1 X125.085 Y146.532 E4.53181
G1 X123.5 Y146.833 E4.60928
G1 X101.5 Y146.833 E5.66564
G1 X99.692 Y146.437 E5.75451
G1 X98.214 Y145.323 E5.84338
G1 X97.408 Y143.925 E5.92086
G1 X94.408 Y135.311 E6.35884
G1 X93.285 Y130.689 E6.58723
G1 X93.167 Y129.686 E6.63572
G1 X93.234 Y127.698 E6.73123
G1 X97.331 Y98.509 E8.14652
G1 X97.641 Y97.127 E8.21453
G1 X98.071 Y95.868 E8.27841
G1 X98.605 Y94.722 E8.33912
G1 X99.283 Y93.598 E8.40215
G1 X100.139 Y92.48 E8.46976
M204 S3500
G1 X100.491 Y92.749 F18000
M204 S1000
G1 F1800
G1 X100.504 Y92.732 E8.47079
G1 X101.989 Y91.288 E8.57025
G1 X103.406 Y90.295 E8.65333
G1 X104.308 Y89.808 E8.70255
G1 X106.335 Y89.042 E8.8066
G1 X108.295 Y88.675 E8.90235
G1 X109.5 Y88.612 E8.96029
G1 X115.5 Y88.612 E9.24839
G1 X117.397 Y88.766 E9.33978
G1 X119.389 Y89.269 E9.43843
G1 X121.138 Y90.036 E9.53013
G1 X122.6 Y90.968 E9.61338
G1 X124.024 Y92.216 E9.7043
G1 X125.138 Y93.544 E9.78753
G1 X126.2 Y95.324 E9.88706
G1 X126.726 Y96.595 E9.95311
G1 X127.229 Y98.57 E10.05097
G1 X131.354 Y128.04 E11.47981
G1 X131.388 Y129.686 E11.55886
G1 X131.283 Y130.587 E11.60242
G1 X130.283 Y134.787 E11.80973
G1 X127.172 Y143.779 E12.2666
G1 X126.238 Y145.261 E12.35071
G1 X124.747 Y146.183 E12.43488
G1 X123.5 Y146.388 E12.49556
G1 X101.5 Y146.388 E13.55192
G1 X99.793 Y145.994 E13.63604
G1 X98.432 Y144.889 E13.72022
G1 X97.828 Y143.779 E13.7809
G1 X94.828 Y135.165 E14.21888
G1 X93.717 Y130.587 E14.44508
G1 X93.612 Y129.686 E14.48864
G1 X93.674 Y127.76 E14.58117
G1 X97.771 Y98.57 E15.99651
G1 X98.064 Y97.26 E16.06097
G1 X98.485 Y96.029 E16.12344
G1 X98.995 Y94.936 E16.18135
G1 X99.658 Y93.836 E16.24302
G1 X100.454 Y92.796 E16.30591
M204 S3500
G1 X100.806 Y93.066 F18000
M204 S1000
G1 F1800
G1 X100.831 Y93.032 E16.30794
G1 X102.26 Y91.64 E16.40373
G1 X103.645 Y90.67 E16.48492
G1 X104.514 Y90.202 E16.53231
G1 X106.46 Y89.468 E16.63218
G1 X108.353 Y89.116 E16.72463
G1 X109.5 Y89.056 E16.77978
G1 X115.5 Y89.056 E17.06788
G1 X117.339 Y89.207 E17.15648
G1 X119.256 Y89.692 E17.25143
G1 X120.916 Y90.421 E17.33848
G1 X122.526 Y91.467 E17.43067
G1 X123.696 Y92.516 E17.50612
G1 X124.958 Y94.061 E17.60191
G1 X125.806 Y95.529 E17.68331
G1 X126.512 Y97.394 E17.77906
G1 X126.789 Y98.632 E17.83997
G1 X130.911 Y128.069 E19.26722
G1 X130.944 Y129.686 E19.34488
G1 X130.851 Y130.484 E19.38346
G1 X129.851 Y134.684 E19.59077
G1 X126.753 Y143.633 E20.04549
G1 X125.854 Y145.014 E20.12461
G1 X124.417 Y145.82 E20.20372
G1 X123.5 Y145.944 E20.24815
G1 X101.5 Y145.944 E21.30451
G1 X99.9 Y145.55 E21.38363
G1 X98.666 Y144.458 E21.46275
G1 X98.247 Y143.633 E21.50718
G1 X95.247 Y135.019 E21.94516
G1 X94.149 Y130.484 E22.16921
G1 X94.056 Y129.686 E22.20779
G1 X94.114 Y127.821 E22.29738
G1 X98.211 Y98.632 E23.71267
G1 X98.488 Y97.394 E23.77358
G1 X98.899 Y96.19 E23.83467
G1 X99.384 Y95.149 E23.88981
G1 X100.033 Y94.075 E23.95006
G1 X100.769 Y93.113 E24.00822
M204 S3500
; printing object Sovol SV06 Plus Print Head Cable Support.stl id:0 copy 0
EXCLUDE_OBJECT_START NAME=Sovol_SV06_Plus_Print_Head_Cable_Support_stl_id_0_copy_0
G1 E23.50822 F2400
G92 E0
G1 X122.362 Y128.548 F18000
G1 E.5 F2400
M204 S1000
;TYPE:Perimeter
G1 F1800
G1 X122.362 Y141.362 E1.11528
G1 X102.638 Y141.362 E2.06235
G1 X102.638 Y128.548 E2.67763
G1 X98.637 Y128.548 E2.86974
G1 X98.682 Y128.294 E2.88213
G1 X98.755 Y128.042 E2.89473
G1 X98.809 Y127.91 E2.90158
G1 X98.932 Y127.687 E2.91381
G1 X99.08 Y127.484 E2.92587
G1 X99.177 Y127.379 E2.93273
G1 X99.369 Y127.211 E2.94498
G1 X99.577 Y127.071 E2.95702
G1 X99.704 Y127.005 E2.96389
G1 X99.948 Y126.91 E2.97646
G1 X100.074 Y126.876 E2.98273
G1 X100.445 Y126.827 E3.0007
G1 X102.638 Y126.821 E3.106
G1 X102.638 Y106.138 E4.09912
G1 X104.138 Y106.138 E4.17114
G1 X104.138 Y101.362 E4.40047
G1 X102.638 Y101.362 E4.47249
G1 X102.638 Y100.525 E4.51268
G1 X102.666 Y99.902 E4.54262
G1 X102.744 Y99.309 E4.57134
G1 X102.873 Y98.724 E4.6001
G1 X103.057 Y98.142 E4.62941
G1 X103.156 Y97.886 E4.64259
G1 X103.42 Y97.321 E4.67253
G1 X103.552 Y97.08 E4.68572
G1 X103.872 Y96.577 E4.71435
G1 X104.245 Y96.089 E4.74384
G1 X104.648 Y95.65 E4.77245
G1 X104.865 Y95.441 E4.78692
G1 X105.081 Y95.252 E4.8007
G1 X105.554 Y94.889 E4.82933
G1 X106.071 Y94.558 E4.85881
G1 X106.599 Y94.283 E4.8874
G1 X106.864 Y94.166 E4.90131
G1 X107.436 Y93.957 E4.93055
G1 X107.713 Y93.876 E4.94441
G1 X108.309 Y93.744 E4.97372
G1 X108.902 Y93.666 E5.00244
G1 X109.525 Y93.638 E5.03238
G1 X115.475 Y93.638 E5.31808
G1 X116.098 Y93.666 E5.34802
G1 X116.691 Y93.744 E5.37674
G1 X117.276 Y93.873 E5.4055
G1 X117.845 Y94.053 E5.43416
G1 X118.115 Y94.157 E5.44805
G1 X118.668 Y94.415 E5.47735
G1 X119.186 Y94.714 E5.50607
G1 X119.687 Y95.064 E5.53542
G1 X119.901 Y95.236 E5.5486
G1 X120.351 Y95.649 E5.57793
G1 X120.755 Y96.09 E5.60665
G1 X121.12 Y96.565 E5.63541
G1 X121.441 Y97.07 E5.66414
G1 X121.718 Y97.601 E5.6929
G1 X121.947 Y98.154 E5.72164
G1 X122.127 Y98.724 E5.75034
G1 X122.256 Y99.309 E5.7791
G1 X122.334 Y99.902 E5.80782
G1 X122.362 Y100.525 E5.83776
G1 X122.362 Y101.362 E5.87795
G1 X120.862 Y101.362 E5.94997
G1 X120.862 Y106.138 E6.1793
G1 X122.362 Y106.138 E6.25132
G1 X122.362 Y126.821 E7.24444
G1 X124.555 Y126.827 E7.34974
G1 X124.915 Y126.874 E7.36717
G1 X125.144 Y126.941 E7.37863
G1 X125.287 Y127 E7.38606
G1 X125.419 Y127.069 E7.39321
G1 X125.642 Y127.218 E7.40609
G1 X125.747 Y127.306 E7.41267
G1 X125.933 Y127.5 E7.42557
G1 X126.016 Y127.609 E7.43215
G1 X126.156 Y127.838 E7.44504
G1 X126.214 Y127.963 E7.45166
G1 X126.296 Y128.205 E7.46393
G1 X126.364 Y128.548 E7.48072
G1 X122.422 Y128.548 E7.67
M204 S3500
G1 X122.806 Y128.992 F18000
M204 S1000
G1 F1800
G1 X122.806 Y132.58 E7.84228
G1 X125.806 Y132.58 E7.98633
G1 X125.806 Y133.192 E8.01572
G1 X122.806 Y133.192 E8.15977
G1 X122.806 Y141.806 E8.57338
G1 X102.194 Y141.806 E9.56309
G1 X102.194 Y133.192 E9.9767
G1 X99.194 Y133.192 E10.12075
G1 X99.194 Y132.58 E10.15014
G1 X102.194 Y132.58 E10.29419
G1 X102.194 Y128.992 E10.46647
G1 X98.194 Y128.992 E10.65854
G1 X98.194 Y128.708 E10.67218
G1 X98.215 Y128.383 E10.68782
G1 X98.248 Y128.194 E10.69703
G1 X98.335 Y127.895 E10.71198
G1 X98.408 Y127.718 E10.72117
G1 X98.557 Y127.448 E10.73598
G1 X98.736 Y127.203 E10.75055
G1 X98.865 Y127.061 E10.75976
G1 X99.097 Y126.858 E10.77456
G1 X99.35 Y126.689 E10.78917
G1 X99.52 Y126.6 E10.79838
G1 X99.809 Y126.487 E10.81328
G1 X99.987 Y126.439 E10.82213
G1 X100.416 Y126.383 E10.8429
G1 X102.194 Y126.378 E10.92827
G1 X102.194 Y105.694 E11.92144
G1 X103.694 Y105.694 E11.99346
G1 X103.694 Y101.806 E12.18015
G1 X102.194 Y101.806 E12.25217
G1 X102.194 Y100.515 E12.31416
G1 X102.223 Y99.863 E12.3455
G1 X102.306 Y99.231 E12.37611
G1 X102.444 Y98.609 E12.4067
G1 X102.638 Y97.994 E12.43766
G1 X102.748 Y97.711 E12.45224
G1 X103.023 Y97.12 E12.48354
G1 X103.17 Y96.854 E12.49813
G1 X103.508 Y96.322 E12.52839
G1 X103.904 Y95.804 E12.5597
G1 X104.33 Y95.339 E12.58998
G1 X104.565 Y95.113 E12.60564
G1 X104.798 Y94.908 E12.62054
G1 X105.298 Y94.525 E12.65078
G1 X105.848 Y94.173 E12.68213
G1 X106.407 Y93.882 E12.71239
G1 X106.698 Y93.753 E12.72767
G1 X107.297 Y93.535 E12.75828
G1 X107.602 Y93.445 E12.77355
G1 X108.231 Y93.306 E12.80448
G1 X108.863 Y93.223 E12.83509
G1 X109.515 Y93.194 E12.86643
G1 X115.485 Y93.194 E13.15309
G1 X116.137 Y93.223 E13.18443
G1 X116.769 Y93.306 E13.21504
G1 X117.391 Y93.444 E13.24563
G1 X117.992 Y93.633 E13.27588
G1 X118.289 Y93.748 E13.29117
G1 X118.873 Y94.02 E13.3221
G1 X119.425 Y94.339 E13.35271
G1 X119.953 Y94.709 E13.38367
G1 X120.19 Y94.899 E13.39826
G1 X120.666 Y95.334 E13.42922
G1 X121.096 Y95.804 E13.45981
G1 X121.484 Y96.31 E13.49043
G1 X121.826 Y96.847 E13.521
G1 X122.121 Y97.413 E13.55165
G1 X122.365 Y98.002 E13.58226
G1 X122.556 Y98.609 E13.61281
G1 X122.694 Y99.231 E13.6434
G1 X122.777 Y99.863 E13.67401
G1 X122.806 Y100.515 E13.70535
G1 X122.806 Y101.806 E13.76734
G1 X121.306 Y101.806 E13.83936
G1 X121.306 Y105.694 E14.02605
G1 X122.806 Y105.694 E14.09807
G1 X122.806 Y126.378 E15.09124
G1 X124.584 Y126.383 E15.17661
G1 X125.006 Y126.438 E15.19704
G1 X125.291 Y126.521 E15.21129
G1 X125.475 Y126.597 E15.22085
G1 X125.646 Y126.686 E15.23011
G1 X125.909 Y126.862 E15.24531
G1 X126.052 Y126.982 E15.25427
G1 X126.27 Y127.21 E15.26942
G1 X126.384 Y127.358 E15.27839
G1 X126.548 Y127.628 E15.29356
G1 X126.626 Y127.797 E15.3025
G1 X126.726 Y128.09 E15.31737
G1 X126.785 Y128.385 E15.33182
G1 X126.806 Y128.709 E15.34741
G1 X126.806 Y128.992 E15.361
G1 X122.866 Y128.992 E15.55018
M204 S3500
G1 X123.25 Y129.436 F18000
M204 S1000
;TYPE:External perimeter
G1 F1800
G1 X123.25 Y132.136 E15.67982
G1 X126.25 Y132.136 E15.82387
G1 X126.25 Y133.636 E15.89589
G1 X123.25 Y133.636 E16.03994
G1 X123.25 Y142.25 E16.45355
G1 X101.75 Y142.25 E17.4859
G1 X101.75 Y133.636 E17.89951
G1 X98.75 Y133.636 E18.04356
G1 X98.75 Y132.136 E18.11558
G1 X101.75 Y132.136 E18.25963
G1 X101.75 Y129.436 E18.38927
G1 X97.75 Y129.436 E18.58134
G1 X97.75 Y128.694 E18.61697
G1 X97.774 Y128.33 E18.63449
G1 X97.815 Y128.093 E18.64604
G1 X97.915 Y127.748 E18.66329
G1 X98.007 Y127.526 E18.67483
G1 X98.181 Y127.209 E18.69219
G1 X98.392 Y126.921 E18.70933
G1 X98.554 Y126.743 E18.72089
G1 X98.826 Y126.505 E18.73824
G1 X99.123 Y126.306 E18.75541
G1 X99.336 Y126.195 E18.76694
G1 X99.671 Y126.064 E18.78421
G1 X99.9 Y126.003 E18.79559
G1 X100.386 Y125.939 E18.81913
G1 X101.75 Y125.935 E18.88462
G1 X101.75 Y105.25 E19.87784
G1 X103.25 Y105.25 E19.94986
G1 X103.25 Y102.25 E20.09391
G1 X101.75 Y102.25 E20.16593
G1 X101.75 Y100.505 E20.24972
G1 X101.78 Y99.825 E20.2824
G1 X101.868 Y99.154 E20.31489
G1 X102.014 Y98.494 E20.34735
G1 X102.218 Y97.847 E20.37992
G1 X102.339 Y97.537 E20.3959
G1 X102.627 Y96.919 E20.42864
G1 X102.787 Y96.627 E20.44463
G1 X103.143 Y96.067 E20.47649
G1 X103.563 Y95.518 E20.50968
G1 X104.012 Y95.029 E20.54156
G1 X104.264 Y94.786 E20.55837
G1 X104.516 Y94.565 E20.57446
G1 X105.043 Y94.161 E20.60634
G1 X105.625 Y93.788 E20.63953
G1 X106.214 Y93.482 E20.6714
G1 X106.532 Y93.341 E20.6881
G1 X107.158 Y93.113 E20.72009
G1 X107.492 Y93.015 E20.7368
G1 X108.154 Y92.868 E20.76936
G1 X108.825 Y92.78 E20.80185
G1 X109.505 Y92.75 E20.83453
G1 X115.495 Y92.75 E21.12215
G1 X116.175 Y92.78 E21.15483
G1 X116.846 Y92.868 E21.18732
G1 X117.506 Y93.014 E21.21978
G1 X118.139 Y93.214 E21.25166
G1 X118.463 Y93.339 E21.26833
G1 X119.078 Y93.626 E21.30092
G1 X119.664 Y93.964 E21.3334
G1 X120.22 Y94.353 E21.36598
G1 X120.479 Y94.561 E21.38193
G1 X120.98 Y95.02 E21.41456
G1 X121.437 Y95.519 E21.44705
G1 X121.848 Y96.055 E21.47948
G1 X122.211 Y96.625 E21.51193
G1 X122.524 Y97.225 E21.54442
G1 X122.782 Y97.849 E21.57684
G1 X122.986 Y98.494 E21.60932
G1 X123.132 Y99.154 E21.64178
G1 X123.22 Y99.825 E21.67427
G1 X123.25 Y100.505 E21.70695
G1 X123.25 Y102.25 E21.79074
G1 X121.75 Y102.25 E21.86276
G1 X121.75 Y105.25 E22.00681
G1 X123.25 Y105.25 E22.07883
G1 X123.25 Y125.935 E23.07205
G1 X124.614 Y125.939 E23.13754
G1 X125.098 Y126.002 E23.16098
G1 X125.438 Y126.101 E23.17798
G1 X125.662 Y126.194 E23.18963
G1 X125.872 Y126.303 E23.20099
G1 X126.176 Y126.506 E23.21854
G1 X126.356 Y126.657 E23.22982
G1 X126.608 Y126.921 E23.24734
G1 X126.751 Y127.107 E23.25861
G1 X126.94 Y127.419 E23.27613
G1 X127.039 Y127.631 E23.28736
G1 X127.156 Y127.974 E23.30476
G1 X127.226 Y128.327 E23.32204
G1 X127.25 Y128.694 E23.3397
G1 X127.25 Y129.436 E23.37533
G1 X123.31 Y129.436 E23.56451
M204 S3500
G1 X122.851 Y129.46 F18000
G1 E23.06451 F2400
G92 E0
G1 X122.584 Y132.886 F18000
G1 E.5 F2400
M204 S1000
;TYPE:Gap fill
;WIDTH:0.223186
G1 F1800
G1 X125.584 Y132.886 E.55428
M204 S3500
G1 E.05428 F2400
G92 E0
G1 X102.416 Y132.886 F18000
G1 E.5 F2400
M204 S1000
G1 F1800
G1 X99.416 Y132.886 E.55428
M204 S3500
G1 E.05428 F2400
G92 E0
G1 X121.255 Y97.025 F18000
G1 E.5 F2400
M204 S1000
;TYPE:Solid infill
;WIDTH:0.501599
G1 F1800
G1 X118.976 Y94.747 E.65528
M204 S3500
G1 X117.767 Y94.168 F18000
M204 S1000
G1 F1800
G1 X121.832 Y98.233 E.93231
M204 S3500
G1 X122.075 Y99.106 F18000
M204 S1000
G1 F1800
G1 X116.894 Y93.925 E1.28539
M204 S3500
G1 X116.144 Y93.806 F18000
M204 S1000
G1 F1800
G1 X122.194 Y99.856 E1.6977
M204 S3500
G1 X122.228 Y100.52 F18000
M204 S1000
G1 F1800
G1 X115.48 Y93.772 E2.15758
M204 S3500
G1 X114.849 Y93.772 F18000
M204 S1000
G1 F1800
G1 X122.228 Y101.151 E2.66046
M204 S3500
G1 X121.675 Y101.228 F18000
M204 S1000
G1 F1800
G1 X114.219 Y93.772 E3.16859
M204 S3500
G1 X113.588 Y93.772 F18000
M204 S1000
G1 F1800
G1 X121.045 Y101.228 E3.67675
M204 S3500
G1 X120.728 Y101.542 F18000
M204 S1000
G1 F1800
G1 X112.958 Y93.772 E4.20627
M204 S3500
G1 X112.327 Y93.772 F18000
M204 S1000
G1 F1800
G1 X120.728 Y102.173 E4.7788
M204 S3500
G1 X120.728 Y102.803 F18000
M204 S1000
G1 F1800
G1 X111.697 Y93.772 E5.39426
M204 S3500
G1 X111.066 Y93.772 F18000
M204 S1000
G1 F1800
G1 X120.728 Y103.434 E6.05272
M204 S3500
G1 X120.728 Y104.064 F18000
M204 S1000
G1 F1800
G1 X110.436 Y93.772 E6.75412
M204 S3500
G1 X109.805 Y93.772 F18000
M204 S1000
G1 F1800
G1 X120.728 Y104.695 E7.49852
M204 S3500
G1 X120.728 Y105.325 F18000
M204 S1000
G1 F1800
G1 X109.19 Y93.786 E8.28487
M204 S3500
G1 X108.611 Y93.838 F18000
M204 S1000
G1 F1800
G1 X120.728 Y105.956 E9.11068
M204 S3500
G1 X121.675 Y106.272 F18000
M204 S1000
G1 F1800
G1 X122.228 Y106.825 E9.14837
M204 S3500
G1 X122.228 Y107.456 F18000
M204 S1000
G1 F1800
G1 X121.044 Y106.272 E9.22906
M204 S3500
G1 E8.72906 F2400
G92 E0
G1 X122.228 Y108.086 F18000
G1 E.5 F2400
M204 S1000
G1 F1800
G1 X108.074 Y93.932 E1.46459
M204 S3500
G1 X107.569 Y94.057 F18000
M204 S1000
G1 F1800
G1 X122.228 Y108.716 E2.4636
M204 S3500
G1 X122.228 Y109.347 F18000
M204 S1000
G1 F1800
G1 X107.102 Y94.221 E3.49444
M204 S3500
G1 X106.655 Y94.404 F18000
M204 S1000
G1 F1800
G1 X122.228 Y109.977 E4.55574
M204 S3500
G1 X122.228 Y110.608 F18000
M204 S1000
G1 F1800
G1 X106.24 Y94.62 E5.64532
M204 S3500
G1 X105.848 Y94.858 F18000
M204 S1000
G1 F1800
G1 X122.228 Y111.238 E6.76162
M204 S3500
G1 X122.228 Y111.869 F18000
M204 S1000
G1 F1800
G1 X105.476 Y95.116 E7.9033
M204 S3500
G1 X105.122 Y95.393 F18000
M204 S1000
G1 F1800
G1 X122.228 Y112.499 E9.06907
