;FLAVOR:Marlin
;TIME:7772
;Filament used: 4.39712m
;Layer height: 0.16
;MINX:75.021
;MINY:75.721
;MINZ:0.2
;MAXX:147.717
;MAXY:146.971
;MAXZ:26.2
;Generated with Cura_SteamEngine 5.4.0
M140 S60


; Pre-Processed for Cancel-Object support by preprocess_cancellation v0.2.0
; 1 known objects
EXCLUDE_OBJECT_DEFINE NAME=all_parts_3mf CENTER=110.528,111.735 POLYGON=[[75.62,76.321],[75.62,146.371],[147.116,146.371],[147.116,76.321]]
M105
M190 S60
M104 S195
M105
M109 S195
M82 ;absolute extrusion mode
M201 X500.00 Y500.00 Z100.00 E5000.00 ;Setup machine max acceleration
M203 X500.00 Y500.00 Z10.00 E50.00 ;Setup machine max feedrate
M204 P500.00 R1000.00 T500.00 ;Setup Print/Retract/Travel acceleration
M205 X8.00 Y8.00 Z0.40 E5.00 ;Setup Jerk
M220 S100 ;Reset Feedrate
M221 S100 ;Reset Flowrate

G28 ;Home
M420 S1 ;use bed mesh, must have used G29 previously

G92 E0 ;Reset Extruder
G1 Z2.0 F3000 ;Move Z Axis up
G1 X10.1 Y20 Z0.28 F5000.0 ;Move to start position
G1 X10.1 Y200.0 Z0.28 F1500.0 E15 ;Draw the first line
G1 X10.4 Y200.0 Z0.28 F5000.0 ;Move to side a little
G1 X10.4 Y20 Z0.28 F1500.0 E30 ;Draw the second line
G92 E0 ;Reset Extruder
G1 Z2.0 F3000 ;Move Z Axis up

G92 E0
G92 E0
G1 F1800 E-0.5
;LAYER_COUNT:150
;LAYER:0
M107
M204 S500
M205 X10 Y10
G1 F600 Z0.52
G0 F4000 X91.511 Y94.329 Z0.52
M204 S1000
M205 X5 Y5
;TYPE:SKIRT
G1 F600 Z0.2
G1 F1800 E0
G1 F1200 X92.639 Y93.375 E0.0737
G1 X93.976 Y92.432 E0.15533
G1 X96.208 Y90.805 E0.29313
G1 X98.361 Y89.137 E0.42901
G1 X100.468 Y87.409 E0.56496
G1 X102.508 Y85.637 E0.69977
G1 X104.481 Y83.823 E0.83348
G1 X107.216 Y81.132 E1.0249
G1 X111.038 Y77.301 E1.29488
G1 X111.56 Y76.798 E1.33105
G1 X111.956 Y76.471 E1.35667
G1 X112.513 Y76.131 E1.38923
G1 X113.121 Y75.896 E1.42175
G1 X113.806 Y75.738 E1.45682
G1 X114.786 Y75.721 E1.50572
G1 X116.134 Y75.721 E1.57297
G1 X116.837 Y75.732 E1.60805
G1 X117.442 Y75.787 E1.63836
G1 X118.03 Y75.938 E1.66865
G1 X118.579 Y76.176 E1.6985
G1 X119.714 Y76.784 E1.76274
G1 X122.118 Y78.04 E1.89805
G1 X124.592 Y79.242 E2.03528
G1 X127.037 Y80.348 E2.16916
G1 X129.607 Y81.422 E2.30812
G1 X132.122 Y82.392 E2.44261
G1 X134.546 Y83.258 E2.57103
G1 X135.287 Y83.601 E2.61176
G1 X136.091 Y84.104 E2.65908
G1 X136.701 Y84.573 E2.69747
G1 X137.452 Y85.344 E2.75116
G1 X137.975 Y86.009 E2.79337
G1 X138.567 Y87.027 E2.85212
G1 X138.922 Y87.881 E2.89827
G1 X139.533 Y89.438 E2.98171
G1 X140.584 Y91.909 E3.11568
G1 X141.713 Y94.368 E3.25067
G1 X142.929 Y96.834 E3.38784
G1 X144.193 Y99.22 E3.52255
G1 X145.54 Y101.597 E3.65886
G1 X147.186 Y104.329 E3.81799
G1 X147.439 Y104.831 E3.84603
G1 X147.609 Y105.365 E3.87399
G1 X147.717 Y106.008 E3.90652
G1 X147.707 Y106.662 E3.93915
G1 X147.627 Y107.169 E3.96476
G1 X147.432 Y107.791 E3.99728
G1 X147.152 Y108.343 E4.02816
G1 X146.664 Y108.986 E4.06843
G1 X140.013 Y115.644 E4.53794
G1 X138.105 Y117.608 E4.67455
G1 X136.235 Y119.642 E4.8124
G1 X134.474 Y121.673 E4.94651
G1 X132.736 Y123.793 E5.08328
G1 X131.087 Y125.926 E5.21779
G1 X129.448 Y128.175 E5.35662
G1 X128.292 Y129.789 E5.45567
G1 X127.955 Y130.18 E5.48142
G1 X127.301 Y130.857 E5.52838
G1 X119.096 Y139.062 E6.10729
G1 X118.534 Y139.605 E6.14628
G1 X117.831 Y140.166 E6.19115
G1 X117.118 Y140.584 E6.23238
G1 X116.613 Y140.806 E6.25991
G1 X115.954 Y141.024 E6.29454
G1 X114.601 Y141.336 E6.36381
G1 X111.967 Y141.981 E6.4991
G1 X109.303 Y142.713 E6.63694
G1 X106.723 Y143.501 E6.77152
G1 X104.137 Y144.373 E6.90768
G1 X101.581 Y145.315 E7.04358
G1 X98.146 Y146.709 E7.22853
G1 X97.657 Y146.865 E7.25413
G1 X97.016 Y146.971 E7.28655
G1 X96.452 Y146.969 E7.31469
G1 X95.806 Y146.873 E7.34727
G1 X95.186 Y146.664 E7.37991
G1 X94.683 Y146.408 E7.40807
G1 X94.04 Y145.919 E7.44837
G1 X76.591 Y128.479 E8.67917
G1 X76.09 Y127.961 E8.71513
G1 X75.763 Y127.566 E8.74071
G1 X75.423 Y127.009 E8.77327
G1 X75.195 Y126.441 E8.8038
G1 X75.057 Y125.807 E8.83617
G1 X75.021 Y125.295 E8.86178
G1 X75.07 Y124.634 E8.89485
G1 X75.317 Y123.786 E8.93891
G1 X75.997 Y122.143 E9.02763
G1 X76.982 Y119.631 E9.16224
G1 X77.901 Y117.069 E9.29803
G1 X78.758 Y114.458 E9.43514
G1 X79.522 Y111.881 E9.56923
G1 X80.222 Y109.255 E9.70482
G1 X81.009 Y105.918 E9.87587
G1 X81.319 Y105.023 E9.92313
G1 X81.868 Y104.119 E9.97589
G1 X82.412 Y103.444 E10.01914
G1 X82.883 Y102.957 E10.05294
G1 X91.511 Y94.329 E10.6617
M204 S500
M205 X10 Y10
G0 F4000 X91.935 Y94.753
M204 S1000
M205 X5 Y5
G1 F1200 X92.985 Y93.865 E10.7303
G1 X94.33 Y92.917 E10.8124
G1 X96.562 Y91.289 E10.95023
G1 X98.741 Y89.601 E11.08774
G1 X100.848 Y87.873 E11.22369
G1 X102.914 Y86.079 E11.3602
G1 X104.899 Y84.254 E11.49473
G1 X107.637 Y81.56 E11.68636
G1 X111.456 Y77.732 E11.95613
G1 X111.942 Y77.261 E11.98989
G1 X112.338 Y76.934 E12.01552
G1 X112.779 Y76.671 E12.04113
G1 X113.256 Y76.481 E12.06675
G1 X113.881 Y76.337 E12.09875
G1 X114.796 Y76.321 E12.1444
G1 X116.125 Y76.321 E12.21071
G1 X116.828 Y76.332 E12.24578
G1 X117.339 Y76.38 E12.27139
G1 X117.836 Y76.507 E12.29698
G1 X118.34 Y76.726 E12.3244
G1 X119.436 Y77.316 E12.3865
G1 X121.846 Y78.575 E12.52215
G1 X124.336 Y79.785 E12.66027
G1 X126.799 Y80.899 E12.79513
G1 X129.383 Y81.979 E12.93486
G1 X131.906 Y82.952 E13.06976
G1 X134.344 Y83.823 E13.19893
G1 X134.97 Y84.11 E13.23328
G1 X135.725 Y84.58 E13.27765
G1 X136.335 Y85.049 E13.31604
G1 X136.983 Y85.718 E13.36251
G1 X137.456 Y86.311 E13.40035
G1 X138.048 Y87.329 E13.4591
G1 X138.363 Y88.1 E13.50065
G1 X138.974 Y89.657 E13.5841
G1 X140.032 Y92.144 E13.71894
G1 X141.175 Y94.633 E13.85558
G1 X142.399 Y97.115 E13.99365
G1 X143.671 Y99.516 E14.12921
G1 X145.026 Y101.907 E14.26632
G1 X146.65 Y104.599 E14.42317
G1 X146.881 Y105.058 E14.44881
G1 X147.037 Y105.547 E14.47441
G1 X147.116 Y106.054 E14.50001
G1 X147.114 Y106.568 E14.52566
G1 X147.034 Y107.075 E14.55126
G1 X146.875 Y107.563 E14.57687
G1 X146.643 Y108.021 E14.60248
G1 X146.186 Y108.623 E14.64019
G1 X139.589 Y115.22 E15.10565
G1 X137.663 Y117.202 E15.24352
G1 X135.793 Y119.236 E15.38137
G1 X134.021 Y121.28 E15.51633
G1 X132.261 Y123.426 E15.6548
G1 X130.612 Y125.559 E15.78931
G1 X128.963 Y127.822 E15.929
G1 X127.838 Y129.397 E16.02557
G1 X127.501 Y129.788 E16.05132
G1 X126.87 Y130.44 E16.09659
G1 X118.678 Y138.632 E16.67458
G1 X118.156 Y139.139 E16.71088
G1 X117.525 Y139.65 E16.75139
G1 X116.873 Y140.036 E16.78919
G1 X116.423 Y140.237 E16.81378
G1 X115.819 Y140.439 E16.84555
G1 X114.466 Y140.751 E16.91483
G1 X111.808 Y141.402 E17.05135
G1 X109.144 Y142.134 E17.18919
G1 X106.531 Y142.932 E17.32549
G1 X103.945 Y143.804 E17.46165
G1 X101.365 Y144.755 E17.59883
G1 X97.964 Y146.137 E17.78198
G1 X97.475 Y146.293 E17.80759
G1 X96.968 Y146.371 E17.83318
G1 X96.454 Y146.369 E17.85882
G1 X95.947 Y146.288 E17.88444
G1 X95.459 Y146.129 E17.91004
G1 X95.002 Y145.896 E17.93564
G1 X94.403 Y145.441 E17.97316
G1 X77.021 Y128.061 E19.19949
G1 X76.552 Y127.578 E19.23308
G1 X76.225 Y127.183 E19.25866
G1 X75.962 Y126.742 E19.28428
G1 X75.771 Y126.265 E19.30991
G1 X75.656 Y125.765 E19.33551
G1 X75.62 Y125.253 E19.36111
G1 X75.664 Y124.741 E19.38675
G1 X75.871 Y124.016 E19.42437
G1 X76.556 Y122.362 E19.51368
G1 X77.541 Y119.85 E19.6483
G1 X78.466 Y117.272 E19.78494
G1 X79.328 Y114.645 E19.92288
G1 X80.102 Y112.036 E20.05865
G1 X80.802 Y109.41 E20.19424
G1 X81.576 Y106.114 E20.36315
G1 X81.865 Y105.279 E20.40723
G1 X82.335 Y104.496 E20.45279
G1 X82.879 Y103.821 E20.49604
G1 X83.313 Y103.375 E20.52709
G1 X91.935 Y94.753 E21.13542
M204 S500
M205 X10 Y10
G1 F1800 E20.63542
G1 F600 Z0.52
;MESH:all-parts.3mf
EXCLUDE_OBJECT_START NAME=all_parts_3mf
G0 F4000 X117.081 Y89.082 Z0.52
M204 S1000
M205 X5 Y5
;TYPE:WALL-INNER
G1 F600 Z0.2
G1 F1800 E21.13542
G1 F1200 X119.438 Y86.725 E21.30172
G1 X119.03 Y86.674 E21.32223
G1 X118.539 Y86.347 E21.35166
G1 X115.604 Y83.41 E21.55881
G1 X115.445 Y83.157 E21.57372
G1 X115.305 Y82.77 E21.59425
G1 X115.282 Y82.288 E21.61833
G1 X115.437 Y81.771 E21.64526
G1 X115.711 Y81.396 E21.66843
G1 X115.984 Y81.123 E21.68769
G1 X114.857 Y81.122 E21.74392
G1 X111.478 Y84.501 E21.98232
G1 X111.479 Y85.628 E22.03855
G1 X111.752 Y85.355 E22.05781
G1 X112.127 Y85.081 E22.08098
G1 X112.644 Y84.926 E22.10791
G1 X113.125 Y84.949 E22.13193
G1 X113.513 Y85.089 E22.15251
G1 X113.874 Y85.356 E22.17491
G1 X116.703 Y88.183 E22.37444
G1 X117.03 Y88.674 E22.40388
G1 X117.081 Y89.082 E22.42439
M204 S500
M205 X10 Y10
G0 F4000 X114.806 Y92.203
G0 X114.805 Y92.203
M204 S1000
M205 X5 Y5
G1 F1202 X122.558 Y84.45 E22.97049
G1 X122.134 Y84.026 E23.00036
G1 X120.237 Y85.922 E23.13394
G1 X119.73 Y86.178 E23.16223
G1 F1200 X119.258 Y86.119 E23.18596
G1 X118.964 Y85.923 E23.20359
G1 X116.071 Y83.029 E23.40774
G1 X115.892 Y82.645 E23.42888
G1 X115.878 Y82.355 E23.44337
G1 X115.971 Y82.045 E23.45951
G1 X116.135 Y81.82 E23.4734
G1 X116.92 Y81.036 E23.52875
G1 X116.406 Y80.522 E23.56502
G1 X114.608 Y80.522 E23.65472
G1 X110.878 Y84.252 E23.91789
G1 X110.878 Y86.05 E24.0076
G1 X111.392 Y86.564 E24.04386
G1 X112.176 Y85.779 E24.09921
G1 X112.401 Y85.615 E24.1131
G1 X112.711 Y85.522 E24.12925
G1 X113.001 Y85.536 E24.14374
G1 X113.233 Y85.62 E24.15605
G1 X113.45 Y85.78 E24.1695
G1 X116.279 Y88.608 E24.36906
G1 X116.475 Y88.902 E24.38669
G1 X116.534 Y89.374 E24.41042
G1 F1196 X116.377 Y89.782 E24.43231
G1 F1198 X114.381 Y91.779 E24.5734
G1 F1202 X114.805 Y92.203 E24.60327
M204 S500
M205 X10 Y10
G0 F4000 X114.805 Y93.05
M204 S1000
M205 X5 Y5
;TYPE:WALL-OUTER
G1 F1200 X123.406 Y84.45 E25.21008
G1 X122.134 Y83.179 E25.29979
G1 X119.814 Y85.499 E25.46348
G1 X119.644 Y85.584 E25.47296
G1 X119.448 Y85.559 E25.48282
G1 X116.53 Y82.635 E25.68891
G1 X116.474 Y82.423 E25.69985
G1 X116.513 Y82.291 E25.70672
G1 X117.768 Y81.036 E25.79527
G1 X116.654 Y79.922 E25.87387
G1 X114.36 Y79.922 E25.98831
G1 X110.278 Y84.004 E26.27632
G1 X110.278 Y86.298 E26.39077
G1 X111.392 Y87.412 E26.46937
G1 X112.647 Y86.157 E26.55792
G1 X112.876 Y86.123 E26.56947
G1 X113.026 Y86.204 E26.57797
G1 X115.915 Y89.092 E26.78177
G1 X115.94 Y89.288 E26.79163
G1 X115.888 Y89.418 E26.79861
G1 X113.534 Y91.779 E26.96495
G1 X114.805 Y93.05 E27.05462
M204 S500
M205 X10 Y10
G0 F4000 X114.805 Y92.244
G0 X117.58 Y88.355
G0 X117.297 Y88.072
M204 S1000
M205 X5 Y5
;TYPE:SKIN
G1 F1200 X117.136 Y87.83 E27.06912
G1 X114.139 Y84.829 E27.28072
G1 X113.779 Y84.594 E27.30217
G1 X113.24 Y84.396 E27.33082
G1 X112.626 Y84.368 E27.36148
G1 X112.335 Y84.437 E27.3764
G1 X114.793 Y81.979 E27.54983
G1 X114.724 Y82.27 E27.56475
G1 X114.752 Y82.884 E27.59541
G1 X114.95 Y83.423 E27.62406
G1 X115.185 Y83.783 E27.64551
G1 X118.14 Y86.742 E27.85414
G1 X118.429 Y86.941 E27.87165
G1 X117.297 Y88.072 E27.95148
M204 S500
M205 X10 Y10
G0 F4000 X117.58 Y88.355
G0 X118.94 Y86.891
G0 X115.181 Y82.888
G0 X114.52 Y83.125
M204 S1000
M205 X5 Y5
G1 F1200 X114.295 Y82.899 E27.96739
M204 S500
M205 X10 Y10
G0 F4000 X113.871 Y83.324
M204 S1000
M205 X5 Y5
G1 F1200 X117.745 Y87.198 E28.24072
M204 S500
M205 X10 Y10
G0 F4000 X118.241 Y87.694
G0 X117.247 Y88.584
G0 X113.867 Y85.121
G0 X114.244 Y84.545
M204 S1000
M205 X5 Y5
G1 F1200 X113.446 Y83.748 E28.29699
M204 S500
M205 X10 Y10
G0 F4000 X112.766 Y83.069
G1 F1800 E27.79699
G1 F600 Z0.52
G0 F4000 X112.766 Y83.069 Z0.52
G0 X123.104 Y101.623
M204 S1000
M205 X5 Y5
;TYPE:WALL-OUTER
G1 F600 Z0.2
G1 F1800 E28.29699
G1 F1206 X122.327 Y101.38 E28.3374
G1 X121.623 Y100.955 E28.37822
G1 X121.044 Y100.376 E28.41887
G1 X120.619 Y99.672 E28.45969
G1 X120.377 Y98.894 E28.50014
G1 X120.326 Y98.07 E28.54112
G1 F1204 X120.473 Y97.272 E28.58147
G1 F1206 X120.813 Y96.519 E28.62248
G1 F1204 X121.325 Y95.867 E28.6637
G1 F1202 X129.296 Y87.896 E29.22516
G1 F1204 X129.952 Y87.381 E29.26663
G1 F1206 X130.699 Y87.044 E29.30731
G1 F1204 X131.501 Y86.898 E29.34785
G1 F1206 X132.324 Y86.947 E29.38877
G1 X133.101 Y87.19 E29.42919
G1 X133.805 Y87.615 E29.47001
G1 X134.384 Y88.194 E29.51066
G1 X134.809 Y88.898 E29.55148
G1 X135.052 Y89.675 E29.59189
G1 F1204 X135.101 Y90.498 E29.63289
G1 X134.955 Y91.3 E29.67342
G1 F1206 X134.618 Y92.048 E29.71414
G1 F1204 X134.105 Y92.703 E29.75551
G1 X126.132 Y100.674 E30.31611
G1 F1206 X125.48 Y101.186 E30.35726
G1 X124.727 Y101.526 E30.39827
G1 X123.927 Y101.672 E30.43864
G1 X123.104 Y101.623 E30.47957
M204 S500
M205 X10 Y10
G0 F4000 X123.213 Y101.034
M204 S1000
M205 X5 Y5
G1 F1206 X123.889 Y101.074 E30.51318
G1 X124.551 Y100.953 E30.54659
G1 X125.168 Y100.675 E30.58018
G1 F1208.1 X125.666 Y100.287 E30.61147
G1 X133.693 Y92.266 E31.17383
G1 F1206 X134.105 Y91.738 E31.20708
G1 X134.381 Y91.123 E31.24054
G1 F1204 X134.503 Y90.46 E31.27406
G1 X134.463 Y89.784 E31.30773
G1 F1206 X134.262 Y89.142 E31.34113
G1 X133.913 Y88.564 E31.37464
G1 X133.435 Y88.086 E31.4082
G1 X132.857 Y87.737 E31.44172
G1 X132.215 Y87.536 E31.47511
G1 X131.539 Y87.496 E31.50873
G1 F1204 X130.876 Y87.618 E31.54225
G1 F1206 X130.262 Y87.894 E31.57567
G1 F1210.1 X129.762 Y88.283 E31.60701
G1 F1208.1 X121.76 Y96.278 E32.16758
G1 F1204 X121.324 Y96.831 E32.2026
G1 F1206 X121.046 Y97.448 E32.23619
G1 F1204 X120.925 Y98.109 E32.26961
G1 F1206 X120.965 Y98.786 E32.30327
G1 X121.167 Y99.428 E32.33668
G1 X121.515 Y100.006 E32.37017
G1 X121.993 Y100.484 E32.40373
G1 X122.571 Y100.833 E32.43725
G1 X123.213 Y101.034 E32.47064
M204 S500
M205 X10 Y10
G1 F1800 E31.97064
G1 F600 Z0.52
G0 F4000 X137.086 Y110.936 Z0.52
M204 S1000
M205 X5 Y5
;TYPE:WALL-INNER
G1 F600 Z0.2
G1 F1800 E32.47064
G1 F1200 X139.443 Y108.581 E32.63687
G1 X139.036 Y108.53 E32.65734
G1 X138.546 Y108.203 E32.68673
G1 X135.609 Y105.266 E32.89395
G1 X135.45 Y105.013 E32.90885
G1 X135.31 Y104.626 E32.92939
G1 X135.287 Y104.145 E32.95341
G1 X135.442 Y103.627 E32.98039
G1 X135.716 Y103.252 E33.00356
G1 X135.989 Y102.979 E33.02282
G1 X134.862 Y102.978 E33.07904
G1 X131.483 Y106.357 E33.31745
G1 X131.484 Y107.484 E33.37368
G1 X131.757 Y107.211 E33.39294
G1 X132.132 Y106.937 E33.41611
G1 X132.649 Y106.782 E33.44304
G1 X133.13 Y106.805 E33.46706
G1 X133.518 Y106.945 E33.48764
G1 X133.879 Y107.212 E33.51004
G1 X136.708 Y110.041 E33.70964
G1 X137.036 Y110.532 E33.7391
G1 X137.086 Y110.936 E33.75941
M204 S500
M205 X10 Y10
G0 F4000 X134.81 Y114.06
G0 X134.81 Y114.059
M204 S1000
M205 X5 Y5
G1 F1202 X142.563 Y106.306 E34.30552
G1 X142.139 Y105.882 E34.33538
G1 X140.243 Y107.778 E34.46893
G1 X139.736 Y108.034 E34.49722
G1 F1200 X139.264 Y107.975 E34.52095
G1 X138.97 Y107.779 E34.53858
G1 X136.076 Y104.885 E34.74277
G1 X135.897 Y104.501 E34.76391
G1 X135.883 Y104.212 E34.77834
G1 X135.976 Y103.901 E34.79454
G1 X136.14 Y103.676 E34.80843
G1 X136.925 Y102.892 E34.86378
G1 X136.411 Y102.378 E34.90004
G1 X134.613 Y102.378 E34.98974
G1 X130.883 Y106.108 E35.25292
G1 X130.883 Y107.906 E35.34262
G1 X131.397 Y108.42 E35.37888
G1 X132.181 Y107.635 E35.43424
G1 X132.406 Y107.471 E35.44813
G1 X132.717 Y107.378 E35.46432
G1 X133.006 Y107.392 E35.47876
G1 X133.238 Y107.476 E35.49107
G1 X133.455 Y107.636 E35.50452
G1 X136.284 Y110.465 E35.70412
G1 X136.48 Y110.76 E35.72179
G1 X136.539 Y111.231 E35.74547
G1 F1198 X136.382 Y111.639 E35.76732
G1 X134.386 Y113.635 E35.90838
G1 F1202 X134.81 Y114.059 E35.93825
M204 S500
M205 X10 Y10
G0 F4000 X134.81 Y114.906
M204 S1000
M205 X5 Y5
;TYPE:WALL-OUTER
G1 F1200 X143.411 Y106.306 E36.54506
G1 X142.139 Y105.035 E36.63477
G1 X139.82 Y107.355 E36.79842
G1 X139.65 Y107.44 E36.8079
G1 X139.454 Y107.415 E36.81776
G1 X136.535 Y104.491 E37.02389
G1 X136.479 Y104.279 E37.03483
G1 X136.518 Y104.147 E37.0417
G1 X137.773 Y102.892 E37.13024
G1 X136.659 Y101.778 E37.20884
G1 X134.365 Y101.778 E37.32329
G1 X130.283 Y105.86 E37.6113
G1 X130.283 Y108.154 E37.72574
G1 X131.397 Y109.268 E37.80434
G1 X132.652 Y108.013 E37.89289
G1 X132.881 Y107.979 E37.90444
G1 X133.031 Y108.06 E37.91295
G1 X135.92 Y110.949 E38.11678
G1 X135.945 Y111.145 E38.12664
G1 X135.893 Y111.275 E38.13362
G1 X133.539 Y113.635 E38.29992
G1 X134.81 Y114.906 E38.3896
M204 S500
M205 X10 Y10
G0 F4000 X134.81 Y114.1
G0 X137.584 Y110.21
G0 X137.301 Y109.926
M204 S1000
M205 X5 Y5
;TYPE:SKIN
G1 F1200 X137.142 Y109.687 E38.40392
G1 X134.144 Y106.685 E38.61559
G1 X133.784 Y106.45 E38.63703
G1 X133.245 Y106.252 E38.66568
G1 X132.632 Y106.224 E38.6963
G1 X132.341 Y106.293 E38.71122
