;FLAVOR:Marlin
;TIME:3829
;Filament used: 2.69886m
;Layer height: 0.16
;MINX:92.076
;MINY:80.299
;MINZ:0.2
;MAXX:127.069
;MAXY:139.7
;MAXZ:42.84
;Generated with Cura_SteamEngine 5.4.0
M140 S60


; Pre-Processed for Cancel-Object support by preprocess_cancellation v0.2.0
; 1 known objects
EXCLUDE_OBJECT_DEFINE NAME=EZOut_SV06_Mount_V1_stl CENTER=109.151,111.246 POLYGON=[[92.677,80.899],[92.677,139.1],[126.469,139.1],[126.469,80.899]]
M105
M190 S60
M104 S195
M105
M109 S195
M82 ;absolute extrusion mode
#M201 X500.00 Y500.00 Z100.00 E5000.00 ;Setup machine max acceleration
#M203 X500.00 Y500.00 Z10.00 E50.00 ;Setup machine max feedrate
M204 P500.00 R1000.00 T500.00 ;Setup Print/Retract/Travel acceleration
#M205 X8.00 Y8.00 Z0.40 E5.00 ;Setup Jerk
M220 S100 ;Reset Feedrate
M221 S100 ;Reset Flowrate

G28 ;Home
#M420 S1 ;use bed mesh, must have used G29 previously

G92 E0 ;Reset Extruder
G1 Z2.0 F3000 ;Move Z Axis up
G1 X10.1 Y20 Z0.28 F5000.0 ;Move to start position
G1 X10.1 Y200.0 Z0.28 F1500.0 E15 ;Draw the first line
G1 X10.4 Y200.0 Z0.28 F5000.0 ;Move to side a little
G1 X10.4 Y20 Z0.28 F1500.0 E30 ;Draw the second line
G92 E0 ;Reset Extruder
G1 Z2.0 F3000 ;Move Z Axis up

G92 E0
G92 E0
G1 F1800 E-0.5
;LAYER_COUNT:225
;LAYER:0
M107
M204 S500
M205 X10 Y10
G1 F600 Z0.52
G0 F4000 X101.709 Y82.389 Z0.52
M204 S1000
M205 X5 Y5
;TYPE:SKIRT
G1 F600 Z0.2
G1 F1800 E0
G1 F1200 X102.189 Y81.89 E0.03454
G1 X102.678 Y81.414 E0.06859
G1 X103.109 Y81.054 E0.09661
G1 X103.626 Y80.738 E0.12684
G1 X104.23 Y80.486 E0.15949
G1 X104.976 Y80.315 E0.19767
G1 X105.943 Y80.299 E0.24592
G1 X121.663 Y80.299 E1.03019
G1 X122.403 Y80.311 E1.06712
G1 X123.158 Y80.381 E1.10495
G1 X124.133 Y80.592 E1.15472
G1 X124.922 Y80.93 E1.19754
G1 X125.439 Y81.245 E1.22774
G1 X125.938 Y81.669 E1.26041
G1 X126.352 Y82.173 E1.29295
G1 X126.643 Y82.653 E1.32096
G1 X126.873 Y83.215 E1.35125
G1 X127.052 Y83.971 E1.39001
G1 X127.069 Y85.074 E1.44505
G1 X127.069 Y134.914 E3.93157
G1 X127.059 Y135.645 E3.96805
G1 X126.994 Y136.295 E4.00064
G1 X126.868 Y136.793 E4.02627
G1 X126.62 Y137.395 E4.05875
G1 X126.322 Y137.872 E4.08681
G1 X125.899 Y138.37 E4.11941
G1 X125.395 Y138.786 E4.15201
G1 X124.908 Y139.081 E4.18042
G1 X123.881 Y139.462 E4.23507
G1 X123.088 Y139.631 E4.27552
G1 X122.325 Y139.699 E4.31374
G1 X106.045 Y139.7 E5.12595
G1 X105.346 Y139.69 E5.16082
G1 X104.697 Y139.624 E5.19337
G1 X104.199 Y139.498 E5.219
G1 X103.598 Y139.25 E5.25144
G1 X102.949 Y138.842 E5.28968
G1 X102.187 Y138.106 E5.34253
G1 X101.695 Y137.596 E5.37789
G1 X101.332 Y137.159 E5.40623
G1 X100.931 Y136.431 E5.4477
G1 X100.305 Y134.947 E5.52805
G1 X99.208 Y132.469 E5.66325
G1 X98.044 Y130.03 E5.79808
G1 X96.795 Y127.593 E5.9347
G1 X95.498 Y125.227 E6.06931
G1 X94.117 Y122.871 E6.20556
G1 X92.661 Y120.539 E6.34272
G1 X92.378 Y119.999 E6.37314
G1 X92.178 Y119.38 E6.40559
G1 X92.092 Y118.874 E6.4312
G1 X92.076 Y118.224 E6.46363
G1 X92.164 Y117.611 E6.49453
G1 X92.402 Y116.901 E6.53189
G1 X92.665 Y116.303 E6.56448
G1 X93.761 Y113.732 E6.70392
G1 X94.749 Y111.217 E6.83873
G1 X95.668 Y108.67 E6.97382
G1 X96.52 Y106.084 E7.10965
G1 X97.289 Y103.504 E7.24397
G1 X98 Y100.843 E7.38138
G1 X98.626 Y98.211 E7.51636
G1 X99.184 Y95.516 E7.65366
G1 X99.654 Y92.894 E7.78656
G1 X100.059 Y90.18 E7.92346
G1 X100.382 Y87.499 E8.05818
G1 X100.536 Y85.764 E8.14508
G1 X100.643 Y84.698 E8.19853
G1 X100.764 Y84.056 E8.23113
G1 X100.97 Y83.486 E8.26136
G1 X101.235 Y82.988 E8.28951
G1 X101.709 Y82.389 E8.32762
M204 S500
M205 X10 Y10
G0 F4000 X102.141 Y82.805
M204 S1000
M205 X5 Y5
G1 F1200 X102.608 Y82.32 E8.36121
G1 X103.097 Y81.844 E8.39525
G1 X103.492 Y81.516 E8.42087
G1 X103.933 Y81.253 E8.44649
G1 X104.409 Y81.061 E8.47209
G1 X105.049 Y80.914 E8.50485
G1 X105.953 Y80.899 E8.54996
G1 X121.654 Y80.899 E9.33329
G1 X122.352 Y80.909 E9.36811
G1 X123.031 Y80.967 E9.40211
G1 X123.946 Y81.165 E9.44882
G1 X124.686 Y81.482 E9.48898
G1 X125.121 Y81.754 E9.51458
G1 X125.509 Y82.091 E9.54022
G1 X125.839 Y82.484 E9.56582
G1 X126.105 Y82.923 E9.59143
G1 X126.3 Y83.398 E9.61704
G1 X126.453 Y84.046 E9.65026
G1 X126.469 Y85.083 E9.702
G1 X126.469 Y134.906 E12.18768
G1 X126.459 Y135.637 E12.22416
G1 X126.412 Y136.148 E12.24976
G1 X126.286 Y136.646 E12.27539
G1 X126.085 Y137.118 E12.30098
G1 X125.813 Y137.554 E12.32662
G1 X125.476 Y137.942 E12.35226
G1 X125.084 Y138.273 E12.37786
G1 X124.645 Y138.539 E12.40346
G1 X123.752 Y138.876 E12.45108
G1 X123.033 Y139.034 E12.48781
G1 X122.325 Y139.099 E12.52328
G1 X106.054 Y139.1 E13.33504
G1 X105.355 Y139.09 E13.36992
G1 X104.844 Y139.042 E13.39553
G1 X104.346 Y138.916 E13.42116
G1 X103.874 Y138.715 E13.44675
G1 X103.32 Y138.367 E13.47939
G1 X102.618 Y137.688 E13.52811
G1 X102.157 Y137.213 E13.56114
G1 X101.829 Y136.818 E13.58675
G1 X101.484 Y136.198 E13.62215
G1 X100.858 Y134.714 E13.70251
G1 X99.757 Y132.226 E13.83824
G1 X98.586 Y129.772 E13.9739
G1 X97.329 Y127.319 E14.11141
G1 X96.016 Y124.924 E14.24768
G1 X94.635 Y122.568 E14.38392
G1 X93.17 Y120.221 E14.52195
G1 X92.933 Y119.766 E14.54755
G1 X92.77 Y119.279 E14.57317
G1 X92.684 Y118.773 E14.59878
G1 X92.677 Y118.26 E14.62437
G1 X92.75 Y117.751 E14.65003
G1 X92.951 Y117.143 E14.68198
G1 X93.214 Y116.545 E14.71457
G1 X94.313 Y113.967 E14.85438
G1 X95.313 Y111.421 E14.99085
G1 X96.238 Y108.858 E15.12679
G1 X97.09 Y106.272 E15.26263
G1 X97.869 Y103.659 E15.39866
G1 X98.58 Y100.998 E15.53608
G1 X99.21 Y98.35 E15.67187
G1 X99.772 Y95.638 E15.81005
G1 X100.244 Y93 E15.94375
G1 X100.655 Y90.252 E16.08237
G1 X100.978 Y87.571 E16.2171
G1 X101.133 Y85.824 E16.3046
G1 X101.24 Y84.758 E16.35805
G1 X101.331 Y84.253 E16.38365
G1 X101.5 Y83.768 E16.40927
G1 X101.741 Y83.315 E16.43487
G1 X102.141 Y82.805 E16.46721
M204 S500
M205 X10 Y10
G1 F1800 E15.96721
G1 F600 Z0.52
;MESH:EZOut SV06 Mount V1.stl
EXCLUDE_OBJECT_START NAME=EZOut_SV06_Mount_V1_stl
G0 F4000 X116.894 Y101.437 Z0.52
M204 S1000
M205 X5 Y5
;TYPE:WALL-INNER
G1 F600 Z0.2
G1 F1800 E16.46721
G1 F1200 X115.917 Y101.431 E16.51595
G1 X115.186 Y101.308 E16.55293
G1 X114.43 Y101.036 E16.59302
G1 X113.755 Y100.648 E16.63186
G1 X113.145 Y100.131 E16.67175
G1 X112.66 Y99.548 E16.70959
G1 X112.277 Y98.885 E16.74779
G1 X112.009 Y98.152 E16.78673
G1 X111.875 Y97.387 E16.82547
G1 X111.876 Y96.611 E16.86419
G1 X112.01 Y95.848 E16.90284
G1 X112.277 Y95.116 E16.94171
G1 X112.667 Y94.443 E16.98052
G1 X113.158 Y93.856 E17.0187
G1 X113.757 Y93.353 E17.05772
G1 X114.428 Y92.966 E17.09636
G1 X115.352 Y92.63 E17.14542
G1 X116.32 Y92.554 E17.19386
G1 X117.087 Y92.614 E17.23224
G1 X117.845 Y92.817 E17.27139
G1 X118.549 Y93.146 E17.31016
G1 X119.177 Y93.585 E17.34839
G1 X119.728 Y94.136 E17.38726
G1 X120.173 Y94.772 E17.42599
G1 X120.449 Y95.364 E17.45858
G1 X120.534 Y95.6 E17.47109
G1 F1043.5 X120.792 Y96.105 E17.50363
G1 F938.7 X120.839 Y96.999 E17.56072
G1 F933.9 X120.79 Y97.789 E17.61146
G1 F962.6 X120.718 Y97.914 E17.62044
G1 F1102.6 X120.447 Y98.636 E17.66231
G1 F1200 X120.175 Y99.222 E17.69454
G1 X119.738 Y99.849 E17.73267
G1 X119.183 Y100.409 E17.77201
G1 X118.546 Y100.855 E17.8108
G1 X117.834 Y101.184 E17.84993
G1 X116.894 Y101.437 E17.8985
M204 S500
M205 X10 Y10
G0 F4000 X116.841 Y100.83
M204 S1000
M205 X5 Y5
G1 F1200 X115.972 Y100.833 E17.94185
G1 X115.298 Y100.713 E17.97601
G1 X114.687 Y100.489 E18.00847
G1 X114.101 Y100.155 E18.04213
G1 X113.576 Y99.712 E18.0764
G1 X113.154 Y99.205 E18.10931
G1 X112.822 Y98.63 E18.14243
G1 X112.591 Y98 E18.17591
G1 X112.475 Y97.336 E18.20954
G1 X112.476 Y96.663 E18.24311
G1 X112.592 Y96.001 E18.27664
G1 X112.823 Y95.371 E18.31012
G1 X113.159 Y94.789 E18.34365
G1 X113.588 Y94.278 E18.37694
G1 X114.103 Y93.846 E18.41047
G1 X114.678 Y93.513 E18.44362
G1 X115.478 Y93.222 E18.48609
G1 X116.32 Y93.154 E18.52824
G1 X116.99 Y93.208 E18.56177
G1 X117.631 Y93.381 E18.5949
G1 X118.242 Y93.664 E18.62849
G1 X118.794 Y94.05 E18.66209
G1 X119.27 Y94.527 E18.69571
G1 X119.653 Y95.074 E18.72903
G1 X119.933 Y95.679 E18.76229
G1 X120.113 Y96.332 E18.79608
G1 X120.163 Y96.999 E18.82945
G1 X120.105 Y97.669 E18.863
G1 X119.936 Y98.311 E18.89612
G1 X119.653 Y98.922 E18.92972
G1 X119.269 Y99.471 E18.96314
G1 X118.793 Y99.949 E18.9968
G1 X118.241 Y100.335 E19.0304
G1 X117.636 Y100.616 E19.06368
G1 X116.841 Y100.83 E19.10476
M204 S500
M205 X10 Y10
G0 F4000 X116.84 Y100.83
G0 X119.901 Y100.001
G0 X120.992 Y97.962
G0 X121.448 Y125.463
G0 X121.262 Y126.393
G0 X119.219 Y129.434
G0 X116.874 Y131.436
M204 S1000
M205 X5 Y5
G1 F1200 X115.919 Y131.436 E19.1524
G1 X115.151 Y131.301 E19.1913
G1 X114.418 Y131.032 E19.23026
G1 X113.754 Y130.646 E19.26858
G1 X113.157 Y130.145 E19.30746
G1 X112.666 Y129.558 E19.34564
G1 X112.277 Y128.885 E19.38442
G1 X112.009 Y128.152 E19.42336
G1 X111.875 Y127.387 E19.46211
G1 X111.876 Y126.611 E19.50082
G1 X112.01 Y125.848 E19.53947
G1 X112.277 Y125.116 E19.57834
G1 X112.67 Y124.437 E19.61748
G1 X113.162 Y123.86 E19.65531
G1 X113.766 Y123.353 E19.69466
G1 X114.428 Y122.966 E19.73291
G1 X115.352 Y122.632 E19.78193
G1 X116.32 Y122.548 E19.83041
G1 X117.094 Y122.615 E19.86917
G1 X117.846 Y122.818 E19.90803
G1 X118.548 Y123.146 E19.94668
G1 X119.177 Y123.585 E19.98495
G1 X119.728 Y124.136 E20.02383
G1 X120.173 Y124.772 E20.06255
G1 X120.449 Y125.364 E20.09514
G1 X120.534 Y125.6 E20.10765
G1 F1043.5 X120.792 Y126.105 E20.14019
G1 F938.7 X120.839 Y126.999 E20.19729
G1 F933.9 X120.79 Y127.789 E20.24803
G1 F962.6 X120.718 Y127.914 E20.257
G1 F1102.6 X120.447 Y128.636 E20.29887
G1 F1200 X120.175 Y129.222 E20.33111
G1 X119.738 Y129.849 E20.36923
G1 X119.182 Y130.41 E20.40864
G1 X118.542 Y130.857 E20.44759
G1 X117.837 Y131.185 E20.48638
G1 X116.874 Y131.436 E20.53603
M204 S500
M205 X10 Y10
G0 F4000 X116.806 Y130.836
M204 S1000
M205 X5 Y5
G1 F1200 X115.972 Y130.836 E20.57764
G1 X115.31 Y130.72 E20.61117
G1 X114.68 Y130.489 E20.64465
G1 X114.102 Y130.156 E20.67793
G1 X113.586 Y129.722 E20.71156
G1 X113.156 Y129.208 E20.745
G1 X112.822 Y128.63 E20.7783
G1 X112.591 Y128 E20.81178
G1 X112.475 Y127.336 E20.84541
G1 X112.476 Y126.663 E20.87898
G1 X112.592 Y126.001 E20.91251
G1 X112.823 Y125.371 E20.94599
G1 X113.158 Y124.791 E20.97941
G1 X113.588 Y124.283 E21.01261
G1 X114.101 Y123.846 E21.04623
G1 X114.653 Y123.529 E21.07799
G1 X115.456 Y123.23 E21.12074
G1 X116.318 Y123.15 E21.16393
G1 X116.993 Y123.209 E21.19773
G1 X117.631 Y123.381 E21.2307
G1 X118.242 Y123.664 E21.26429
G1 X118.794 Y124.05 E21.2979
G1 X119.27 Y124.527 E21.33152
G1 X119.653 Y125.074 E21.36483
G1 X119.933 Y125.679 E21.39809
G1 X120.113 Y126.332 E21.43189
G1 X120.163 Y126.999 E21.46526
G1 X120.105 Y127.669 E21.49881
G1 X119.936 Y128.311 E21.53193
G1 X119.653 Y128.922 E21.56552
G1 X119.269 Y129.471 E21.59895
G1 X118.793 Y129.949 E21.6326
G1 X118.242 Y130.334 E21.66614
G1 X117.627 Y130.62 E21.69998
G1 X116.806 Y130.836 E21.74233
M204 S500
M205 X10 Y10
G0 F4000 X119.901 Y130.001
G0 X120.992 Y127.962
G0 X121.437 Y134.069
G0 X106.02 Y134.3
M204 S1000
M205 X5 Y5
G1 F1200 X121.669 Y134.301 E22.52306
G1 X121.669 Y128.539 E22.81053
G1 F1102.6 X121.616 Y128.031 E22.83826
G1 F962.6 X121.574 Y127.857 E22.84939
G1 F933.9 X121.593 Y126.999 E22.90441
G1 F941.2 X121.581 Y126.328 E22.9471
G1 F907.9 X121.565 Y125.957 E22.97159
G1 F1022.7 X121.669 Y125.448 E23.002
G1 F1200 X121.669 Y98.539 E24.34449
G1 F1102.6 X121.616 Y98.031 E24.37223
G1 F962.6 X121.574 Y97.857 E24.38336
G1 F933.9 X121.593 Y96.999 E24.43838
G1 F941.2 X121.581 Y96.328 E24.48107
G1 F907.9 X121.565 Y95.957 E24.50555
G1 F1022.7 X121.669 Y95.448 E24.53597
G1 F1200 X121.669 Y85.699 E25.02235
G1 X106.014 Y85.705 E25.80338
G1 X106.013 Y101.952 E26.61394
G1 X105.966 Y102.266 E26.62978
G1 X105.417 Y104.385 E26.73899
G1 X97.996 Y117.883 E27.50747
G1 X98.752 Y118.3 E27.55055
G1 X103.549 Y118.3 E27.78987
G1 X103.819 Y118.36 E27.80367
G1 X104.14 Y118.496 E27.82106
G1 X104.37 Y118.658 E27.8351
G1 X105.657 Y119.94 E27.92573
G1 X105.883 Y120.304 E27.9471
G1 X106.014 Y120.82 E27.97366
G1 X106.02 Y134.3 E28.64618
M204 S500
M205 X10 Y10
G0 F4000 X122.269 Y134.9
M204 S1000
M205 X5 Y5
G1 F1200 X122.269 Y85.101 E31.13066
G1 X105.771 Y85.099 E31.95375
G1 X105.414 Y85.457 E31.97898
G1 X105.413 Y102.005 E32.80456
G1 X104.863 Y104.15 E32.91504
G1 X97.181 Y118.119 E33.71038
G1 X98.597 Y118.9 E33.79106
G1 X103.492 Y118.9 E34.03527
G1 X103.843 Y119.017 E34.05373
G1 X103.981 Y119.114 E34.06215
G1 X105.206 Y120.337 E34.14851
G1 X105.316 Y120.509 E34.15869
G1 X105.413 Y120.799 E34.17395
G1 X105.414 Y134.543 E34.85964
G1 X105.771 Y134.9 E34.88483
G1 X122.269 Y134.9 E35.70792
M204 S500
M205 X10 Y10
G0 F4000 X121.338 Y128.006
G0 X118.394 Y130.741
G0 X116.905 Y130.812
G0 X116.751 Y130.232
M204 S1000
M205 X5 Y5
;TYPE:WALL-OUTER
G1 F1200 X116.002 Y130.232 E35.74528
G1 X115.443 Y130.129 E35.77364
G1 X114.912 Y129.93 E35.80193
G1 X114.469 Y129.674 E35.82746
G1 X113.996 Y129.277 E35.85827
G1 X113.666 Y128.883 E35.88391
G1 X113.359 Y128.351 E35.91455
G1 X113.168 Y127.815 E35.94294
G1 X113.079 Y127.307 E35.96867
G1 X113.08 Y126.694 E35.99925
G1 X113.183 Y126.134 E36.02766
G1 X113.382 Y125.603 E36.05595
G1 X113.667 Y125.118 E36.08402
G1 X114.014 Y124.705 E36.11093
G1 X114.45 Y124.34 E36.1393
G1 X114.927 Y124.063 E36.16682
G1 X115.612 Y123.815 E36.20316
G1 X116.347 Y123.755 E36.23995
G1 X116.911 Y123.809 E36.26822
G1 X117.451 Y123.958 E36.29617
G1 X117.919 Y124.175 E36.3219
G1 X118.424 Y124.529 E36.35267
G1 X118.822 Y124.934 E36.381
G1 X119.143 Y125.4 E36.40923
G1 X119.36 Y125.868 E36.43497
G1 X119.521 Y126.462 E36.46567
G1 X119.563 Y126.999 E36.49255
G1 X119.513 Y127.565 E36.52089
G1 X119.359 Y128.131 E36.55016
G1 X119.142 Y128.599 E36.57589
G1 X118.821 Y129.065 E36.60413
G1 X118.423 Y129.47 E36.63245
G1 X117.918 Y129.824 E36.66322
G1 X117.45 Y130.041 E36.68896
G1 X116.751 Y130.232 E36.72511
M204 S500
M205 X10 Y10
G0 F4000 X116.905 Y130.812
G0 X119.901 Y130.001
G0 X120.992 Y127.962
G0 X121.437 Y134.069
G0 X105.767 Y134.908
G0 X105.523 Y135.5
M204 S1000
M205 X5 Y5
G1 F1200 X122.292 Y135.501 E37.56172
G1 X122.626 Y135.464 E37.57849
G1 X122.869 Y135.383 E37.59126
G1 X122.869 Y84.618 E40.12394
G1 X122.627 Y84.537 E40.13667
G1 X122.292 Y84.499 E40.15349
G1 X105.522 Y84.499 E40.99015
G1 X104.814 Y85.209 E41.04018
G1 X104.811 Y101.933 E41.87454
G1 X104.3 Y103.928 E41.97728
G1 X96.366 Y118.355 E42.79871
G1 X98.443 Y119.5 E42.91704
G1 X103.442 Y119.503 E43.16644
G1 X103.592 Y119.571 E43.17465
G1 X104.75 Y120.732 E43.25646
G1 X104.809 Y120.865 E43.26372
G1 X104.814 Y134.791 E43.95849
G1 X105.523 Y135.5 E44.00852
M204 S500
M205 X10 Y10
G0 F4000 X105.767 Y134.908
G0 X121.437 Y134.069
G0 X121.448 Y98.531
G0 X121.192 Y97.744
G0 X117.73 Y100.914
G0 X116.737 Y100.836
G0 X116.737 Y100.234
M204 S1000
M205 X5 Y5
G1 F1200 X116.026 Y100.235 E44.04399
G1 X115.464 Y100.136 E44.07246
G1 X114.937 Y99.943 E44.10046
G1 X114.467 Y99.673 E44.1275
G1 X114.021 Y99.303 E44.15641
G1 X113.659 Y98.874 E44.18442
G1 X113.359 Y98.351 E44.2145
G1 X113.168 Y97.815 E44.24288
G1 X113.079 Y97.307 E44.26861
G1 X113.08 Y96.694 E44.2992
G1 X113.169 Y96.186 E44.32493
G1 X113.382 Y95.603 E44.35589
G1 X113.667 Y95.118 E44.38396
G1 X113.997 Y94.724 E44.4096
G1 X114.47 Y94.327 E44.44041
G1 X114.913 Y94.071 E44.46593
G1 X115.62 Y93.814 E44.50346
G1 X116.32 Y93.754 E44.53852
G1 X116.911 Y93.809 E44.56813
G1 X117.451 Y93.958 E44.59608
G1 X117.919 Y94.175 E44.62181
G1 X118.424 Y94.529 E44.65258
G1 X118.822 Y94.934 E44.68091
G1 X119.143 Y95.4 E44.70914
G1 X119.36 Y95.868 E44.73488
G1 X119.521 Y96.462 E44.76558
G1 X119.563 Y96.999 E44.79245
G1 X119.513 Y97.565 E44.8208
G1 X119.359 Y98.131 E44.85007
G1 X119.142 Y98.599 E44.8758
G1 X118.821 Y99.065 E44.90403
G1 X118.423 Y99.47 E44.93236
G1 X117.918 Y99.824 E44.96313
G1 X117.45 Y100.041 E44.98887
G1 X116.737 Y100.234 E45.02572
M204 S500
M205 X10 Y10
G0 F4000 X116.737 Y100.836
G0 X119.901 Y100.001
G0 X120.992 Y97.962
G0 X121.437 Y134.069
G0 X106.246 Y134.068
G0 X106.574 Y133.739
M204 S1000
M205 X5 Y5
;TYPE:SKIN
G1 F1200 X106.573 Y120.832 E45.66965
G1 X106.495 Y120.354 E45.69381
G1 X106.307 Y119.902 E45.71824
G1 X106.091 Y119.58 E45.73758
G1 X104.739 Y118.234 E45.83276
G1 X104.386 Y117.993 E45.85409
