; generated by PrusaSlicer 2.6.1+win64 on 2023-10-15 at 00:17:29 UTC

; 

; external perimeters extrusion width = 0.40mm
; perimeters extrusion width = 0.40mm
; infill extrusion width = 0.64mm
; solid infill extrusion width = 0.56mm
; top infill extrusion width = 0.40mm
; support material extrusion width = 0.46mm
; first layer extrusion width = 0.50mm

;TYPE:Custom
M104 S0 ; Stops PS/SS from sending temp waits separately


; Pre-Processed for Cancel-Object support by preprocess_cancellation v0.2.0
; 2 known objects
EXCLUDE_OBJECT_DEFINE NAME=SUPPORT_V2_Short_stl_id_0_copy_0 CENTER=112.562,117.387 POLYGON=[[107.884,80.568],[107.884,154.432],[117.137,154.432],[117.137,80.568]]
EXCLUDE_OBJECT_DEFINE NAME=SUPPORT_V2_Short_stl_id_1_copy_0 CENTER=132.236,118.586 POLYGON=[[127.558,81.768],[127.558,155.633],[136.811,155.633],[136.811,81.768]]
M140 S0
M117
PRINT_START BED=60 HOTEND=215
PURGE_LINE

;; If you are passing variables to PRINT_START, comment out above line and uncomment the last 3 lines instead. (I already did this)
;; Guide: https://github.com/AndrewEllis93/Print-Tuning-Guide/blob/main/articles/passing_slicer_variables.md
;; Make sure the variable names match (for example if you use "EXTRUDER" instead of "HOTEND")
G21 ; set units to millimeters
G90 ; use absolute coordinates
M82 ; use absolute distances for extrusion
G92 E0
; Filament gcode
M107
;LAYER_CHANGE
;Z:0.25
;HEIGHT:0.25
G1 Z.25 F18000
; printing object SUPPORT_V2_Short.stl id:0 copy 0
EXCLUDE_OBJECT_START NAME=SUPPORT_V2_Short_stl_id_0_copy_0
G1 E-.5 F2400
G92 E0
M204 S3500
G1 X113.168 Y80.868 F18000
G1 E.5 F2400
M204 S1000
;TYPE:Support material
;WIDTH:0.5
G1 F1800
G1 X114.499 Y80.868 E.56175
G1 X115.86 Y81.523 E.63182
G1 X116.801 Y82.703 E.70184
G1 X117.137 Y84.175 E.77189
G1 X116.923 Y85.112 E.81648
G1 X117.137 Y86.049 E.86107
G1 X116.919 Y87.003 E.90647
G1 X117.137 Y87.958 E.95191
G1 X116.801 Y89.43 E1.02196
G1 X116.574 Y89.715 E1.03886
G1 X116.603 Y89.848 E1.04518
G1 X116.066 Y92.117 E1.15335
G1 X115.143 Y92.117 E1.19617
G1 X115.143 Y90.439 E1.27402
G1 X114.821 Y90.117 E1.29515
G1 X110.179 Y90.117 E1.5105
G1 X109.857 Y90.439 E1.53163
G1 X109.857 Y92.798 E1.64107
G1 X109.516 Y92.917 E1.65783
G1 X108.223 Y91.301 E1.75384
G1 X107.884 Y89.831 E1.82383
G1 X108.217 Y88.357 E1.89394
G1 X108.608 Y87.866 E1.92306
G1 X108.515 Y87.456 E1.94256
G1 X108.85 Y85.985 E2.01255
G1 X109.046 Y85.74 E2.02711
G1 X108.733 Y85.347 E2.05042
G1 X108.397 Y83.875 E2.12047
G1 X108.733 Y82.403 E2.19052
G1 X109.674 Y81.223 E2.26054
G1 X111.035 Y80.568 E2.33061
G1 X112.545 Y80.568 E2.40066
G1 X113.107 Y80.838 E2.42959
M204 S3500
G1 X116.468 Y89.526 F18000
M204 S1000
G1 F1800
G1 X116.468 Y83.047 E2.73017
G1 X116.43 Y82.882 E2.73803
G1 X115.972 Y82.307 E2.77213
G1 X115.972 Y90.77 E3.16475
G1 X115.748 Y91.715 E3.20981
G1 X115.545 Y91.715 E3.21923
G1 X115.545 Y90.272 E3.28617
G1 X115.476 Y90.204 E3.29066
G1 X115.476 Y81.784 E3.68129
G1 X114.98 Y81.545 E3.70683
G1 X114.98 Y89.715 E4.08586
G1 X114.484 Y89.715 E4.10887
G1 X114.484 Y81.306 E4.49899
G1 X114.408 Y81.269 E4.50291
G1 X113.988 Y81.269 E4.52239
G1 X113.988 Y89.715 E4.91422
G1 X113.492 Y89.715 E4.93723
G1 X113.492 Y81.269 E5.32906
G1 X113.076 Y81.269 E5.34836
G1 X112.996 Y81.231 E5.35247
G1 X112.996 Y89.715 E5.74607
G1 X112.5 Y89.715 E5.76908
G1 X112.5 Y80.992 E6.17376
G1 X112.453 Y80.969 E6.17619
G1 X112.004 Y80.969 E6.19702
G1 X112.004 Y89.715 E6.60277
G1 X111.508 Y89.715 E6.62578
G1 X111.508 Y80.969 E7.03153
G1 X111.126 Y80.969 E7.04925
G1 X111.012 Y81.024 E7.05512
G1 X111.012 Y89.715 E7.45832
G1 X110.516 Y89.715 E7.48133
G1 X110.516 Y81.263 E7.87344
G1 X110.02 Y81.502 E7.89898
G1 X110.02 Y89.715 E8.28
G1 X110.013 Y89.715 E8.28032
G1 X109.524 Y90.203 E8.31237
G1 X109.524 Y82.055 E8.69038
G1 X109.104 Y82.582 E8.72164
G1 X109.028 Y82.914 E8.73744
G1 X109.028 Y85.396 E8.85259
M204 S3500
G1 X109.028 Y91.987 F18000
M204 S1000
G1 F1800
G1 X109.028 Y86.108 E9.12533
M204 S3500
G1 X108.532 Y91.367 F18000
M204 S1000
G1 F1800
G1 X108.532 Y88.284 E9.26836
M204 S3500
G1 E8.76836 F2400
G92 E0
G1 X116.801 Y143.975 F18000
G1 E.5 F2400
M204 S1000
G1 F1800
G1 X117.137 Y145.447 E.57005
G1 X116.923 Y146.384 E.61464
G1 X117.137 Y147.32 E.65918
G1 X116.919 Y148.275 E.70462
G1 X117.137 Y149.229 E.75002
G1 X116.801 Y150.701 E.82007
G1 X116.572 Y150.989 E.83714
G1 X116.603 Y151.125 E.84361
G1 X116.267 Y152.597 E.91366
G1 X115.326 Y153.777 E.98368
G1 X113.965 Y154.432 E1.05375
G1 X112.455 Y154.432 E1.1238
G1 X112.222 Y154.32 E1.13579
G1 X112.032 Y154.412 E1.14558
G1 X110.522 Y154.412 E1.21563
G1 X109.162 Y153.757 E1.28566
G1 X108.22 Y152.576 E1.35574
G1 X107.884 Y151.104 E1.42579
G1 X108.22 Y149.632 E1.49584
G1 X108.609 Y149.145 E1.52476
G1 X108.515 Y148.728 E1.54459
G1 X108.85 Y147.257 E1.61458
G1 X109.034 Y147.027 E1.62824
G1 X108.721 Y146.629 E1.65173
G1 X108.397 Y145.152 E1.72188
G1 X108.934 Y142.883 E1.83005
G1 X109.857 Y142.883 E1.87287
G1 X109.857 Y144.561 E1.95072
G1 X110.179 Y144.883 E1.97185
G1 X114.821 Y144.883 E2.1872
G1 X115.143 Y144.561 E2.20833
G1 X115.143 Y142.447 E2.3064
G1 X115.487 Y142.327 E2.3233
G1 X116.759 Y143.922 E2.41795
M204 S3500
G1 X116.468 Y150.797 F18000
M204 S1000
G1 F1800
G1 X116.468 Y144.318 E2.71853
G1 X116.43 Y144.154 E2.72634
G1 X115.972 Y143.579 E2.76044
G1 X115.972 Y152.086 E3.1551
G1 X115.896 Y152.418 E3.1709
G1 X115.476 Y152.945 E3.20216
G1 X115.476 Y144.796 E3.58021
G1 X114.987 Y145.285 E3.61229
G1 X114.98 Y145.285 E3.61261
G1 X114.98 Y153.498 E3.99363
G1 X114.484 Y153.737 E4.01917
G1 X114.484 Y145.285 E4.41128
G1 X113.988 Y145.285 E4.43429
G1 X113.988 Y153.976 E4.83749
G1 X113.874 Y154.031 E4.84336
G1 X113.492 Y154.031 E4.86108
G1 X113.492 Y145.285 E5.26683
G1 X112.996 Y145.285 E5.28984
G1 X112.996 Y154.031 E5.69559
G1 X112.547 Y154.031 E5.71642
G1 X112.5 Y154.008 E5.71885
G1 X112.5 Y145.285 E6.12353
G1 X112.004 Y145.285 E6.14654
G1 X112.004 Y153.979 E6.54988
G1 X111.94 Y154.01 E6.55318
G1 X111.508 Y154.01 E6.57322
G1 X111.508 Y145.285 E6.978
G1 X111.012 Y145.285 E7.00101
G1 X111.012 Y154.01 E7.40579
G1 X110.614 Y154.01 E7.42425
G1 X110.516 Y153.963 E7.42929
G1 X110.516 Y145.285 E7.83189
G1 X110.02 Y145.285 E7.8549
G1 X110.02 Y153.725 E8.24645
G1 X109.524 Y153.486 E8.27199
G1 X109.524 Y144.796 E8.67514
G1 X109.455 Y144.728 E8.67963
G1 X109.455 Y143.285 E8.74657
G1 X109.252 Y143.285 E8.75599
G1 X109.028 Y144.23 E8.80105
G1 X109.028 Y146.695 E8.91541
M204 S3500
G1 X109.028 Y153.268 F18000
M204 S1000
G1 F1800
G1 X109.028 Y147.379 E9.18862
M204 S3500
G1 X108.532 Y152.646 F18000
M204 S1000
G1 F1800
G1 X108.532 Y149.563 E9.33165
M204 S3500
G1 E8.83165 F2400
G92 E0
G1 X110.857 Y143.883 F18000
G1 E.5 F2400
M204 S1000
;TYPE:External perimeter
G1 F1800
G1 X110.857 Y91.117 E2.94795
G1 X114.143 Y91.117 E3.1004
G1 X114.143 Y143.883 E5.54835
G1 X110.917 Y143.883 E5.69801
M204 S3500
G1 X110.865 Y143.483 F18000
G1 X111.303 Y143.437
M204 S1000
;TYPE:Perimeter
G1 F1800
G1 X111.303 Y91.563 E8.10458
G1 X113.697 Y91.563 E8.21564
G1 X113.697 Y143.437 E10.62221
G1 X111.363 Y143.437 E10.73049
M204 S3500
G1 X111.75 Y142.991 F18000
M204 S1000
G1 F1800
G1 X111.75 Y92.009 E13.09568
G1 X113.25 Y92.009 E13.16527
G1 X113.25 Y142.991 E15.53046
G1 X111.81 Y142.991 E15.59727
M204 S3500
G1 E15.09727 F2400
G92 E0
G1 X113.116 Y93.051 F18000
G1 E.5 F2400
M204 S1000
;TYPE:Solid infill
;WIDTH:0.502363
G1 F1800
G1 X112.209 Y92.143 E.55986
M204 S3500
G1 X111.884 Y92.453 F18000
M204 S1000
G1 F1800
G1 X113.116 Y93.685 E.64112
M204 S3500
G1 X113.116 Y94.32 F18000
M204 S1000
G1 F1800
G1 X111.884 Y93.087 E.72241
M204 S3500
G1 X111.884 Y93.722 F18000
M204 S1000
G1 F1800
G1 X113.116 Y94.954 E.80367
M204 S3500
G1 X113.116 Y95.589 F18000
M204 S1000
G1 F1800
G1 X111.884 Y94.356 E.88496
M204 S3500
G1 X111.884 Y94.991 F18000
M204 S1000
G1 F1800
G1 X113.116 Y96.223 E.96622
M204 S3500
G1 X113.116 Y96.858 F18000
M204 S1000
G1 F1800
G1 X111.884 Y95.625 E1.04751
M204 S3500
G1 X111.884 Y96.26 F18000
M204 S1000
G1 F1800
G1 X113.116 Y97.493 E1.1288
M204 S3500
G1 X113.116 Y98.127 F18000
M204 S1000
G1 F1800
G1 X111.884 Y96.895 E1.21006
M204 S3500
G1 X111.884 Y97.529 F18000
M204 S1000
G1 F1800
G1 X113.116 Y98.762 E1.29135
M204 S3500
G1 X113.116 Y99.396 F18000
M204 S1000
G1 F1800
G1 X111.884 Y98.164 E1.37261
M204 S3500
G1 X111.884 Y98.798 F18000
M204 S1000
G1 F1800
G1 X113.116 Y100.031 E1.4539
M204 S3500
G1 X113.116 Y100.665 F18000
M204 S1000
G1 F1800
G1 X111.884 Y99.433 E1.53516
M204 S3500
G1 X111.884 Y100.067 F18000
M204 S1000
G1 F1800
G1 X113.116 Y101.3 E1.61645
M204 S3500
G1 X113.116 Y101.935 F18000
M204 S1000
G1 F1800
G1 X111.884 Y100.702 E1.69774
M204 S3500
G1 X111.884 Y101.337 F18000
M204 S1000
G1 F1800
G1 X113.116 Y102.569 E1.779
M204 S3500
G1 X113.116 Y103.204 F18000
M204 S1000
G1 F1800
G1 X111.884 Y101.971 E1.86029
M204 S3500
G1 X111.884 Y102.606 F18000
M204 S1000
G1 F1800
G1 X113.116 Y103.838 E1.94155
M204 S3500
G1 X113.116 Y104.473 F18000
M204 S1000
G1 F1800
G1 X111.884 Y103.24 E2.02284
M204 S3500
G1 X111.884 Y103.875 F18000
M204 S1000
G1 F1800
G1 X113.116 Y105.108 E2.10413
M204 S3500
G1 X113.116 Y105.742 F18000
M204 S1000
G1 F1800
G1 X111.884 Y104.509 E2.18542
M204 S3500
G1 X111.884 Y105.144 F18000
M204 S1000
G1 F1800
G1 X113.116 Y106.377 E2.26671
M204 S3500
G1 X113.116 Y107.011 F18000
M204 S1000
G1 F1800
G1 X111.884 Y105.779 E2.34797
M204 S3500
G1 X111.884 Y106.413 F18000
M204 S1000
G1 F1800
G1 X113.116 Y107.646 E2.42926
M204 S3500
G1 X113.116 Y108.28 F18000
M204 S1000
G1 F1800
G1 X111.884 Y107.048 E2.51052
M204 S3500
G1 X111.884 Y107.682 F18000
M204 S1000
G1 F1800
G1 X113.116 Y108.915 E2.59181
M204 S3500
G1 X113.116 Y109.55 F18000
M204 S1000
G1 F1800
G1 X111.884 Y108.317 E2.6731
M204 S3500
G1 X111.884 Y108.952 F18000
M204 S1000
G1 F1800
G1 X113.116 Y110.184 E2.75436
M204 S3500
G1 X113.116 Y110.819 F18000
M204 S1000
G1 F1800
G1 X111.884 Y109.586 E2.83565
M204 S3500
G1 X111.884 Y110.221 F18000
M204 S1000
G1 F1800
G1 X113.116 Y111.453 E2.91691
M204 S3500
G1 X113.116 Y112.088 F18000
M204 S1000
G1 F1800
G1 X111.884 Y110.855 E2.9982
M204 S3500
G1 X111.884 Y111.49 F18000
M204 S1000
G1 F1800
G1 X113.116 Y112.722 E3.07946
M204 S3500
G1 X113.116 Y113.357 F18000
M204 S1000
G1 F1800
G1 X111.884 Y112.124 E3.16075
M204 S3500
G1 X111.884 Y112.759 F18000
M204 S1000
G1 F1800
G1 X113.116 Y113.992 E3.24204
M204 S3500
G1 X113.116 Y114.626 F18000
M204 S1000
G1 F1800
G1 X111.884 Y113.394 E3.3233
M204 S3500
G1 X111.884 Y114.028 F18000
M204 S1000
G1 F1800
G1 X113.116 Y115.261 E3.40459
M204 S3500
G1 X113.116 Y115.895 F18000
M204 S1000
G1 F1800
G1 X111.884 Y114.663 E3.48585
M204 S3500
G1 X111.884 Y115.297 F18000
M204 S1000
G1 F1800
G1 X113.116 Y116.53 E3.56714
M204 S3500
G1 X113.116 Y117.164 F18000
M204 S1000
G1 F1800
G1 X111.884 Y115.932 E3.6484
M204 S3500
G1 X111.884 Y116.566 F18000
M204 S1000
G1 F1800
G1 X113.116 Y117.799 E3.72969
M204 S3500
G1 X113.116 Y118.434 F18000
M204 S1000
G1 F1800
G1 X111.884 Y117.201 E3.81098
M204 S3500
G1 X111.884 Y117.836 F18000
M204 S1000
G1 F1800
G1 X113.116 Y119.068 E3.89224
M204 S3500
G1 X113.116 Y119.703 F18000
M204 S1000
G1 F1800
G1 X111.884 Y118.47 E3.97353
M204 S3500
G1 X111.884 Y119.105 F18000
M204 S1000
G1 F1800
G1 X113.116 Y120.337 E4.05479
M204 S3500
G1 X113.116 Y120.972 F18000
M204 S1000
G1 F1800
G1 X111.884 Y119.739 E4.13608
M204 S3500
G1 X111.884 Y120.374 F18000
M204 S1000
G1 F1800
G1 X113.116 Y121.606 E4.21734
M204 S3500
G1 X113.116 Y122.241 F18000
M204 S1000
G1 F1800
G1 X111.884 Y121.008 E4.29863
M204 S3500
G1 X111.884 Y121.643 F18000
M204 S1000
G1 F1800
G1 X113.116 Y122.876 E4.37992
M204 S3500
G1 X113.116 Y123.51 F18000
M204 S1000
G1 F1800
G1 X111.884 Y122.278 E4.46118
M204 S3500
G1 X111.884 Y122.912 F18000
M204 S1000
G1 F1800
G1 X113.116 Y124.145 E4.54247
M204 S3500
G1 X113.116 Y124.779 F18000
M204 S1000
G1 F1800
G1 X111.884 Y123.547 E4.62373
M204 S3500
G1 X111.884 Y124.181 F18000
M204 S1000
G1 F1800
G1 X113.116 Y125.414 E4.70502
M204 S3500
G1 X113.116 Y126.049 F18000
M204 S1000
G1 F1800
G1 X111.884 Y124.816 E4.78631
M204 S3500
G1 X111.884 Y125.45 F18000
M204 S1000
G1 F1800
G1 X113.116 Y126.683 E4.8676
M204 S3500
G1 X113.116 Y127.318 F18000
M204 S1000
G1 F1800
G1 X111.884 Y126.085 E4.94889
M204 S3500
G1 X111.884 Y126.72 F18000
M204 S1000
G1 F1800
G1 X113.116 Y127.952 E5.03015
M204 S3500
G1 X113.116 Y128.587 F18000
M204 S1000
G1 F1800
G1 X111.884 Y127.354 E5.11144
M204 S3500
G1 X111.884 Y127.989 F18000
M204 S1000
G1 F1800
G1 X113.116 Y129.221 E5.1927
M204 S3500
G1 X113.116 Y129.856 F18000
M204 S1000
G1 F1800
G1 X111.884 Y128.623 E5.27399
M204 S3500
G1 X111.884 Y129.258 F18000
M204 S1000
G1 F1800
G1 X113.116 Y130.491 E5.35528
M204 S3500
G1 X113.116 Y131.125 F18000
M204 S1000
G1 F1800
G1 X111.884 Y129.893 E5.43654
M204 S3500
G1 X111.884 Y130.527 F18000
M204 S1000
G1 F1800
G1 X113.116 Y131.76 E5.51783
M204 S3500
G1 X113.116 Y132.394 F18000
M204 S1000
G1 F1800
G1 X111.884 Y131.162 E5.59909
M204 S3500
G1 X111.884 Y131.796 F18000
M204 S1000
G1 F1800
G1 X113.116 Y133.029 E5.68038
M204 S3500
G1 X113.116 Y133.663 F18000
M204 S1000
G1 F1800
G1 X111.884 Y132.431 E5.76164
M204 S3500
G1 X111.884 Y133.065 F18000
M204 S1000
G1 F1800
G1 X113.116 Y134.298 E5.84293
M204 S3500
G1 X113.116 Y134.933 F18000
M204 S1000
G1 F1800
G1 X111.884 Y133.7 E5.92422
M204 S3500
G1 X111.884 Y134.335 F18000
M204 S1000
G1 F1800
G1 X113.116 Y135.567 E6.00548
M204 S3500
G1 X113.116 Y136.202 F18000
M204 S1000
G1 F1800
G1 X111.884 Y134.969 E6.08677
M204 S3500
G1 X111.884 Y135.604 F18000
M204 S1000
G1 F1800
G1 X113.116 Y136.836 E6.16803
M204 S3500
G1 X113.116 Y137.471 F18000
M204 S1000
G1 F1800
G1 X111.884 Y136.238 E6.24932
M204 S3500
G1 X111.884 Y136.873 F18000
M204 S1000
G1 F1800
G1 X113.116 Y138.105 E6.33058
M204 S3500
G1 X113.116 Y138.74 F18000
M204 S1000
G1 F1800
G1 X111.884 Y137.507 E6.41187
M204 S3500
G1 X111.884 Y138.142 F18000
M204 S1000
G1 F1800
G1 X113.116 Y139.375 E6.49316
M204 S3500
G1 X113.116 Y140.009 F18000
M204 S1000
G1 F1800
G1 X111.884 Y138.777 E6.57442
M204 S3500
G1 X111.884 Y139.411 F18000
M204 S1000
G1 F1800
G1 X113.116 Y140.644 E6.65571
M204 S3500
G1 X113.116 Y141.278 F18000
M204 S1000
G1 F1800
G1 X111.884 Y140.046 E6.73697
M204 S3500
G1 X111.884 Y140.68 F18000
M204 S1000
G1 F1800
G1 X113.116 Y141.913 E6.81826
M204 S3500
G1 X113.116 Y142.547 F18000
M204 S1000
G1 F1800
G1 X111.884 Y141.315 E6.89952
M204 S3500
G1 X111.884 Y141.949 F18000
M204 S1000
G1 F1800
G1 X112.791 Y142.857 E6.95938
M204 S3500
; stop printing object SUPPORT_V2_Short.stl id:0 copy 0
EXCLUDE_OBJECT_END NAME=SUPPORT_V2_Short_stl_id_0_copy_0
; printing object SUPPORT_V2_Short.stl id:1 copy 0
EXCLUDE_OBJECT_START NAME=SUPPORT_V2_Short_stl_id_1_copy_0
G1 E6.45938 F2400
G92 E0
G1 X136.475 Y145.175 F18000
G1 E.5 F2400
M204 S1000
;TYPE:Support material
;WIDTH:0.5
G1 F1800
G1 X136.811 Y146.648 E.57009
G1 X136.597 Y147.584 E.61463
G1 X136.811 Y148.521 E.65922
G1 X136.593 Y149.475 E.70462
G1 X136.811 Y150.43 E.75006
G1 X136.475 Y151.902 E.82011
G1 X136.245 Y152.189 E.83717
G1 X136.277 Y152.325 E.84365
G1 X135.941 Y153.797 E.9137
G1 X134.999 Y154.978 E.98378
G1 X133.639 Y155.633 E1.05381
G1 X132.129 Y155.633 E1.12386
G1 X131.896 Y155.521 E1.13585
G1 X131.705 Y155.613 E1.14569
G1 X130.195 Y155.613 E1.21574
G1 X128.835 Y154.958 E1.28577
G1 X127.894 Y153.777 E1.35583
G1 X127.558 Y152.305 E1.42588
G1 X127.894 Y150.833 E1.49593
G1 X128.283 Y150.345 E1.52488
G1 X128.188 Y149.928 E1.54472
G1 X128.524 Y148.457 E1.61472
G1 X128.707 Y148.228 E1.62832
G1 X128.394 Y147.829 E1.65185
G1 X128.071 Y146.353 E1.72195
G1 X128.608 Y144.084 E1.83012
G1 X129.531 Y144.084 E1.87294
G1 X129.531 Y145.762 E1.95079
G1 X129.853 Y146.084 E1.97192
G1 X134.494 Y146.084 E2.18723
G1 X134.816 Y145.762 E2.20836
G1 X134.816 Y143.648 E2.30643
G1 X135.16 Y143.527 E2.32335
G1 X136.433 Y145.123 E2.41806
M204 S3500
G1 X136.141 Y151.998 F18000
M204 S1000
G1 F1800
G1 X136.141 Y145.519 E2.71864
G1 X136.103 Y145.354 E2.7265
G1 X135.645 Y144.78 E2.76057
G1 X135.645 Y153.287 E3.15523
G1 X135.569 Y153.619 E3.17103
G1 X135.149 Y154.146 E3.20229
G1 X135.149 Y145.997 E3.58034
G1 X134.661 Y146.486 E3.61239
