; generated by PrusaSlicer 2.6.1+win64 on 2023-10-05 at 17:18:53 UTC


;
;
; 

; external perimeters extrusion width = 0.45mm
; perimeters extrusion width = 0.45mm
; infill extrusion width = 0.45mm
; solid infill extrusion width = 0.45mm
; top infill extrusion width = 0.40mm
; support material extrusion width = 0.35mm
; first layer extrusion width = 0.42mm

M73 P0 R19


; Pre-Processed for Cancel-Object support by preprocess_cancellation v0.2.0
; 1 known objects
EXCLUDE_OBJECT_DEFINE NAME=sv06_pip_bed_bracket_stl_id_0_copy_0 CENTER=109.957,109.040 POLYGON=[[93.214,97.828],[93.214,122.172],[126.786,122.172],[126.786,97.828]]
;TYPE:Custom
M104 S230 ; set extruder temp
M140 S85 ; set bed temp
M190 S85 ; wait for bed temp
M109 S230 ; wait for extruder temp
G28;
G1 Z4.0 F3000 ;Move Z Axis up
G92 E0 ;Reset Extruder
G1 X5.1 Y20 Z0.28 F5000.0 ;Move to start position
G1 X5.1 Y30.0 Z0.28 F1500.0 E1 ;Draw a short bit in case the extruder turns in the wrong direction
G1 X5.1 Y200.0 Z0.28 F1500.0 E15 ;Draw the first line
G1 X5.4 Y200.0 Z0.28 F5000.0 ;Move to side a little
G1 X5.4 Y20 Z0.28 F1500.0 E30 ;Draw the second line
G92 E0 ;Reset Extruder
G1 Z2.0 F3000 ;Move Z Axis up
G21 ; set units to millimeters
G90 ; use absolute coordinates
M83 ; use relative distances for extrusion
; Filament gcode
M107
;LAYER_CHANGE
;Z:0.3
;HEIGHT:0.3
;BEFORE_LAYER_CHANGE
G92 E0.0
;0.3


M73 P1 R19
G1 E-1 F2400
G1 Z.2 F720
G1 Z.3
;AFTER_LAYER_CHANGE
;0.3
G1 Z.5
G1 X91.25 Y96.528 F10800
G1 Z.3 F720
G1 E1 F2400
M204 S800
;TYPE:Skirt/Brim
;WIDTH:0.42
G1 F1200
G1 X92.294 Y95.66 E.06022
G1 X93.214 Y95.473 E.04164
G1 X126.786 Y95.473 E1.48908
G1 X128.086 Y95.864 E.06021
G1 X128.955 Y96.909 E.06028
G1 X129.142 Y97.828 E.0416
G1 X129.142 Y110.636 E.5681
G1 X126.789 Y122.634 E.54231
G1 X126.15 Y123.832 E.06022
G1 X124.479 Y124.527 E.08027
G1 X95.521 Y124.527 E1.28443
G1 X94.221 Y124.136 E.06021
G1 X93.211 Y122.634 E.08028
G1 X90.904 Y111.098 E.52181
G1 X90.858 Y97.828 E.58859
G1 X91.233 Y96.585 E.05759
M204 S1000
; printing object sv06 pip bed bracket.stl id:0 copy 0
EXCLUDE_OBJECT_START NAME=sv06_pip_bed_bracket_stl_id_0_copy_0
;WIPE_START
G1 F8640
G1 X92.294 Y95.66 E-.37145
G1 X93.214 Y95.473 E-.24774
G1 X94.657 Y95.473 E-.38081
;WIPE_END
G1 Z.5 F720
G1 X106.022 Y105.47 F10800
G1 Z.3 F720
G1 E1 F2400
M204 S800
;TYPE:Support material
G1 F1200
G1 X96.551 Y105.47 E.42008
G1 X96.27 Y105.751 E.01763
M73 P2 R19
G1 X96.27 Y110.636 E.21667
G1 X93.214 Y110.636 E.13555
G1 X93.214 Y97.828 E.5681
G1 X106.022 Y97.828 E.5681
G1 X106.022 Y105.417 E.33661
M204 S1000
G1 X105.654 Y105.31 F10800
M204 S800
G1 F1200
G1 X105.654 Y98.148 E.31767
G1 X105.258 Y98.148 E.01756
G1 X105.258 Y105.15 E.31057
G1 X104.863 Y105.15 E.01752
G1 X104.863 Y98.148 E.31057
G1 X104.468 Y98.148 E.01752
G1 X104.468 Y105.15 E.31057
G1 X104.073 Y105.15 E.01752
G1 X104.073 Y98.148 E.31057
G1 X103.678 Y98.148 E.01752
G1 X103.678 Y105.15 E.31057
G1 X103.283 Y105.15 E.01752
G1 X103.283 Y98.148 E.31057
G1 X102.888 Y98.148 E.01752
G1 X102.888 Y105.15 E.31057
G1 X102.492 Y105.15 E.01756
G1 X102.492 Y98.148 E.31057
G1 X102.097 Y98.148 E.01752
G1 X102.097 Y105.15 E.31057
G1 X101.702 Y105.15 E.01752
G1 X101.702 Y98.148 E.31057
G1 X101.307 Y98.148 E.01752
G1 X101.307 Y105.15 E.31057
G1 X100.912 Y105.15 E.01752
G1 X100.912 Y98.148 E.31057
G1 X100.517 Y98.148 E.01752
G1 X100.517 Y105.15 E.31057
G1 X100.122 Y105.15 E.01752
G1 X100.122 Y98.148 E.31057
G1 X99.727 Y98.148 E.01752
G1 X99.727 Y105.15 E.31057
G1 X99.331 Y105.15 E.01756
G1 X99.331 Y98.148 E.31057
G1 X98.936 Y98.148 E.01752
G1 X98.936 Y105.15 E.31057
G1 X98.541 Y105.15 E.01752
G1 X98.541 Y98.148 E.31057
G1 X98.146 Y98.148 E.01752
G1 X98.146 Y105.15 E.31057
G1 X97.751 Y105.15 E.01752
G1 X97.751 Y98.148 E.31057
G1 X97.356 Y98.148 E.01752
G1 X97.356 Y105.15 E.31057
G1 X96.961 Y105.15 E.01752
G1 X96.961 Y98.148 E.31057
G1 X96.566 Y98.148 E.01752
G1 X96.566 Y105.15 E.31057
G1 X96.419 Y105.15 E.00652
G1 X96.17 Y105.398 E.01559
G1 X96.17 Y98.148 E.32157
G1 X95.775 Y98.148 E.01752
M73 P3 R19
G1 X95.775 Y110.316 E.53971
G1 X95.38 Y110.316 E.01752
G1 X95.38 Y98.148 E.53971
G1 X94.985 Y98.148 E.01752
G1 X94.985 Y110.316 E.53971
G1 X94.59 Y110.316 E.01752
G1 X94.59 Y98.148 E.53971
G1 X94.195 Y98.148 E.01752
G1 X94.195 Y110.316 E.53971
G1 X93.8 Y110.316 E.01752
G1 X93.8 Y97.988 E.54681
M204 S1000
;WIPE_START
G1 F8640
G1 X93.8 Y101.777 E-1
;WIPE_END
G1 Z.5 F720
G1 X96.27 Y117.849 F10800
G1 Z.3 F720
G1 E1 F2400
M204 S800
G1 F1200
G1 X96.551 Y118.13 E.01763
G1 X106.022 Y118.13 E.42008
G1 X106.022 Y122.172 E.17928
G1 X95.521 Y122.172 E.46577
G1 X95.521 Y116.63 E.24581
G1 X96.27 Y116.63 E.03322
G1 X96.27 Y117.795 E.05167
M204 S1000
G1 X105.654 Y122.012 F10800
M204 S800
G1 F1200
G1 X105.654 Y118.45 E.15799
G1 X105.258 Y118.45 E.01756
G1 X105.258 Y121.852 E.1509
G1 X104.863 Y121.852 E.01752
G1 X104.863 Y118.45 E.1509
G1 X104.468 Y118.45 E.01752
G1 X104.468 Y121.852 E.1509
G1 X104.073 Y121.852 E.01752
G1 X104.073 Y118.45 E.1509
G1 X103.678 Y118.45 E.01752
G1 X103.678 Y121.852 E.1509
G1 X103.283 Y121.852 E.01752
G1 X103.283 Y118.45 E.1509
G1 X102.888 Y118.45 E.01752
G1 X102.888 Y121.852 E.1509
G1 X102.492 Y121.852 E.01756
G1 X102.492 Y118.45 E.1509
G1 X102.097 Y118.45 E.01752
G1 X102.097 Y121.852 E.1509
G1 X101.702 Y121.852 E.01752
G1 X101.702 Y118.45 E.1509
G1 X101.307 Y118.45 E.01752
G1 X101.307 Y121.852 E.1509
G1 X100.912 Y121.852 E.01752
G1 X100.912 Y118.45 E.1509
G1 X100.517 Y118.45 E.01752
G1 X100.517 Y121.852 E.1509
G1 X100.122 Y121.852 E.01752
G1 X100.122 Y118.45 E.1509
G1 X99.727 Y118.45 E.01752
G1 X99.727 Y121.852 E.1509
G1 X99.331 Y121.852 E.01756
G1 X99.331 Y118.45 E.1509
G1 X98.936 Y118.45 E.01752
G1 X98.936 Y121.852 E.1509
G1 X98.541 Y121.852 E.01752
G1 X98.541 Y118.45 E.1509
G1 X98.146 Y118.45 E.01752
G1 X98.146 Y121.852 E.1509
G1 X97.751 Y121.852 E.01752
M73 P3 R18
G1 X97.751 Y118.45 E.1509
G1 X97.356 Y118.45 E.01752
G1 X97.356 Y121.852 E.1509
G1 X96.961 Y121.852 E.01752
G1 X96.961 Y118.45 E.1509
G1 X96.566 Y118.45 E.01752
G1 X96.566 Y121.852 E.1509
G1 X96.17 Y121.852 E.01756
G1 X96.17 Y117.976 E.17192
M204 S1000
;WIPE_START
G1 F8640
G1 X96.17 Y121.765 E-1
;WIPE_END
G1 Z.5 F720
G1 X124.479 Y122.172 F10800
G1 Z.3 F720
M73 P4 R18
G1 E1 F2400
M204 S800
G1 F1200
G1 X113.978 Y122.172 E.46577
G1 X113.978 Y118.13 E.17928
G1 X123.449 Y118.13 E.42008
G1 X123.73 Y117.849 E.01763
G1 X123.73 Y116.63 E.05407
G1 X124.479 Y116.63 E.03322
G1 X124.479 Y122.118 E.24342
M204 S1000
G1 X123.83 Y122.012 F10800
M204 S800
G1 F1200
G1 X123.83 Y118.202 E.16899
G1 X123.581 Y118.45 E.01559
G1 X123.434 Y118.45 E.00652
G1 X123.434 Y121.852 E.1509
G1 X123.039 Y121.852 E.01752
G1 X123.039 Y118.45 E.1509
G1 X122.644 Y118.45 E.01752
G1 X122.644 Y121.852 E.1509
G1 X122.249 Y121.852 E.01752
G1 X122.249 Y118.45 E.1509
G1 X121.854 Y118.45 E.01752
G1 X121.854 Y121.852 E.1509
G1 X121.459 Y121.852 E.01752
G1 X121.459 Y118.45 E.1509
G1 X121.064 Y118.45 E.01752
G1 X121.064 Y121.852 E.1509
G1 X120.669 Y121.852 E.01752
G1 X120.669 Y118.45 E.1509
G1 X120.273 Y118.45 E.01756
G1 X120.273 Y121.852 E.1509
G1 X119.878 Y121.852 E.01752
G1 X119.878 Y118.45 E.1509
G1 X119.483 Y118.45 E.01752
G1 X119.483 Y121.852 E.1509
G1 X119.088 Y121.852 E.01752
G1 X119.088 Y118.45 E.1509
G1 X118.693 Y118.45 E.01752
G1 X118.693 Y121.852 E.1509
G1 X118.298 Y121.852 E.01752
G1 X118.298 Y118.45 E.1509
G1 X117.903 Y118.45 E.01752
G1 X117.903 Y121.852 E.1509
G1 X117.508 Y121.852 E.01752
G1 X117.508 Y118.45 E.1509
G1 X117.112 Y118.45 E.01756
G1 X117.112 Y121.852 E.1509
G1 X116.717 Y121.852 E.01752
G1 X116.717 Y118.45 E.1509
G1 X116.322 Y118.45 E.01752
G1 X116.322 Y121.852 E.1509
G1 X115.927 Y121.852 E.01752
G1 X115.927 Y118.45 E.1509
G1 X115.532 Y118.45 E.01752
G1 X115.532 Y121.852 E.1509
G1 X115.137 Y121.852 E.01752
G1 X115.137 Y118.45 E.1509
G1 X114.742 Y118.45 E.01752
G1 X114.742 Y121.852 E.1509
G1 X114.346 Y121.852 E.01756
G1 X114.346 Y118.29 E.15799
M204 S1000
;WIPE_START
G1 F8640
G1 X114.346 Y121.852 E-.93997
G1 X114.573 Y121.852 E-.06003
;WIPE_END
G1 Z.5 F720
G1 X126.786 Y110.636 F10800
G1 Z.3 F720
G1 E1 F2400
M204 S800
G1 F1200
G1 X123.73 Y110.636 E.13555
G1 X123.73 Y105.751 E.21667
G1 X123.449 Y105.47 E.01763
G1 X113.978 Y105.47 E.42008
G1 X113.978 Y97.828 E.33896
G1 X126.786 Y97.828 E.5681
G1 X126.786 Y110.583 E.56575
M204 S1000
G1 X126.2 Y110.476 F10800
M204 S800
G1 F1200
G1 X126.2 Y98.148 E.54681
G1 X125.805 Y98.148 E.01752
G1 X125.805 Y110.316 E.53971
G1 X125.41 Y110.316 E.01752
G1 X125.41 Y98.148 E.53971
G1 X125.015 Y98.148 E.01752
M73 P5 R18
G1 X125.015 Y110.316 E.53971
G1 X124.62 Y110.316 E.01752
G1 X124.62 Y98.148 E.53971
G1 X124.225 Y98.148 E.01752
G1 X124.225 Y110.316 E.53971
G1 X124.05 Y110.316 E.00776
G1 X124.05 Y105.619 E.20833
G1 X123.83 Y105.398 E.01383
G1 X123.83 Y98.148 E.32157
G1 X123.434 Y98.148 E.01756
G1 X123.434 Y105.15 E.31057
G1 X123.039 Y105.15 E.01752
G1 X123.039 Y98.148 E.31057
G1 X122.644 Y98.148 E.01752
G1 X122.644 Y105.15 E.31057
G1 X122.249 Y105.15 E.01752
G1 X122.249 Y98.148 E.31057
G1 X121.854 Y98.148 E.01752
G1 X121.854 Y105.15 E.31057
G1 X121.459 Y105.15 E.01752
G1 X121.459 Y98.148 E.31057
G1 X121.064 Y98.148 E.01752
G1 X121.064 Y105.15 E.31057
G1 X120.669 Y105.15 E.01752
G1 X120.669 Y98.148 E.31057
G1 X120.273 Y98.148 E.01756
G1 X120.273 Y105.15 E.31057
G1 X119.878 Y105.15 E.01752
G1 X119.878 Y98.148 E.31057
G1 X119.483 Y98.148 E.01752
G1 X119.483 Y105.15 E.31057
G1 X119.088 Y105.15 E.01752
G1 X119.088 Y98.148 E.31057
G1 X118.693 Y98.148 E.01752
G1 X118.693 Y105.15 E.31057
G1 X118.298 Y105.15 E.01752
G1 X118.298 Y98.148 E.31057
G1 X117.903 Y98.148 E.01752
G1 X117.903 Y105.15 E.31057
G1 X117.508 Y105.15 E.01752
G1 X117.508 Y98.148 E.31057
G1 X117.112 Y98.148 E.01756
G1 X117.112 Y105.15 E.31057
G1 X116.717 Y105.15 E.01752
G1 X116.717 Y98.148 E.31057
G1 X116.322 Y98.148 E.01752
G1 X116.322 Y105.15 E.31057
G1 X115.927 Y105.15 E.01752
G1 X115.927 Y98.148 E.31057
G1 X115.532 Y98.148 E.01752
G1 X115.532 Y105.15 E.31057
G1 X115.137 Y105.15 E.01752
G1 X115.137 Y98.148 E.31057
G1 X114.742 Y98.148 E.01752
G1 X114.742 Y105.15 E.31057
G1 X114.346 Y105.15 E.01756
M73 P6 R18
G1 X114.346 Y97.988 E.31767
M204 S1000
;WIPE_START
G1 F8640
G1 X114.346 Y101.777 E-1
;WIPE_END
G1 Z.5 F720
G1 X122.484 Y106.716 F10800
G1 Z.3 F720
G1 E1 F2400
M204 S800
;TYPE:Perimeter
;WIDTH:0.42
G1 F1200
G1 X122.484 Y116.884 E.451
G1 X97.516 Y116.884 E1.10745
G1 X97.516 Y106.716 E.451
G1 X122.424 Y106.716 E1.10479
M204 S1000
G1 X122.84 Y106.36 F10800
M204 S800
;TYPE:External perimeter
G1 F1200
G1 X122.84 Y117.24 E.48258
G1 X97.16 Y117.24 E1.13903
G1 X97.16 Y106.36 E.48258
G1 X122.78 Y106.36 E1.13637
M204 S1000
G1 X122.688 Y106.73 F10800
G1 X121.597 Y106.876
M204 S800
;TYPE:Solid infill
;WIDTH:0.423846
G1 F1200
G1 X122.164 Y107.443 E.03595
G1 X122.164 Y107.951 E.02278
G1 X121.249 Y107.036 E.05802
G1 X120.741 Y107.036 E.02278
G1 X122.164 Y108.459 E.09023
G1 X122.164 Y108.968 E.02282
G1 X120.232 Y107.036 E.1225
G1 X119.724 Y107.036 E.02278
G1 X122.164 Y109.476 E.15471
G1 X122.164 Y109.984 E.02278
G1 X119.216 Y107.036 E.18692
G1 X118.707 Y107.036 E.02282
G1 X122.164 Y110.493 E.21919
G1 X122.164 Y111.001 E.02278
G1 X118.199 Y107.036 E.2514
G1 X117.69 Y107.036 E.02282
G1 X122.164 Y111.51 E.28368
G1 X122.164 Y112.018 E.02278
G1 X117.182 Y107.036 E.31589
G1 X116.674 Y107.036 E.02278
G1 X122.164 Y112.526 E.3481
G1 X122.164 Y113.035 E.02282
G1 X116.165 Y107.036 E.38037
G1 X115.657 Y107.036 E.02278
G1 X122.164 Y113.543 E.41258
G1 X122.164 Y114.051 E.02278
M73 P7 R18
G1 X115.149 Y107.036 E.44479
G1 X114.64 Y107.036 E.02282
G1 X122.164 Y114.56 E.47706
G1 X122.164 Y115.068 E.02278
G1 X114.132 Y107.036 E.50927
G1 X113.624 Y107.036 E.02278
G1 X122.164 Y115.576 E.54148
G1 X122.164 Y116.085 E.02282
G1 X113.115 Y107.036 E.57376
G1 X112.607 Y107.036 E.02278
G1 X122.135 Y116.564 E.60413
G1 X121.627 Y116.564 E.02278
G1 X112.098 Y107.036 E.60416
G1 X111.59 Y107.036 E.02278
G1 X121.119 Y116.564 E.60416
G1 X120.61 Y116.564 E.02282
G1 X111.082 Y107.036 E.60413
G1 X110.573 Y107.036 E.02282
G1 X120.102 Y116.564 E.60416
G1 X119.594 Y116.564 E.02278
G1 X110.065 Y107.036 E.60416
G1 X109.557 Y107.036 E.02278
G1 X119.085 Y116.564 E.60413
G1 X118.577 Y116.564 E.02278
G1 X109.048 Y107.036 E.60416
G1 X108.54 Y107.036 E.02278
G1 X118.069 Y116.564 E.60416
G1 X117.56 Y116.564 E.02282
G1 X108.032 Y107.036 E.60413
G1 X107.523 Y107.036 E.02282
G1 X117.052 Y116.564 E.60416
G1 X116.544 Y116.564 E.02278
G1 X107.015 Y107.036 E.60416
G1 X106.507 Y107.036 E.02278
G1 X116.035 Y116.564 E.60413
G1 X115.527 Y116.564 E.02278
M73 P8 R18
G1 X105.998 Y107.036 E.60416
G1 X105.49 Y107.036 E.02278
G1 X115.018 Y116.564 E.60413
G1 X114.51 Y116.564 E.02278
G1 X104.981 Y107.036 E.60416
G1 X104.473 Y107.036 E.02278
G1 X114.002 Y116.564 E.60416
G1 X113.493 Y116.564 E.02282
G1 X103.965 Y107.036 E.60413
G1 X103.456 Y107.036 E.02282
G1 X112.985 Y116.564 E.60416
G1 X112.477 Y116.564 E.02278
G1 X102.948 Y107.036 E.60416
G1 X102.44 Y107.036 E.02278
G1 X111.968 Y116.564 E.60413
G1 X111.46 Y116.564 E.02278
G1 X101.931 Y107.036 E.60416
G1 X101.423 Y107.036 E.02278
G1 X110.952 Y116.564 E.60416
G1 X110.443 Y116.564 E.02282
G1 X100.915 Y107.036 E.60413
G1 X100.406 Y107.036 E.02282
G1 X109.935 Y116.564 E.60416
G1 X109.426 Y116.564 E.02282
G1 X99.898 Y107.036 E.60413
G1 X99.389 Y107.036 E.02282
G1 X108.918 Y116.564 E.60416
G1 X108.41 Y116.564 E.02278
G1 X98.881 Y107.036 E.60416
G1 X98.373 Y107.036 E.02278
M73 P8 R17
G1 X107.901 Y116.564 E.60413
G1 X107.393 Y116.564 E.02278
M73 P9 R17
G1 X97.864 Y107.036 E.60416
G1 X97.836 Y107.036 E.00126
G1 X97.836 Y107.515 E.02148
G1 X106.885 Y116.564 E.57376
G1 X106.376 Y116.564 E.02282
G1 X97.836 Y108.024 E.54148
G1 X97.836 Y108.532 E.02278
G1 X105.868 Y116.564 E.50927
G1 X105.36 Y116.564 E.02278
G1 X97.836 Y109.04 E.47706
G1 X97.836 Y109.549 E.02282
G1 X104.851 Y116.564 E.44479
G1 X104.343 Y116.564 E.02278
G1 X97.836 Y110.057 E.41258
G1 X97.836 Y110.565 E.02278
G1 X103.835 Y116.564 E.38037
G1 X103.326 Y116.564 E.02282
G1 X97.836 Y111.074 E.3481
G1 X97.836 Y111.582 E.02278
G1 X102.818 Y116.564 E.31589
G1 X102.309 Y116.564 E.02282
G1 X97.836 Y112.091 E.28361
G1 X97.836 Y112.599 E.02278
G1 X101.801 Y116.564 E.2514
G1 X101.293 Y116.564 E.02278
G1 X97.836 Y113.107 E.21919
G1 X97.836 Y113.616 E.02282
G1 X100.784 Y116.564 E.18692
G1 X100.276 Y116.564 E.02278
G1 X97.836 Y114.124 E.15471
G1 X97.836 Y114.632 E.02278
G1 X99.768 Y116.564 E.1225
G1 X99.259 Y116.564 E.02282
G1 X97.836 Y115.141 E.09023
G1 X97.836 Y115.649 E.02278
G1 X98.751 Y116.564 E.05802
G1 X98.243 Y116.564 E.02278
G1 X97.676 Y115.997 E.03595
M204 S1000
; stop printing object sv06 pip bed bracket.stl id:0 copy 0
EXCLUDE_OBJECT_END NAME=sv06_pip_bed_bracket_stl_id_0_copy_0
;LAYER_CHANGE
;Z:0.5
;HEIGHT:0.2
;BEFORE_LAYER_CHANGE
G92 E0.0
;0.5


;WIPE_START
G1 F8640
G1 X98.243 Y116.564 E-.2116
G1 X98.751 Y116.564 E-.13406
G1 X97.836 Y115.649 E-.34147
G1 X97.836 Y115.141 E-.13406
G1 X98.315 Y115.62 E-.17881
;WIPE_END
G1 Z.5 F720
;AFTER_LAYER_CHANGE
;0.5
M104 S240 ; set temperature
M140 S90 ; set bed temperature
G1 Z.7
G1 X92.059 Y116.871 F10800
G1 Z.5 F720
G1 E1 F2400
;TYPE:Skirt/Brim
;WIDTH:0.42
G1 F3000
G1 X90.904 Y111.098 E.1846
G1 X90.858 Y97.828 E.41607
G1 X91.25 Y96.528 E.04257
G1 X92.294 Y95.66 E.04257
G1 X93.214 Y95.473 E.02944
G1 X126.786 Y95.473 E1.05263
G1 X128.086 Y95.864 E.04256
G1 X128.955 Y96.909 E.04261
G1 X129.142 Y97.828 E.02941
G1 X129.142 Y110.636 E.40159
G1 X126.789 Y122.634 E.38336
G1 X126.15 Y123.832 E.04257
G1 X124.479 Y124.527 E.05674
G1 X95.521 Y124.527 E.90796
G1 X94.221 Y124.136 E.04256
G1 X93.211 Y122.634 E.05675
G1 X92.071 Y116.93 E.18238
; printing object sv06 pip bed bracket.stl id:0 copy 0
EXCLUDE_OBJECT_START NAME=sv06_pip_bed_bracket_stl_id_0_copy_0
;WIPE_START
G1 F8640
G1 X91.327 Y113.214 E-1
;WIPE_END
G1 Z.7 F720
G1 X122.618 Y106.582 F10800
G1 Z.5 F720
G1 E1 F2400
M204 S800
;TYPE:Perimeter
;WIDTH:0.449999
G1 F3600
G1 X122.618 Y117.018 E.35325
G1 X97.382 Y117.018 E.85421
G1 X97.382 Y106.582 E.35325
M73 P10 R17
G1 X122.558 Y106.582 E.85218
M204 S1000
