; generated by PrusaSlicer 2.6.1+win64 on 2023-10-02 at 01:11:19 UTC


;
;
; 

; external perimeters extrusion width = 0.45mm
; perimeters extrusion width = 0.45mm
; infill extrusion width = 0.45mm
; solid infill extrusion width = 0.45mm
; top infill extrusion width = 0.40mm
; first layer extrusion width = 0.42mm

M73 P0 R40


; Pre-Processed for Cancel-Object support by preprocess_cancellation v0.2.0
; 1 known objects
EXCLUDE_OBJECT_DEFINE NAME=SV06_Screen_Cover_v2_stl_id_0_copy_0 CENTER=115.069,123.402 POLYGON=[[75.421,97.113],[75.421,147.663],[153.971,147.663],[153.971,97.113]]
;TYPE:Custom
M104 S230 ; set extruder temp
M140 S85 ; set bed temp
M190 S85 ; wait for bed temp
M109 S230 ; wait for extruder temp
G28;
G1 Z4.0 F3000 ;Move Z Axis up
G92 E0 ;Reset Extruder
G1 X5.1 Y20 Z0.28 F5000.0 ;Move to start position
G1 X5.1 Y30.0 Z0.28 F1500.0 E1 ;Draw a short bit in case the extruder turns in the wrong direction
G1 X5.1 Y200.0 Z0.28 F1500.0 E15 ;Draw the first line
G1 X5.4 Y200.0 Z0.28 F5000.0 ;Move to side a little
G1 X5.4 Y20 Z0.28 F1500.0 E30 ;Draw the second line
G92 E0 ;Reset Extruder
G1 Z2.0 F3000 ;Move Z Axis up
G21 ; set units to millimeters
G90 ; use absolute coordinates
M83 ; use relative distances for extrusion
; Filament gcode
M107
;LAYER_CHANGE
;Z:0.2
;HEIGHT:0.2
;BEFORE_LAYER_CHANGE
G92 E0.0
;0.2


G1 E-1 F2400
G1 Z.2 F720
;AFTER_LAYER_CHANGE
;0.2
G1 Z.4
G1 X74.576 Y95.388 F10800
G1 Z.2 F720
G1 E1 F2400
M204 S800
;TYPE:Skirt/Brim
;WIDTH:0.42
G1 F1200
G1 X75.74 Y94.766 E.04138
G1 X76.572 Y94.561 E.02687
G1 X77.196 Y94.511 E.01963
G1 X152.429 Y94.522 E2.35888
G1 X153.276 Y94.652 E.02687
G1 X154.082 Y94.944 E.02688
G1 X154.815 Y95.387 E.02685
G1 X155.447 Y95.966 E.02687
G1 X155.955 Y96.656 E.02687
G1 X156.318 Y97.433 E.02689
G1 X156.523 Y98.265 E.02687
G1 X156.573 Y98.888 E.0196
G1 X156.573 Y145.888 E1.47365
G1 X156.432 Y146.968 E.03415
G1 X156.14 Y147.774 E.02688
G1 X155.447 Y148.81 E.03908
G1 X154.815 Y149.388 E.02685
G1 X153.651 Y150.01 E.04138
G1 X152.819 Y150.215 E.02687
G1 X152.196 Y150.265 E.0196
G1 X77.196 Y150.265 E2.35157
G1 X76.115 Y150.124 E.03418
M73 P1 R40
G1 X75.31 Y149.832 E.02685
G1 X74.273 Y149.14 E.03909
G1 X73.695 Y148.507 E.02688
G1 X73.073 Y147.343 E.04138
G1 X72.868 Y146.511 E.02687
G1 X72.819 Y145.888 E.01959
G1 X72.819 Y98.888 E1.47365
G1 X72.959 Y97.808 E.03415
G1 X73.251 Y97.002 E.02688
G1 X73.741 Y96.213 E.02912
G1 X74.534 Y95.43 E.03494
M204 S1000
; printing object SV06 Screen Cover v2.stl id:0 copy 0
EXCLUDE_OBJECT_START NAME=SV06_Screen_Cover_v2_stl_id_0_copy_0
;WIPE_START
G1 F8640
G1 X75.74 Y94.766 E-.3633
G1 X76.572 Y94.561 E-.22612
G1 X77.196 Y94.511 E-.16519
G1 X78.126 Y94.511 E-.24539
;WIPE_END
G1 Z.4 F720
G1 X76.534 Y97.904 F10800
G1 Z.2 F720
G1 E1 F2400
M204 S800
;TYPE:Perimeter
;WIDTH:0.419999
G1 F1200
G1 X76.733 Y97.771 E.0075
G1 X77.234 Y97.675 E.01599
G1 X152.094 Y97.677 E2.34718
G1 X152.431 Y97.702 E.0106
G1 X152.867 Y97.883 E.0148
G1 X153.201 Y98.216 E.01479
G1 X153.347 Y98.539 E.01111
G1 X153.409 Y98.991 E.0143
G1 X153.409 Y145.849 E1.4692
G1 X153.313 Y146.351 E.01603
G1 X153.051 Y146.743 E.01478
G1 X152.658 Y147.005 E.01481
G1 X152.157 Y147.101 E.01599
G1 X77.234 Y147.101 E2.34915
G1 X76.733 Y147.005 E.01599
G1 X76.341 Y146.743 E.01478
G1 X76.079 Y146.351 E.01478
G1 X75.983 Y145.849 E.01603
G1 X75.983 Y98.927 E1.4712
G1 X76.079 Y98.425 E.01603
G1 X76.341 Y98.033 E.01478
G1 X76.484 Y97.937 E.0054
M204 S1000
G1 X76.313 Y97.568 F10800
M204 S800
;TYPE:External perimeter
G1 F1200
G1 X76.737 Y97.376 E.01459
G1 X77.216 Y97.298 E.01522
G1 X152.094 Y97.3 E2.34774
G1 X152.505 Y97.33 E.01292
G1 X152.941 Y97.494 E.01461
G1 X153.319 Y97.765 E.01458
G1 X153.589 Y98.143 E.01456
G1 X153.753 Y98.578 E.01458
G1 X153.786 Y98.991 E.01299
G1 X153.786 Y145.785 E1.46719
G1 X153.768 Y146.043 E.00811
M73 P2 R40
G1 X153.663 Y146.496 E.01458
G1 X153.417 Y146.891 E.01459
G1 X153.078 Y147.208 E.01455
G1 X152.654 Y147.4 E.01459
G1 X152.175 Y147.478 E.01522
G1 X77.299 Y147.478 E2.34768
G1 X77.041 Y147.461 E.00811
G1 X76.588 Y147.355 E.01459
G1 X76.193 Y147.11 E.01457
G1 X75.875 Y146.77 E.0146
G1 X75.683 Y146.347 E.01457
G1 X75.606 Y145.868 E.01521
G1 X75.606 Y98.991 E1.46979
G1 X75.623 Y98.733 E.00811
M73 P2 R39
G1 X75.728 Y98.28 E.01458
G1 X75.974 Y97.885 E.01459
G1 X76.27 Y97.609 E.01269
M204 S1000
G1 X76.67 Y97.748 F10800
;WIPE_START
G1 F8640
G1 X76.737 Y97.376 E-.13772
G1 X77.216 Y97.298 E-.12807
G1 X79.998 Y97.298 E-.73421
;WIPE_END
G1 Z.4 F720
G1 X151.848 Y97.846 F10800
G1 Z.2 F720
G1 E1 F2400
M204 S800
;TYPE:Solid infill
;WIDTH:0.420621
G1 F1200
G1 X153.069 Y99.067 E.05423
G1 X153.069 Y99.601 E.01677
G1 X151.484 Y98.016 E.0704
G1 X150.95 Y98.016 E.01677
G1 X153.069 Y100.136 E.09414
G1 X153.069 Y100.67 E.01677
G1 X150.415 Y98.016 E.11788
G1 X149.881 Y98.016 E.01677
G1 X153.069 Y101.204 E.14159
G1 X153.069 Y101.738 E.01677
G1 X149.347 Y98.016 E.16531
G1 X148.813 Y98.016 E.01677
G1 X153.069 Y102.272 E.18903
G1 X153.069 Y102.806 E.01677
G1 X148.279 Y98.016 E.21275
G1 X147.745 Y98.016 E.01677
G1 X153.069 Y103.34 E.23646
G1 X153.069 Y103.875 E.0168
G1 X147.21 Y98.016 E.26023
G1 X146.676 Y98.016 E.01677
G1 X153.069 Y104.409 E.28394
G1 X153.069 Y104.943 E.01677
G1 X146.142 Y98.016 E.30766
G1 X145.608 Y98.016 E.01677
G1 X153.069 Y105.477 E.33138
G1 X153.069 Y106.011 E.01677
G1 X145.074 Y98.016 E.3551
G1 X144.54 Y98.016 E.01677
G1 X153.069 Y106.545 E.37881
G1 X153.069 Y107.079 E.01677
G1 X144.006 Y98.016 E.40253
G1 X143.471 Y98.016 E.0168
G1 X153.069 Y107.614 E.42629
G1 X153.069 Y108.148 E.01677
G1 X142.937 Y98.016 E.45001
G1 X142.403 Y98.016 E.01677
G1 X153.069 Y108.682 E.47373
G1 X153.069 Y109.216 E.01677
G1 X141.869 Y98.016 E.49745
G1 X141.335 Y98.016 E.01677
G1 X153.069 Y109.75 E.52116
G1 X153.069 Y110.284 E.01677
G1 X140.801 Y98.016 E.54488
G1 X140.266 Y98.016 E.0168
G1 X153.069 Y110.819 E.56864
G1 X153.069 Y111.353 E.01677
G1 X139.732 Y98.016 E.59236
G1 X139.198 Y98.016 E.01677
G1 X153.069 Y111.887 E.61608
G1 X153.069 Y112.421 E.01677
G1 X138.664 Y98.016 E.63979
G1 X138.13 Y98.016 E.01677
G1 X153.069 Y112.955 E.66351
G1 X153.069 Y113.489 E.01677
G1 X137.596 Y98.016 E.68723
G1 X137.061 Y98.016 E.0168
M73 P3 R39
G1 X153.069 Y114.023 E.71097
G1 X153.069 Y114.558 E.0168
G1 X136.527 Y98.016 E.73471
G1 X135.993 Y98.016 E.01677
G1 X153.069 Y115.092 E.75843
G1 X153.069 Y115.626 E.01677
G1 X135.459 Y98.016 E.78214
G1 X134.925 Y98.016 E.01677
G1 X153.069 Y116.16 E.80586
G1 X153.069 Y116.694 E.01677
G1 X134.391 Y98.016 E.82958
G1 X133.856 Y98.016 E.0168
G1 X153.069 Y117.228 E.85332
G1 X153.069 Y117.762 E.01677
G1 X133.322 Y98.016 E.87704
G1 X132.788 Y98.016 E.01677
G1 X153.069 Y118.297 E.90078
G1 X153.069 Y118.831 E.01677
G1 X132.254 Y98.016 E.92449
G1 X131.72 Y98.016 E.01677
G1 X153.069 Y119.365 E.94821
G1 X153.069 Y119.899 E.01677
G1 X131.186 Y98.016 E.97193
G1 X130.651 Y98.016 E.0168
G1 X153.069 Y120.433 E.99567
G1 X153.069 Y120.967 E.01677
G1 X130.117 Y98.016 E1.01939
G1 X129.583 Y98.016 E.01677
G1 X153.069 Y121.502 E1.04312
G1 X153.069 Y122.036 E.01677
G1 X129.049 Y98.016 E1.06684
G1 X128.515 Y98.016 E.01677
G1 X153.069 Y122.57 E1.09056
G1 X153.069 Y123.104 E.01677
M73 P4 R39
G1 X127.981 Y98.015 E1.1143
G1 X127.447 Y98.015 E.01677
G1 X153.069 Y123.638 E1.13802
G1 X153.069 Y124.172 E.01677
G1 X126.912 Y98.015 E1.16176
G1 X126.378 Y98.015 E.01677
G1 X153.069 Y124.706 E1.18547
G1 X153.069 Y125.241 E.0168
G1 X125.844 Y98.015 E1.20921
G1 X125.31 Y98.015 E.01677
G1 X153.069 Y125.775 E1.23293
G1 X153.069 Y126.309 E.01677
G1 X124.776 Y98.015 E1.25665
G1 X124.242 Y98.015 E.01677
G1 X153.069 Y126.843 E1.28037
G1 X153.069 Y127.377 E.01677
M73 P4 R38
G1 X123.707 Y98.015 E1.30411
G1 X123.173 Y98.015 E.01677
G1 X153.069 Y127.911 E1.32782
G1 X153.069 Y128.445 E.01677
G1 X122.639 Y98.015 E1.35154
G1 X122.105 Y98.015 E.01677
G1 X153.069 Y128.98 E1.37528
G1 X153.069 Y129.514 E.01677
M73 P5 R38
G1 X121.571 Y98.015 E1.399
G1 X121.037 Y98.015 E.01677
G1 X153.069 Y130.048 E1.42272
G1 X153.069 Y130.582 E.01677
G1 X120.502 Y98.015 E1.44646
G1 X119.968 Y98.015 E.01677
G1 X153.069 Y131.116 E1.47017
G1 X153.069 Y131.65 E.01677
G1 X119.434 Y98.015 E1.49389
G1 X118.9 Y98.015 E.01677
G1 X153.069 Y132.185 E1.51763
G1 X153.069 Y132.719 E.01677
G1 X118.366 Y98.015 E1.54135
G1 X117.832 Y98.015 E.01677
G1 X153.069 Y133.253 E1.56506
G1 X153.069 Y133.787 E.01677
G1 X117.297 Y98.015 E1.5888
G1 X116.763 Y98.015 E.01677
G1 X153.069 Y134.321 E1.61252
G1 X153.069 Y134.855 E.01677
M73 P6 R38
G1 X116.229 Y98.015 E1.63624
G1 X115.695 Y98.015 E.01677
G1 X153.069 Y135.389 E1.65996
G1 X153.069 Y135.924 E.0168
G1 X115.161 Y98.015 E1.6837
G1 X114.627 Y98.015 E.01677
G1 X153.069 Y136.458 E1.70741
G1 X153.069 Y136.992 E.01677
G1 X114.093 Y98.015 E1.73113
G1 X113.558 Y98.015 E.0168
G1 X153.069 Y137.526 E1.75487
G1 X153.069 Y138.06 E.01677
G1 X113.024 Y98.015 E1.77859
G1 X112.49 Y98.015 E.01677
G1 X153.069 Y138.594 E1.80231
G1 X153.069 Y139.128 E.01677
G1 X111.956 Y98.015 E1.82602
G1 X111.422 Y98.015 E.01677
M73 P7 R38
G1 X153.069 Y139.663 E1.84976
G1 X153.069 Y140.197 E.01677
M73 P7 R37
G1 X110.888 Y98.015 E1.87348
G1 X110.353 Y98.015 E.0168
G1 X153.069 Y140.731 E1.89722
G1 X153.069 Y141.265 E.01677
G1 X109.819 Y98.015 E1.92094
G1 X109.285 Y98.015 E.01677
G1 X153.069 Y141.799 E1.94466
G1 X153.069 Y142.333 E.01677
G1 X108.751 Y98.015 E1.96837
G1 X108.217 Y98.015 E.01677
G1 X153.069 Y142.867 E1.99209
G1 X153.069 Y143.402 E.0168
G1 X107.683 Y98.015 E2.01583
G1 X107.148 Y98.015 E.0168
M73 P8 R37
G1 X153.069 Y143.936 E2.03957
G1 X153.069 Y144.47 E.01677
G1 X106.614 Y98.015 E2.06329
G1 X106.08 Y98.015 E.01677
G1 X153.069 Y145.004 E2.087
G1 X153.069 Y145.538 E.01677
G1 X105.546 Y98.015 E2.11072
G1 X105.012 Y98.015 E.01677
G1 X153.048 Y146.051 E2.13351
G1 X152.998 Y146.22 E.00554
G1 X152.879 Y146.417 E.00723
G1 X104.478 Y98.015 E2.14974
G1 X103.943 Y98.015 E.0168
G1 X152.587 Y146.658 E2.16049
G1 X152.365 Y146.739 E.00742
M73 P9 R37
G1 X152.154 Y146.76 E.00666
G1 X103.409 Y98.015 E2.165
G1 X102.875 Y98.015 E.01677
G1 X151.622 Y146.762 E2.16509
G1 X151.088 Y146.762 E.01677
G1 X102.341 Y98.015 E2.16509
G1 X101.807 Y98.015 E.01677
G1 X150.553 Y146.762 E2.16506
G1 X150.019 Y146.762 E.01677
M73 P9 R36
G1 X101.273 Y98.015 E2.16506
G1 X100.738 Y98.015 E.0168
G1 X149.485 Y146.762 E2.16509
G1 X148.951 Y146.762 E.01677
G1 X100.204 Y98.015 E2.16509
G1 X99.67 Y98.015 E.01677
M73 P10 R36
G1 X148.417 Y146.762 E2.16509
G1 X147.883 Y146.762 E.01677
G1 X99.136 Y98.015 E2.16509
G1 X98.602 Y98.015 E.01677
G1 X147.348 Y146.762 E2.16506
G1 X146.814 Y146.762 E.01677
G1 X98.068 Y98.015 E2.16506
G1 X97.534 Y98.015 E.01677
G1 X146.28 Y146.762 E2.16506
G1 X145.746 Y146.762 E.01677
G1 X96.999 Y98.015 E2.16509
G1 X96.465 Y98.015 E.01677
G1 X145.212 Y146.762 E2.16509
G1 X144.678 Y146.762 E.01677
M73 P11 R36
G1 X95.931 Y98.015 E2.16509
G1 X95.397 Y98.015 E.01677
G1 X144.144 Y146.762 E2.16509
G1 X143.609 Y146.762 E.0168
G1 X94.863 Y98.015 E2.16506
G1 X94.329 Y98.015 E.01677
G1 X143.075 Y146.762 E2.16506
G1 X142.541 Y146.762 E.01677
G1 X93.794 Y98.015 E2.16509
G1 X93.26 Y98.015 E.01677
G1 X142.007 Y146.762 E2.16509
G1 X141.473 Y146.762 E.01677
G1 X92.726 Y98.015 E2.16509
G1 X92.192 Y98.015 E.01677
M73 P12 R35
G1 X140.939 Y146.762 E2.16509
G1 X140.405 Y146.762 E.01677
G1 X91.658 Y98.015 E2.16509
G1 X91.124 Y98.015 E.01677
G1 X139.87 Y146.762 E2.16506
G1 X139.336 Y146.762 E.01677
G1 X90.589 Y98.015 E2.16509
G1 X90.055 Y98.015 E.01677
G1 X138.802 Y146.762 E2.16509
G1 X138.268 Y146.762 E.01677
G1 X89.521 Y98.015 E2.16509
G1 X88.987 Y98.015 E.01677
G1 X137.734 Y146.762 E2.16509
G1 X137.2 Y146.762 E.01677
M73 P13 R35
G1 X88.453 Y98.015 E2.16509
G1 X87.919 Y98.015 E.01677
G1 X136.665 Y146.762 E2.16506
G1 X136.131 Y146.762 E.01677
G1 X87.384 Y98.015 E2.16509
G1 X86.85 Y98.015 E.01677
G1 X135.597 Y146.762 E2.16509
G1 X135.063 Y146.762 E.01677
G1 X86.316 Y98.015 E2.16509
G1 X85.782 Y98.015 E.01677
G1 X134.529 Y146.762 E2.16509
G1 X133.995 Y146.762 E.01677
G1 X85.248 Y98.015 E2.16509
G1 X84.714 Y98.015 E.01677
M73 P14 R35
G1 X133.461 Y146.762 E2.16509
G1 X132.926 Y146.762 E.0168
G1 X84.179 Y98.015 E2.16509
G1 X83.645 Y98.015 E.01677
G1 X132.392 Y146.762 E2.16509
G1 X131.858 Y146.762 E.01677
M73 P14 R34
G1 X83.111 Y98.015 E2.16509
G1 X82.577 Y98.015 E.01677
G1 X131.324 Y146.762 E2.16509
G1 X130.79 Y146.762 E.01677
G1 X82.043 Y98.015 E2.16509
G1 X81.509 Y98.015 E.01677
G1 X130.256 Y146.762 E2.16509
G1 X129.722 Y146.762 E.01677
M73 P15 R34
G1 X80.975 Y98.014 E2.16511
G1 X80.44 Y98.014 E.0168
G1 X129.187 Y146.762 E2.16511
G1 X128.653 Y146.762 E.01677
G1 X79.906 Y98.014 E2.16511
G1 X79.372 Y98.014 E.01677
G1 X128.119 Y146.762 E2.16511
G1 X127.585 Y146.762 E.01677
G1 X78.838 Y98.014 E2.16511
G1 X78.304 Y98.014 E.01677
G1 X127.051 Y146.762 E2.16511
G1 X126.517 Y146.762 E.01677
G1 X77.77 Y98.014 E2.16511
G1 X77.241 Y98.02 E.01661
M73 P16 R34
G1 X125.982 Y146.762 E2.16484
G1 X125.448 Y146.762 E.01677
G1 X76.804 Y98.118 E2.16051
G1 X76.713 Y98.166 E.00323
G1 X76.582 Y98.274 E.00533
G1 X76.512 Y98.359 E.00346
G1 X124.914 Y146.762 E2.14978
G1 X124.38 Y146.762 E.01677
G1 X76.344 Y98.725 E2.13353
G1 X76.322 Y99.238 E.01613
G1 X123.846 Y146.762 E2.11077
G1 X123.312 Y146.762 E.01677
G1 X76.322 Y99.772 E2.08705
G1 X76.322 Y100.306 E.01677
G1 X122.778 Y146.762 E2.06333
G1 X122.243 Y146.762 E.0168
M73 P16 R33
G1 X76.322 Y100.84 E2.03959
G1 X76.322 Y101.374 E.01677
M73 P17 R33
G1 X121.709 Y146.762 E2.01587
G1 X121.175 Y146.762 E.01677
G1 X76.322 Y101.908 E1.99216
G1 X76.322 Y102.443 E.0168
G1 X120.641 Y146.762 E1.96842
G1 X120.107 Y146.762 E.01677
G1 X76.322 Y102.977 E1.9447
G1 X76.322 Y103.511 E.01677
G1 X119.573 Y146.762 E1.92098
G1 X119.039 Y146.762 E.01677
G1 X76.322 Y104.045 E1.89726
G1 X76.322 Y104.579 E.01677
G1 X118.504 Y146.762 E1.87353
G1 X117.97 Y146.762 E.01677
M73 P18 R33
G1 X76.322 Y105.113 E1.84981
G1 X76.322 Y105.647 E.01677
G1 X117.436 Y146.762 E1.82609
G1 X116.902 Y146.762 E.01677
G1 X76.322 Y106.182 E1.80235
G1 X76.322 Y106.716 E.01677
G1 X116.368 Y146.762 E1.77863
G1 X115.834 Y146.762 E.01677
G1 X76.322 Y107.25 E1.75492
G1 X76.322 Y107.784 E.01677
G1 X115.299 Y146.762 E1.73118
G1 X114.765 Y146.762 E.01677
G1 X76.322 Y108.318 E1.70746
G1 X76.322 Y108.852 E.01677
G1 X114.231 Y146.762 E1.68374
G1 X113.697 Y146.762 E.01677
G1 X76.322 Y109.387 E1.66
G1 X76.322 Y109.921 E.01677
M73 P19 R33
G1 X113.163 Y146.762 E1.63628
G1 X112.629 Y146.762 E.01677
G1 X76.322 Y110.455 E1.61257
G1 X76.322 Y110.989 E.01677
G1 X112.095 Y146.762 E1.58885
G1 X111.56 Y146.762 E.0168
M73 P19 R32
G1 X76.322 Y111.523 E1.56511
G1 X76.322 Y112.057 E.01677
G1 X111.026 Y146.762 E1.54139
G1 X110.492 Y146.762 E.01677
G1 X76.322 Y112.591 E1.51767
G1 X76.322 Y113.126 E.0168
G1 X109.958 Y146.762 E1.49393
G1 X109.424 Y146.762 E.01677
G1 X76.322 Y113.66 E1.47022
G1 X76.322 Y114.194 E.01677
G1 X108.89 Y146.762 E1.4465
G1 X108.356 Y146.762 E.01677
G1 X76.322 Y114.728 E1.42278
G1 X76.322 Y115.262 E.01677
M73 P20 R32
G1 X107.821 Y146.762 E1.39904
G1 X107.287 Y146.762 E.01677
G1 X76.322 Y115.796 E1.37532
G1 X76.322 Y116.33 E.01677
G1 X106.753 Y146.762 E1.35161
G1 X106.219 Y146.762 E.01677
G1 X76.322 Y116.865 E1.32787
G1 X76.322 Y117.399 E.01677
G1 X105.685 Y146.762 E1.30415
G1 X105.151 Y146.762 E.01677
G1 X76.322 Y117.933 E1.28043
G1 X76.322 Y118.467 E.01677
G1 X104.616 Y146.762 E1.25669
G1 X104.082 Y146.762 E.01677
G1 X76.322 Y119.001 E1.23298
G1 X76.322 Y119.535 E.01677
G1 X103.548 Y146.762 E1.20926
G1 X103.014 Y146.762 E.01677
G1 X76.322 Y120.07 E1.18552
G1 X76.322 Y120.604 E.01677
G1 X102.48 Y146.762 E1.1618
G1 X101.946 Y146.762 E.01677
G1 X76.322 Y121.138 E1.13808
G1 X76.322 Y121.672 E.01677
M73 P21 R32
G1 X101.412 Y146.762 E1.11437
G1 X100.877 Y146.762 E.0168
G1 X76.322 Y122.206 E1.09063
G1 X76.322 Y122.74 E.01677
G1 X100.343 Y146.762 E1.06691
G1 X99.809 Y146.762 E.01677
G1 X76.322 Y123.274 E1.04319
G1 X76.322 Y123.809 E.0168
G1 X99.275 Y146.762 E1.01945
G1 X98.741 Y146.762 E.01677
G1 X76.322 Y124.343 E.99573
G1 X76.322 Y124.877 E.01677
G1 X98.207 Y146.762 E.97202
G1 X97.673 Y146.762 E.01677
