; generated by PrusaSlicer 2.6.1 on 2023-10-02 at 04:12:31 UTC


;
;
; 

; external perimeters extrusion width = 0.45mm
; perimeters extrusion width = 0.45mm
; infill extrusion width = 0.45mm
; solid infill extrusion width = 0.45mm
; top infill extrusion width = 0.40mm
; first layer extrusion width = 0.42mm

M73 P0 R60


; Pre-Processed for Cancel-Object support by preprocess_cancellation v0.2.0
; 1 known objects
EXCLUDE_OBJECT_DEFINE NAME=SV06_heatbed_cable_support_V2_stl_id_0_copy_0 CENTER=109.122,105.040 POLYGON=[[93.675,94.177],[93.675,125.825],[126.324,125.825],[126.324,94.177]]
;TYPE:Custom
M104 S230 ; set extruder temp
M140 S85 ; set bed temp
M190 S85 ; wait for bed temp
M109 S230 ; wait for extruder temp
G28;
G1 Z4.0 F3000 ;Move Z Axis up
G92 E0 ;Reset Extruder
G1 X5.1 Y20 Z0.28 F5000.0 ;Move to start position
G1 X5.1 Y30.0 Z0.28 F1500.0 E1 ;Draw a short bit in case the extruder turns in the wrong direction
G1 X5.1 Y200.0 Z0.28 F1500.0 E15 ;Draw the first line
G1 X5.4 Y200.0 Z0.28 F5000.0 ;Move to side a little
G1 X5.4 Y20 Z0.28 F1500.0 E30 ;Draw the second line
G92 E0 ;Reset Extruder
G1 Z2.0 F3000 ;Move Z Axis up
G21 ; set units to millimeters
G90 ; use absolute coordinates
M83 ; use relative distances for extrusion
; Filament gcode
M107
;LAYER_CHANGE
;Z:0.2
;HEIGHT:0.2
;BEFORE_LAYER_CHANGE
G92 E0.0
;0.2


G1 E-1 F2400
G1 Z.2 F720
;AFTER_LAYER_CHANGE
;0.2
G1 Z.4
G1 X108.793 Y101.446 F10800
G1 Z.2 F720
G1 E1 F2400
M204 S800
;TYPE:Skirt/Brim
;WIDTH:0.42
G1 F1200
G1 X114.894 Y94.903 E.2805
G1 X116.15 Y94.138 E.04611
G1 X116.902 Y94.034 E.0238
G1 X121.284 Y94.034 E.13739
G1 X122.701 Y94.426 E.0461
G1 X123.298 Y94.909 E.02408
G1 X127.179 Y99.072 E.17845
G1 X127.87 Y100.433 E.04786
G1 X129.272 Y107.794 E.23495
G1 X129.265 Y109.182 E.04352
G1 X129.122 Y109.754 E.01849
G1 X128.853 Y110.333 E.02002
G1 X128.39 Y110.943 E.02401
G1 X111.764 Y128.18 E.75089
G1 X110.916 Y128.624 E.03001
G1 X109.976 Y128.801 E.02999
G1 X105.204 Y128.794 E.14962
G1 X103.788 Y128.398 E.0461
G1 X102.777 Y127.329 E.04613
G1 X102.483 Y126.422 E.0299
G1 X100.449 Y111.89 E.46008
G1 X100.641 Y110.431 E.04614
G1 X101.159 Y109.633 E.02983
G1 X108.752 Y101.49 E.34909
M204 S1000
G1 X109.028 Y101.747 F10800
M204 S800
G1 F1200
G1 X115.169 Y95.161 E.28234
G1 X116.902 Y94.411 E.05921
G1 X121.284 Y94.411 E.13739
G1 X123.023 Y95.167 E.05945
G1 X126.904 Y99.329 E.17843
G1 X127.5 Y100.504 E.04131
G1 X128.899 Y107.849 E.23444
G1 X128.892 Y109.127 E.04007
G1 X128.767 Y109.627 E.01616
G1 X128.53 Y110.139 E.01769
G1 X128.118 Y110.681 E.02135
G1 X111.539 Y127.877 E.74894
G1 X110.789 Y128.268 E.02652
G1 X109.842 Y128.427 E.03011
G1 X105.205 Y128.417 E.14539
G1 X103.899 Y128.022 E.04278
G1 X102.857 Y126.369 E.06127
G1 X100.822 Y111.837 E.46009
G1 X101.029 Y110.489 E.04276
G1 X101.435 Y109.889 E.02271
G1 X108.987 Y101.791 E.34718
M204 S1000
; printing object SV06 heatbed cable support V2.stl id:0 copy 0
EXCLUDE_OBJECT_START NAME=SV06_heatbed_cable_support_V2_stl_id_0_copy_0
;WIPE_START
G1 F8640
G1 X111.571 Y99.019 E-1
;WIPE_END
G1 Z.4 F720
G1 X122.597 Y107.19 F10800
G1 Z.2 F720
G1 E1 F2400
M204 S800
;TYPE:Perimeter
;WIDTH:0.419999
G1 F1200
G1 X122.572 Y107.397 E.00654
G1 X122.641 Y107.796 E.0127
G1 X122.736 Y108.025 E.00777
G1 X122.969 Y108.356 E.01269
G1 X123.117 Y108.501 E.0065
G1 X123.53 Y108.732 E.01484
G1 X124.045 Y108.835 E.01647
G1 X125.065 Y108.835 E.03198
G1 X123.187 Y110.712 E.08325
G1 X121.354 Y110.712 E.05747
G1 X118.336 Y107.695 E.1338
G1 X118.333 Y107.253 E.01386
G1 X118.286 Y106.969 E.00903
G1 X118.127 Y106.593 E.0128
G1 X117.904 Y106.299 E.01157
G1 X117.335 Y105.731 E.02521
G1 X116.708 Y105.149 E.02682
G1 X116.329 Y104.946 E.01348
G1 X115.841 Y104.863 E.01552
G1 X111.326 Y104.867 E.14156
G1 X110.822 Y104.886 E.01581
G1 X117.375 Y97.875 E.3009
G1 X120.811 Y97.875 E.10773
M73 P0 R59
G1 X124.078 Y101.378 E.15019
G1 X124.078 Y105.222 E.12053
G1 X122.996 Y106.299 E.04787
G1 X122.704 Y106.735 E.01645
G1 X122.628 Y106.926 E.00645
G1 X122.604 Y107.13 E.00644
M204 S1000
;WIPE_START
G1 F8640
G1 X122.572 Y107.397 E-.07096
G1 X122.641 Y107.796 E-.10685
G1 X122.736 Y108.025 E-.06542
G1 X122.969 Y108.356 E-.10682
G1 X123.117 Y108.501 E-.05468
G1 X123.53 Y108.732 E-.12488
G1 X124.045 Y108.835 E-.13859
G1 X125.065 Y108.835 E-.26917
G1 X124.897 Y109.003 E-.06263
;WIPE_END
G1 Z.4 F720
G1 X109.278 Y106.551 F10800
G1 Z.2 F720
G1 E1 F2400
M204 S800
G1 F1200
G1 X109.265 Y106.841 E.0091
G1 X109.261 Y124.962 E.56817
G1 X106.156 Y124.955 E.09736
G1 X104.324 Y111.87 E.41427
G1 X109.25 Y106.569 E.22689
M204 S1000
;WIPE_START
G1 F8640
G1 X109.265 Y106.841 E-.07189
G1 X109.264 Y110.358 E-.92811
;WIPE_END
G1 Z.4 F720
G1 X122.974 Y107.137 F10800
G1 Z.2 F720
G1 E1 F2400
M204 S800
;TYPE:External perimeter
G1 F1200
G1 X122.953 Y107.222 E.00275
G1 X123.013 Y107.732 E.0161
G1 X123.277 Y108.139 E.01521
G1 X123.551 Y108.338 E.01062
G1 X124.046 Y108.458 E.01597
G1 X125.84 Y108.458 E.05625
G1 X125.84 Y108.554 E.00301
G1 X125.84 Y108.594 E.00125
G1 X123.343 Y111.089 E.11068
G1 X121.198 Y111.089 E.06725
G1 X117.96 Y107.853 E.14353
G1 X117.956 Y107.256 E.01872
G1 X117.917 Y107.042 E.00682
G1 X117.786 Y106.755 E.00989
G1 X117.638 Y106.566 E.00753
G1 X117.069 Y105.998 E.02521
G1 X116.484 Y105.453 E.02507
G1 X116.184 Y105.295 E.01063
G1 X115.842 Y105.24 E.01086
G1 X111.326 Y105.244 E.1416
G1 X110.842 Y105.263 E.01519
;WIDTH:0.438303
G1 X110.434 Y105.323 E.01356
G1 X110.098 Y105.562 E.01356
;WIDTH:0.430936
G1 X109.754 Y105.991 E.01774
G1 X109.666 Y106.334 E.01142
;WIDTH:0.419999
G1 X109.643 Y106.842 E.01594
G1 X109.638 Y125.34 E.57999
G1 X105.828 Y125.331 E.11946
G1 X103.926 Y111.744 E.43016
G1 X108.875 Y106.432 E.22764
;WIDTH:0.430936
G1 X109.816 Y105.308 E.0473
;WIDTH:0.446033
G1 X110.551 Y104.623 E.03368
;WIDTH:0.419999
G1 X117.211 Y97.498 E.3058
G1 X120.975 Y97.498 E.11802
M73 P1 R59
G1 X124.455 Y101.229 E.15997
G1 X124.455 Y105.43 E.13172
G1 X124.26 Y105.57 E.00753
G1 X123.279 Y106.549 E.04345
G1 X123.023 Y106.936 E.01455
G1 X122.988 Y107.079 E.00462
M204 S1000
G1 X122.889 Y107.155 F10800
;WIPE_START
G1 F8640
G1 X122.953 Y107.222 E-.03885
G1 X123.013 Y107.732 E-.13551
G1 X123.277 Y108.139 E-.12802
G1 X123.551 Y108.338 E-.08936
G1 X124.046 Y108.458 E-.13441
G1 X125.84 Y108.458 E-.47342
G1 X125.84 Y108.46 E-.00043
;WIPE_END
G1 Z.4 F720
G1 X124.266 Y109.394 F10800
G1 Z.2 F720
G1 E1 F2400
M204 S800
;TYPE:Solid infill
;WIDTH:0.425646
G1 F1200
G1 X123.851 Y108.979 E.01868
M204 S1000
;WIPE_START
G1 F8640
G1 X124.266 Y109.394 E-.15488
;WIPE_END
G1 E-.84512 F2400
G1 Z.4 F720
G1 X123.908 Y101.459 F10800
G1 Z.2 F720
G1 E1 F2400
M204 S800
G1 F1200
G1 X120.664 Y98.214 E.14602
G1 X120.122 Y98.214 E.01725
G1 X123.739 Y101.83 E.16276
G1 X123.739 Y102.372 E.01725
G1 X119.581 Y98.214 E.18713
G1 X119.04 Y98.214 E.01722
G1 X123.739 Y102.913 E.21148
G1 X123.739 Y103.454 E.01722
G1 X118.499 Y98.214 E.23583
G1 X117.957 Y98.214 E.01725
G1 X123.739 Y103.995 E.2602
G1 X123.739 Y104.537 E.01725
G1 X117.471 Y98.269 E.2821
G1 X117.21 Y98.549 E.01218
G1 X123.739 Y105.078 E.29384
G1 X123.47 Y105.35 E.01217
G1 X116.949 Y98.829 E.29348
G1 X116.687 Y99.109 E.0122
G1 X123.198 Y105.62 E.29303
G1 X122.927 Y105.89 E.01217
G1 X116.426 Y99.389 E.29258
G1 X116.165 Y99.669 E.01218
G1 X122.666 Y106.17 E.29258
G1 X122.453 Y106.499 E.01247
G1 X115.904 Y99.949 E.29476
G1 X115.642 Y100.229 E.0122
G1 X122.295 Y106.882 E.29942
G1 X122.24 Y107.136 E.00827
G1 X122.237 Y107.365 E.00729
G1 X115.381 Y100.509 E.30856
G1 X115.12 Y100.789 E.01218
G1 X123.875 Y109.545 E.39405
G1 X123.604 Y109.815 E.01217
G1 X114.859 Y101.069 E.3936
G1 X114.597 Y101.349 E.0122
G1 X123.334 Y110.086 E.39321
G1 X123.063 Y110.356 E.01217
G1 X114.336 Y101.629 E.39276
G1 X114.075 Y101.909 E.01218
G1 X122.539 Y110.373 E.38093
G1 X121.997 Y110.373 E.01725
G1 X118.636 Y107.012 E.15126
G1 X118.616 Y106.884 E.00412
G1 X118.552 Y106.698 E.00626
G1 X118.361 Y106.32 E.01348
G1 X118.149 Y106.064 E.01058
G1 X117.139 Y105.056 E.04541
G1 X116.818 Y104.808 E.01291
G1 X116.637 Y104.706 E.00661
G1 X116.191 Y104.567 E.01487
G1 X113.814 Y102.189 E.107
G1 X113.552 Y102.469 E.0122
G1 X115.607 Y104.524 E.09249
G1 X115.066 Y104.524 E.01722
G1 X113.291 Y102.749 E.07989
G1 X113.03 Y103.029 E.01218
G1 X114.525 Y104.525 E.06731
G1 X113.984 Y104.525 E.01722
G1 X112.769 Y103.309 E.0547
G1 X112.507 Y103.589 E.0122
G1 X113.443 Y104.525 E.04213
G1 X112.903 Y104.526 E.01718
G1 X112.246 Y103.869 E.02957
G1 X111.985 Y104.149 E.01218
G1 X112.362 Y104.526 E.01697
G1 X111.821 Y104.527 E.01722
G1 X111.604 Y104.309 E.00979
M204 S1000
;WIPE_START
G1 F8640
G1 X111.821 Y104.527 E-.08117
G1 X112.362 Y104.526 E-.14276
G1 X111.985 Y104.149 E-.14069
G1 X112.246 Y103.869 E-.10101
G1 X112.903 Y104.526 E-.24519
G1 X113.443 Y104.525 E-.1425
G1 X113.05 Y104.132 E-.14668
;WIPE_END
G1 Z.4 F720
G1 X108.734 Y107.385 F10800
G1 Z.2 F720
G1 E1 F2400
M204 S800
;WIDTH:0.427775
G1 F1200
G1 X108.926 Y107.577 E.00869
G1 X108.926 Y108.121 E.01741
G1 X108.592 Y107.787 E.01512
G1 X108.329 Y108.069 E.01234
G1 X108.926 Y108.665 E.027
G1 X108.926 Y109.209 E.01741
G1 X108.067 Y108.35 E.03887
G1 X107.804 Y108.632 E.01234
G1 X108.925 Y109.753 E.05073
G1 X108.925 Y110.297 E.01741
G1 X107.542 Y108.914 E.06259
G1 X107.279 Y109.196 E.01234
G1 X108.925 Y110.842 E.07449
G1 X108.925 Y111.386 E.01741
G1 X107.017 Y109.478 E.08635
G1 X106.754 Y109.759 E.01232
G1 X108.925 Y111.93 E.09825
G1 X108.925 Y112.474 E.01741
G1 X106.492 Y110.041 E.11011
G1 X106.229 Y110.323 E.01234
G1 X108.925 Y113.018 E.12199
G1 X108.924 Y113.562 E.01741
G1 X105.967 Y110.605 E.13382
G1 X105.704 Y110.887 E.01234
G1 X108.924 Y114.106 E.1457
G1 X108.924 Y114.65 E.01741
G1 X105.442 Y111.168 E.15758
G1 X105.179 Y111.45 E.01234
G1 X108.924 Y115.195 E.16948
G1 X108.924 Y115.739 E.01741
G1 X104.917 Y111.732 E.18134
G1 X104.683 Y111.983 E.01098
G1 X104.693 Y112.052 E.00223
G1 X108.924 Y116.283 E.19148
G1 X108.924 Y116.827 E.01741
G1 X104.781 Y112.685 E.18747
G1 X104.87 Y113.317 E.02042
G1 X108.923 Y117.371 E.18345
G1 X108.923 Y117.915 E.01741
G1 X104.958 Y113.95 E.17944
G1 X105.047 Y114.583 E.02046
G1 X108.923 Y118.459 E.17541
G1 X108.923 Y119.004 E.01744
G1 X105.136 Y115.216 E.17141
G1 X105.224 Y115.849 E.02045
G1 X108.923 Y119.548 E.1674
G1 X108.923 Y120.092 E.01741
G1 X105.313 Y116.482 E.16337
G1 X105.401 Y117.115 E.02045
G1 X108.923 Y120.636 E.15937
G1 X108.923 Y121.18 E.01741
G1 X105.49 Y117.748 E.15534
G1 X105.579 Y118.38 E.02042
G1 X108.922 Y121.724 E.15131
G1 X108.922 Y122.268 E.01741
G1 X105.667 Y119.013 E.14731
G1 X105.756 Y119.646 E.02046
G1 X108.922 Y122.812 E.14328
G1 X108.922 Y123.357 E.01744
G1 X105.844 Y120.279 E.1393
G1 X105.933 Y120.912 E.02046
G1 X108.922 Y123.901 E.13527
G1 X108.922 Y124.445 E.01741
G1 X106.022 Y121.545 E.13124
G1 X106.11 Y122.178 E.02045
G1 X108.553 Y124.621 E.11056
G1 X108.008 Y124.62 E.01744
G1 X106.199 Y122.811 E.08187
G1 X106.288 Y123.443 E.02042
G1 X107.462 Y124.618 E.05315
G1 X106.917 Y124.617 E.01744
G1 X106.177 Y123.877 E.03349
M204 S1000
; stop printing object SV06 heatbed cable support V2.stl id:0 copy 0
EXCLUDE_OBJECT_END NAME=SV06_heatbed_cable_support_V2_stl_id_0_copy_0
;LAYER_CHANGE
;Z:0.4
;HEIGHT:0.2
;BEFORE_LAYER_CHANGE
G92 E0.0
;0.4


;WIPE_START
G1 F8640
G1 X106.917 Y124.617 E-.27616
G1 X107.462 Y124.618 E-.14382
G1 X106.288 Y123.443 E-.43832
G1 X106.213 Y122.911 E-.1417
;WIPE_END
G1 Z.4 F720
;AFTER_LAYER_CHANGE
;0.4
M104 S240 ; set temperature
M140 S90 ; set bed temperature
G1 Z.6
G1 X102.073 Y123.491 F10800
G1 Z.4 F720
G1 E1 F2400
;TYPE:Skirt/Brim
;WIDTH:0.42
G1 F3000
G1 X100.449 Y111.89 E.36729
G1 X100.641 Y110.431 E.04614
G1 X101.159 Y109.633 E.02983
G1 X114.894 Y94.903 E.63148
G1 X116.15 Y94.138 E.04611
G1 X116.902 Y94.034 E.0238
G1 X121.284 Y94.034 E.13739
G1 X122.701 Y94.426 E.0461
G1 X123.298 Y94.909 E.02408
G1 X127.179 Y99.072 E.17845
G1 X127.87 Y100.433 E.04786
G1 X129.272 Y107.794 E.23495
G1 X129.265 Y109.182 E.04352
G1 X129.122 Y109.754 E.01849
G1 X128.853 Y110.333 E.02002
G1 X128.39 Y110.943 E.02401
G1 X111.764 Y128.18 E.75089
G1 X110.916 Y128.624 E.03001
G1 X109.976 Y128.801 E.02999
G1 X105.204 Y128.794 E.14962
G1 X103.788 Y128.398 E.0461
G1 X102.777 Y127.329 E.04613
G1 X102.483 Y126.422 E.0299
G1 X102.081 Y123.55 E.09093
G1 X102.455 Y123.498 F10800
G1 F3000
G1 X100.822 Y111.837 E.36919
G1 X101.029 Y110.489 E.04276
G1 X101.435 Y109.889 E.02271
G1 X115.169 Y95.161 E.63141
G1 X116.902 Y94.411 E.05921
G1 X121.284 Y94.411 E.13739
G1 X123.023 Y95.167 E.05945
G1 X126.904 Y99.329 E.17843
G1 X127.5 Y100.504 E.04131
G1 X128.899 Y107.849 E.23444
G1 X128.892 Y109.127 E.04007
G1 X128.767 Y109.627 E.01616
G1 X128.53 Y110.139 E.01769
G1 X128.118 Y110.681 E.02135
G1 X111.539 Y127.877 E.74894
G1 X110.789 Y128.268 E.02652
G1 X109.842 Y128.427 E.03011
G1 X105.205 Y128.417 E.14539
G1 X103.899 Y128.022 E.04278
G1 X102.857 Y126.369 E.06127
G1 X102.463 Y123.557 E.08903
; printing object SV06 heatbed cable support V2.stl id:0 copy 0
EXCLUDE_OBJECT_START NAME=SV06_heatbed_cable_support_V2_stl_id_0_copy_0
;WIPE_START
G1 F8640
G1 X101.938 Y119.805 E-1
;WIPE_END
G1 Z.6 F720
G1 X109.699 Y105.72 F10800
G1 Z.4 F720
G1 E1 F2400
M204 S800
;TYPE:Perimeter
;WIDTH:0.633694
G1 F2700
G1 X109.679 Y105.877 E.00777
;WIDTH:0.587771
G1 X109.658 Y106.034 E.00718
;WIDTH:0.541847
G1 X109.637 Y106.192 E.00661
;WIDTH:0.495923
G1 X109.616 Y106.349 E.00597
;WIDTH:0.449999
G1 X109.616 Y125.316 E.64201
G1 X105.848 Y125.309 E.12754
G1 X103.949 Y111.752 E.46337
G1 X109.297 Y106.017 E.26543
;WIDTH:0.495923
G1 X109.398 Y105.943 E.00472
;WIDTH:0.541847
G1 X109.498 Y105.869 E.00516
;WIDTH:0.587771
G1 X109.599 Y105.794 E.0057
;WIDTH:0.633694
G1 X109.651 Y105.756 E.00316
M204 S1000
;WIPE_START
G1 F8640
G1 X109.679 Y105.877 E-.03277
G1 X109.658 Y106.034 E-.0418
G1 X109.637 Y106.192 E-.04206
G1 X109.616 Y106.349 E-.0418
G1 X109.616 Y109.538 E-.84157
;WIPE_END
G1 Z.6 F720
G1 X122.952 Y107.171 F10800
G1 Z.4 F720
G1 E1 F2400
M204 S800
;WIDTH:0.449999
G1 F2700
G1 X122.928 Y107.366 E.00665
G1 X123.003 Y107.777 E.01414
G1 X123.243 Y108.128 E.01439
G1 X123.435 Y108.294 E.00859
G1 X123.733 Y108.425 E.01102
G1 X123.972 Y108.474 E.00826
G1 X125.814 Y108.479 E.06235
G1 X125.81 Y108.593 E.00386
G1 X123.334 Y111.068 E.1185
G1 X121.205 Y111.062 E.07206
G1 X117.984 Y107.842 E.15416
G1 X117.979 Y107.29 E.01869
G1 X117.872 Y106.863 E.0149
G1 X117.65 Y106.547 E.01307
G1 X116.659 Y105.558 E.04739
G1 X116.209 Y105.279 E.01792
G1 X115.837 Y105.218 E.01276
G1 X110.657 Y105.224 E.17534
;WIDTH:0.499617
G1 X110.513 Y105.248 E.00554
;WIDTH:0.549234
G1 X110.37 Y105.272 E.0061
;WIDTH:0.598851
G1 X110.226 Y105.296 E.00675
;WIDTH:0.648468
G1 X110.082 Y105.32 E.00735
G1 X110.144 Y105.218 E.00601
;WIDTH:0.598851
G1 X110.206 Y105.115 E.00556
;WIDTH:0.549234
G1 X110.268 Y105.012 E.00506
;WIDTH:0.499617
G1 X110.33 Y104.91 E.00453
;WIDTH:0.449999
G1 X117.22 Y97.52 E.342
G1 X120.966 Y97.52 E.1268
G1 X124.432 Y101.238 E.17205
G1 X124.423 Y105.424 E.14169
G1 X124.24 Y105.559 E.0077
G1 X123.174 Y106.632 E.0512
G1 X122.966 Y107.056 E.01599
G1 X122.959 Y107.112 E.00191
M204 S1000
G1 X123.342 Y107.215 F10800
M204 S800
;TYPE:External perimeter
G1 F1255.098

G1 X123.38 Y107.624 E.0139
G1 F1263.195
G1 X123.631 Y107.937 E.01358
G1 X123.973 Y108.067 E.01238
G1 F1264.447
G1 X125.995 Y108.073 E.06844
G1 F1266.285
G1 X126.161 Y108.129 E.00593
G1 F1284.546
G1 X126.218 Y108.244 E.00434
G1 F1273.181
G1 X126.223 Y108.673 E.01452
G1 F1266.663
G1 X126.148 Y108.831 E.00592
G1 X123.606 Y111.371 E.12164
G1 X123.415 Y111.475 E.00736
G1 X121.109 Y111.471 E.07806
G1 X120.963 Y111.399 E.00551
G1 X120.503 Y110.939 E.02202
G1 F1267.931
G1 X118.122 Y108.556 E.11402
G1 F1274.166
G1 X117.665 Y108.098 E.0219
G1 F1273.507
G1 X117.578 Y107.948 E.00587
G1 F1267.141
G1 X117.572 Y107.294 E.02214
G1 F1262.261
G1 X117.505 Y107.043 E.00879
G1 X117.363 Y106.836 E.0085
G1 F1266.782
G1 X116.371 Y105.846 E.04744
G1 F1257.298
G1 X116.101 Y105.677 E.01078
G1 X115.837 Y105.625 E.00911
G1 F1266.668
G1 X115.187 Y105.625 E.022
G1 X111.396 Y105.625 E.12832
G1 X110.747 Y105.625 E.02197
G1 F1265.392
G1 X110.566 Y105.649 E.00618
G1 F1262.479
