; generated by PrusaSlicer 2.6.1+win64 on 2023-10-04 at 03:49:44 UTC


;
;
; 

; external perimeters extrusion width = 0.45mm
; perimeters extrusion width = 0.45mm
; infill extrusion width = 0.45mm
; solid infill extrusion width = 0.45mm
; top infill extrusion width = 0.40mm
; first layer extrusion width = 0.42mm

M73 P0 R115


; Pre-Processed for Cancel-Object support by preprocess_cancellation v0.2.0
; 1 known objects
EXCLUDE_OBJECT_DEFINE NAME=SV06_snap_on_display_back_cover_easy_print_V1_stl_id_0_copy_0 CENTER=112.962,108.251 POLYGON=[[62.544,64.746],[62.544,156.896],[163.094,156.896],[163.094,64.746]]
;TYPE:Custom
M104 S215 ; set extruder temp
M140 S60 ; set bed temp
M190 S60 ; wait for bed temp
M109 S215 ; wait for extruder temp
G28;
G1 Z4.0 F3000 ;Move Z Axis up
G92 E0 ;Reset Extruder
G1 X5.1 Y20 Z0.28 F5000.0 ;Move to start position
G1 X5.1 Y30.0 Z0.28 F1500.0 E1 ;Draw a short bit in case the extruder turns in the wrong direction
G1 X5.1 Y200.0 Z0.28 F1500.0 E15 ;Draw the first line
G1 X5.4 Y200.0 Z0.28 F5000.0 ;Move to side a little
G1 X5.4 Y20 Z0.28 F1500.0 E30 ;Draw the second line
G92 E0 ;Reset Extruder
G1 Z2.0 F3000 ;Move Z Axis up
G21 ; set units to millimeters
G90 ; use absolute coordinates
M83 ; use relative distances for extrusion
; Filament gcode
M107
;LAYER_CHANGE
;Z:0.2
;HEIGHT:0.2
;BEFORE_LAYER_CHANGE
G92 E0.0
;0.2


G1 E-.5 F2400
G1 Z.2 F720
;AFTER_LAYER_CHANGE
;0.2
G1 X65.908 Y68.334 F10800
G1 E.5 F2400
M204 S800
;TYPE:Skirt/Brim
;WIDTH:0.42
G1 F1200
G1 X66.401 Y67.89 E.0208
G1 X66.941 Y67.566 E.01975
G1 X77.689 Y62.494 E.37263
G1 X78.424 Y62.247 E.02431
G1 X79.043 Y62.155 E.01962
G1 X147.936 Y62.147 E2.16009
G1 X148.852 Y62.281 E.02903
G1 X149.584 Y62.558 E.02454
G1 X159.151 Y67.829 E.34248
G1 X159.715 Y68.317 E.02338
G1 X160.15 Y68.91 E.02306
G1 X160.436 Y69.551 E.02201
G1 X160.584 Y70.194 E.02069
G1 X160.621 Y150.914 E2.53092
G1 X160.553 Y151.637 E.02277
G1 X160.355 Y152.312 E.02206
G1 X159.731 Y153.307 E.03682
G1 X159.238 Y153.752 E.02082
G1 X158.612 Y154.114 E.02267
G1 X157.867 Y154.349 E.02449
G1 X157.119 Y154.423 E.02357
G1 X68.525 Y154.423 E2.7778
G1 X67.802 Y154.355 E.02277
G1 X67.128 Y154.157 E.02203
G1 X66.487 Y153.813 E.02281
G1 X66.122 Y153.523 E.01462
G1 X65.689 Y153.04 E.02034
G1 X65.326 Y152.413 E.02272
G1 X65.087 Y151.649 E.0251
G1 X65.017 Y150.92 E.02296
G1 X65.017 Y70.727 E2.5144
G1 X65.085 Y70.005 E.02274
G1 X65.283 Y69.33 E.02206
G1 X65.876 Y68.385 E.03498
M204 S1000
; printing object SV06_snap_on_display_back_cover_easy_print_V1.stl id:0 copy 0
EXCLUDE_OBJECT_START NAME=SV06_snap_on_display_back_cover_easy_print_V1_stl_id_0_copy_0
;WIPE_START
G1 F8640
G1 X66.401 Y67.89 E-.19041
G1 X66.941 Y67.566 E-.16618
G1 X67.432 Y67.334 E-.14341
;WIPE_END
G1 X149.315 Y70.669 F10800
M73 P0 R114
G1 E.5 F2400
M204 S800
;TYPE:Perimeter
;WIDTH:0.419999
G1 F1200
G1 X149.37 Y70.695 E.00191
G1 X156.703 Y70.708 E.22992
G1 X156.977 Y70.746 E.00867
G1 X157.073 Y70.829 E.00398
G1 X157.132 Y71.136 E.0098
G1 X157.132 Y150.539 E2.48962
G1 X157.049 Y150.85 E.01009
G1 X156.738 Y150.934 E.0101
G1 X125.482 Y150.934 E.98001
G1 X124.378 Y150.958 E.03462
G1 X124.494 Y150.746 E.00758
G1 X125.018 Y149.435 E.04427
G1 X125.355 Y148.064 E.04427
G1 X125.499 Y146.661 E.04422
G1 X125.449 Y145.25 E.04427
G1 X125.203 Y143.86 E.04426
G1 X124.768 Y142.518 E.04423
G1 X124.152 Y141.249 E.04423
G1 X123.365 Y140.077 E.04426
G1 X122.425 Y139.025 E.04423
G1 X121.348 Y138.113 E.04425
G1 X120.156 Y137.358 E.04424
G1 X118.944 Y136.804 E.04178
G1 X117.594 Y136.395 E.04423
G1 X117.257 Y136.325 E.01079
G1 X116.153 Y136.171 E.03495
G1 X115.453 Y136.152 E.02196
G1 X114.744 Y136.153 E.02223
G1 X114.175 Y136.213 E.01794
G1 X113.044 Y136.395 E.03592
G1 X111.695 Y136.804 E.0442
G1 X110.414 Y137.396 E.04425
G1 X109.227 Y138.159 E.04424
G1 X108.157 Y139.079 E.04425
G1 X107.225 Y140.139 E.04426
G1 X106.487 Y141.249 E.04179
G1 X105.87 Y142.518 E.04424
G1 X105.435 Y143.86 E.04423
G1 X105.19 Y145.25 E.04425
G1 X105.139 Y146.661 E.04427
G1 X105.283 Y148.064 E.04422
G1 X105.621 Y149.435 E.04427
G1 X106.01 Y150.413 E.033
G1 X106.26 Y150.955 E.01871
G1 X105.639 Y150.934 E.01948
G1 X68.9 Y150.934 E1.15192
G1 X68.59 Y150.85 E.01007
G1 X68.506 Y150.539 E.0101
G1 X68.506 Y71.094 E2.49094
G1 X68.516 Y70.95 E.00453
G1 X68.611 Y70.768 E.00644
G1 X68.802 Y70.712 E.00624
G1 X77.769 Y70.695 E.28115
G1 X78.146 Y70.52 E.01303
G1 X78.132 Y75.327 E.15072
G1 X78.206 Y75.996 E.0211
G1 X78.398 Y76.591 E.0196
G1 X78.707 Y77.142 E.01981
G1 X79.168 Y77.665 E.02186
G1 X79.867 Y78.156 E.02678
G1 X80.342 Y78.352 E.01611
G1 X80.753 Y78.455 E.01329
G1 X81.313 Y78.508 E.01764
G1 X144.857 Y78.508 E1.99237
G1 X145.881 Y78.505 E.03211
G1 X146.494 Y78.434 E.01935
G1 X147.089 Y78.242 E.0196
G1 X147.634 Y77.938 E.01957
G1 X148.032 Y77.612 E.01613
G1 X148.316 Y77.298 E.01327
G1 X148.654 Y76.774 E.01955
G1 X148.851 Y76.298 E.01615
G1 X148.953 Y75.888 E.01325
G1 X149.006 Y75.327 E.01767
G1 X148.992 Y70.52 E.15072
G1 X149.261 Y70.644 E.00929
M204 S1000
G1 X149.226 Y70.249 F10800
M204 S800
;TYPE:External perimeter
G1 F1200
G1 X149.371 Y70.318 E.00503
G1 X156.704 Y70.331 E.22992
G1 X157.112 Y70.386 E.01291
G1 X157.322 Y70.518 E.00778
G1 X157.454 Y70.728 E.00778
G1 X157.509 Y71.136 E.01291
G1 X157.509 Y150.505 E2.48856
G1 X157.454 Y150.914 E.01294
G1 X157.322 Y151.124 E.00778
G1 X157.112 Y151.255 E.00776
G1 X156.768 Y151.311 E.01093
G1 X125.491 Y151.311 E.98067
G1 X123.727 Y151.333 E.05531
G1 X124.144 Y150.605 E.02631
G1 X124.652 Y149.343 E.04265
G1 X124.98 Y148.024 E.04262
G1 X125.123 Y146.673 E.0426
G1 X125.077 Y145.314 E.04263
G1 X124.844 Y143.975 E.04261
G1 X124.429 Y142.683 E.04255
G1 X123.839 Y141.46 E.04258
G1 X123.083 Y140.327 E.04271
G1 X122.18 Y139.311 E.04262
G1 X121.145 Y138.431 E.0426
G1 X119.999 Y137.701 E.0426
G1 X118.787 Y137.147 E.04178
G1 X117.486 Y136.756 E.04259
G1 X116.127 Y136.547 E.04311
G1 X115.453 Y136.529 E.02114
G1 X114.498 Y136.549 E.02995
G1 X113.544 Y136.683 E.03021
G1 X112.998 Y136.802 E.01752
G1 X111.852 Y137.147 E.03752
G1 X110.617 Y137.714 E.04261
G1 X109.472 Y138.446 E.04261
G1 X108.439 Y139.33 E.04263
G1 X107.539 Y140.348 E.0426
G1 X106.788 Y141.48 E.04259
G1 X106.201 Y142.703 E.04253
G1 X105.794 Y143.975 E.04187
G1 X105.561 Y145.314 E.04261
G1 X105.516 Y146.673 E.04263
G1 X105.658 Y148.024 E.04259
G1 X105.986 Y149.343 E.04262
G1 X106.506 Y150.629 E.04349
G1 X106.999 Y151.468 E.03051
G1 X106.658 Y151.379 E.01105
G1 X106.141 Y151.322 E.01631
G1 X105.639 Y151.311 E.01574
G1 X68.935 Y151.311 E1.15083
G1 X68.526 Y151.255 E.01294
G1 X68.316 Y151.124 E.00776
G1 X68.185 Y150.914 E.00776
G1 X68.129 Y150.57 E.01093
G1 X68.129 Y71.094 E2.49191
G1 X68.165 Y70.808 E.00904
G1 X68.279 Y70.58 E.00799
G1 X68.455 Y70.424 E.00737
G1 X68.763 Y70.335 E.01005
G1 X77.768 Y70.318 E.28235
G1 X77.914 Y70.249 E.00506
;WIDTH:0.420498
G1 X78.121 Y69.963 E.01108
;WIDTH:0.420687
G1 X78.173 Y69.556 E.01289
;WIDTH:0.425945
G1 X78.166 Y66.681 E.09157
;WIDTH:0.438626
G1 X78.171 Y66.181 E.01645
G1 X78.224 Y65.675 E.01674
;WIDTH:0.436179
G1 X78.343 Y65.38 E.0104
;WIDTH:0.409643
G1 X78.602 Y65.132 E.01093
;WIDTH:0.443851
G1 X78.93 Y65.015 E.01161
G1 X79.398 Y64.972 E.01567
;WIDTH:0.438963
G1 X79.916 Y64.966 E.01706
;WIDTH:0.427135
G1 X146.724 Y64.965 E2.13436
;WIDTH:0.425072
G1 X146.734 Y64.965 E.00032
;WIDTH:0.439637
M73 P1 R114
G1 X147.76 Y64.972 E.03385
G1 X148.265 Y65.025 E.01675
;WIDTH:0.436284
G1 X148.56 Y65.145 E.01042
;WIDTH:0.400234
G1 X148.709 Y65.277 E.00591
;WIDTH:0.419648
G1 X148.866 Y65.519 E.00904
;WIDTH:0.451866
G1 X148.962 Y66.015 E.01718
G1 X148.972 Y66.681 E.02265
;WIDTH:0.425933
G1 X148.965 Y69.556 E.09156
;WIDTH:0.420683
G1 X149.017 Y69.963 E.01289
;WIDTH:0.420571
G1 X149.19 Y70.201 E.00924
M204 S1000
;WIPE_START
G1 F8640
G1 X149.371 Y70.318 E-.05687
G1 X151.05 Y70.321 E-.44313
;WIPE_END
G1 X132.084 Y93.494 F10800
G1 E.5 F2400
M204 S800
;TYPE:Perimeter
;WIDTH:0.419999
G1 F1200
G1 X132.104 Y93.888 E.01237
G1 X132.01 Y94.602 E.02258
G1 X131.854 Y95.082 E.01582
G1 X131.617 Y95.537 E.01609
G1 X131.273 Y95.953 E.01693
G1 X130.966 Y96.28 E.01406
G1 X130.504 Y96.603 E.01767
G1 X129.888 Y96.855 E.02087
G1 X129.574 Y96.955 E.01033
G1 X129.015 Y97.023 E.01766
G1 X128.385 Y96.98 E.0198
G1 X127.783 Y96.815 E.01957
G1 X127.224 Y96.536 E.01959
;WIDTH:0.46287
G1 X127.137 Y96.496 E.00334
;WIDTH:0.505741
G1 X127.049 Y96.457 E.0037
;WIDTH:0.548612
G1 X126.962 Y96.417 E.00403
;WIDTH:0.591482
G1 X126.874 Y96.378 E.00439
G1 X126.616 Y96.142 E.01595
;WIDTH:0.562867
G1 X125.418 Y94.821 E.0771
;WIDTH:0.55785
G1 X124.915 Y94.362 E.02916
G1 X124.761 Y94.19 E.00988
;WIDTH:0.5119
G1 X124.607 Y94.017 E.00903
;WIDTH:0.46595
G1 X124.453 Y93.845 E.00812
;WIDTH:0.419999
G1 X123.04 Y92.733 E.05638
G1 X121.725 Y91.895 E.04889
G1 X120.342 Y91.175 E.04889
G1 X118.902 Y90.579 E.04886
;WIDTH:0.457867
G1 X118.716 Y90.541 E.00655
;WIDTH:0.495735
G1 X118.531 Y90.502 E.00712
;WIDTH:0.533603
G1 X118.346 Y90.464 E.00771
;WIDTH:0.57147
G1 X118.16 Y90.426 E.00834
G1 X117.504 Y90.204 E.03044
;WIDTH:0.543662
G1 X117.345 Y90.16 E.00687
;WIDTH:0.562846
G1 X115.602 Y89.783 E.0771
;WIDTH:0.585124
G1 X115.265 Y89.686 E.01581
G1 X115.144 Y89.603 E.00662
;WIDTH:0.543843
G1 X115.023 Y89.52 E.00611
;WIDTH:0.502562
G1 X114.902 Y89.436 E.00563
;WIDTH:0.461281
G1 X114.781 Y89.353 E.0051
;WIDTH:0.419999
G1 X114.283 Y88.977 E.01957
G1 X113.867 Y88.51 E.01961
G1 X113.552 Y87.973 E.01952
G1 X113.368 Y87.435 E.01783
G1 X113.275 Y86.965 E.01502
G1 X113.263 Y86.451 E.01612
G1 X113.36 Y85.835 E.01955
G1 X113.554 Y85.297 E.01793
G1 X113.897 Y84.722 E.02099
G1 X114.324 Y84.257 E.01979
G1 X114.659 Y83.997 E.0133
G1 X115.106 Y83.745 E.01609
G1 X115.774 Y83.52 E.0221
G1 X116.333 Y83.453 E.01765
G1 X116.93 Y83.489 E.01875
G1 X119.083 Y83.959 E.0691
G1 X121.056 Y84.58 E.06485
G1 X123.012 Y85.387 E.06634
G1 X124.934 Y86.387 E.06793
G1 X126.677 Y87.498 E.06481
G1 X128.357 Y88.785 E.06636
G1 X129.919 Y90.215 E.0664
G1 X131.349 Y91.776 E.06638
G1 X131.688 Y92.263 E.0186
G1 X131.943 Y92.834 E.01961
G1 X132.08 Y93.434 E.0193
M204 S1000
G1 X131.699 Y93.456 F10800
M204 S800
;TYPE:External perimeter
G1 F1200
G1 X131.73 Y93.839 E.01205
G1 X131.636 Y94.553 E.02258
G1 X131.448 Y95.045 E.01651
G1 X131.257 Y95.399 E.01261
G1 X130.783 Y95.941 E.02258
G1 X130.288 Y96.295 E.01908
G1 X129.529 Y96.581 E.02543
G1 X128.97 Y96.649 E.01766
G1 X128.418 Y96.604 E.01736
G1 X127.889 Y96.453 E.01725
G1 X127.399 Y96.201 E.01728
G1 X126.967 Y95.859 E.01728
G1 X125.692 Y94.47 E.05912
G1 X124.519 Y93.393 E.04993
G1 X123.256 Y92.424 E.04991
G1 X121.914 Y91.568 E.04991
G1 X120.502 Y90.833 E.04991
G1 X119.031 Y90.225 E.04991
G1 X117.512 Y89.747 E.04993
G1 X115.699 Y89.345 E.05823
G1 X115.388 Y89.237 E.01032
G1 X114.92 Y88.997 E.01649
G1 X114.516 Y88.68 E.0161
G1 X114.153 Y88.264 E.01731
G1 X113.88 Y87.787 E.01723
G1 X113.701 Y87.195 E.01939
G1 X113.652 Y86.956 E.00765
G1 X113.64 Y86.442 E.01612
G1 X113.731 Y85.9 E.01723
G1 X113.906 Y85.432 E.01567
G1 X114.218 Y84.92 E.0188
G1 X114.597 Y84.518 E.01732
G1 X114.844 Y84.325 E.00983
G1 X115.291 Y84.073 E.01609
G1 X115.813 Y83.898 E.01726
G1 X116.345 Y83.83 E.01682
G1 X116.935 Y83.869 E.01854
G1 X118.97 Y84.319 E.06535
G1 X120.942 Y84.939 E.06481
G1 X122.868 Y85.735 E.06534
G1 X124.731 Y86.705 E.06586
G1 X126.488 Y87.825 E.06533
G1 X128.14 Y89.095 E.06533
G1 X129.664 Y90.493 E.06484
G1 X131.071 Y92.031 E.06536
G1 X131.377 Y92.476 E.01693
G1 X131.596 Y92.981 E.01726
G1 X131.686 Y93.397 E.01335
M204 S1000
G1 X132.058 Y93.593 F10800
;WIPE_START
G1 F8640
G1 X131.73 Y93.839 E-.11722
G1 X131.636 Y94.553 E-.19004
G1 X131.448 Y95.045 E-.13899
G1 X131.351 Y95.224 E-.05375
;WIPE_END
G1 X111.275 Y84.227 F10800
G1 E.5 F2400
M204 S800
;TYPE:Perimeter
G1 F1200
G1 X111.669 Y84.628 E.01763
G1 X112.013 Y85.15 E.0196
G1 X112.249 Y85.729 E.0196
G1 X112.367 Y86.341 E.01954
G1 X112.364 Y86.965 E.01957
G1 X112.247 Y87.52 E.01778
G1 X112.087 Y87.973 E.01506
G1 X111.832 Y88.424 E.01624
G1 X111.574 Y88.754 E.01313
G1 X111.203 Y89.109 E.0161
G1 X110.682 Y89.453 E.01958
;WIDTH:0.462868
G1 X110.604 Y89.509 E.00335
;WIDTH:0.505736
G1 X110.526 Y89.565 E.0037
;WIDTH:0.548605
G1 X110.448 Y89.621 E.00404
;WIDTH:0.591473
G1 X110.37 Y89.677 E.00438
G1 X110.037 Y89.783 E.01594
;WIDTH:0.562846
G1 X108.293 Y90.16 E.07714
;WIDTH:0.543651
G1 X108.181 Y90.19 E.00483
;WIDTH:0.557885
G1 X107.644 Y90.366 E.0242
G1 X107.418 Y90.413 E.00988
;WIDTH:0.511923
G1 X107.192 Y90.46 E.009
;WIDTH:0.465961
G1 X106.966 Y90.507 E.00812
;WIDTH:0.419999
G1 X105.296 Y91.175 E.0564
G1 X103.913 Y91.895 E.04889
G1 X102.598 Y92.733 E.04889
G1 X101.362 Y93.682 E.04886
;WIDTH:0.462118
G1 X101.268 Y93.797 E.00518
;WIDTH:0.504237
G1 X101.174 Y93.912 E.0057
;WIDTH:0.546356
G1 X101.081 Y94.026 E.00616
;WIDTH:0.588475
G1 X100.987 Y94.141 E.00674
G1 X100.595 Y94.474 E.02333
;WIDTH:0.548969
G1 X100.22 Y94.821 E.0215
;WIDTH:0.562869
G1 X99.023 Y96.142 E.07707
;WIDTH:0.591362
G1 X98.764 Y96.378 E.01598
G1 X98.563 Y96.477 E.01022
;WIDTH:0.548522
G1 X98.361 Y96.576 E.00946
;WIDTH:0.505681
G1 X98.16 Y96.675 E.00862
;WIDTH:0.46284
G1 X97.958 Y96.774 E.00785
;WIDTH:0.419999
G1 X97.362 Y96.959 E.01957
G1 X96.799 Y97.001 E.0177
G1 X96.313 Y96.992 E.01524
G1 X95.816 Y96.895 E.01588
G1 X95.237 Y96.661 E.01958
G1 X94.715 Y96.318 E.01958
G1 X94.271 Y95.88 E.01956
G1 X93.942 Y95.386 E.01861
G1 X93.666 Y94.761 E.02142
G1 X93.567 Y94.268 E.01577
G1 X93.545 Y93.552 E.02246
G1 X93.662 Y92.94 E.01954
G1 X93.897 Y92.36 E.01962
G1 X94.289 Y91.776 E.02205
G1 X95.72 Y90.215 E.0664
G1 X97.281 Y88.785 E.06638
G1 X98.92 Y87.526 E.0648
G1 X100.704 Y86.387 E.06636
G1 X102.581 Y85.408 E.06638
G1 X104.536 Y84.597 E.06636
G1 X106.603 Y83.947 E.06794
G1 X108.622 Y83.501 E.06483
G1 X109.161 Y83.452 E.01697
G1 X109.827 Y83.515 E.02098
G1 X110.431 Y83.7 E.01981
G1 X110.979 Y83.997 E.01954
G1 X111.227 Y84.19 E.00985
M204 S1000
G1 X111.102 Y84.581 F10800
M204 S800
;TYPE:External perimeter
G1 F1200
G1 X111.396 Y84.889 E.01335
G1 X111.695 Y85.352 E.01728
G1 X111.897 Y85.865 E.01729
G1 X111.996 Y86.406 E.01724
G1 X111.987 Y86.956 E.01725
G1 X111.889 Y87.403 E.01435
G1 X111.758 Y87.787 E.01272
G1 X111.505 Y88.236 E.01616
G1 X111.314 Y88.481 E.00974
G1 X110.942 Y88.836 E.01612
G1 X110.479 Y89.135 E.01728
G1 X109.967 Y89.337 E.01726
G1 X108.126 Y89.747 E.05914
G1 X106.608 Y90.225 E.0499
G1 X105.137 Y90.833 E.04991
G1 X103.724 Y91.568 E.04994
G1 X102.382 Y92.424 E.04991
G1 X101.119 Y93.393 E.04991
G1 X99.946 Y94.47 E.04993
G1 X98.692 Y95.839 E.05821
G1 X98.27 Y96.181 E.01703
G1 X97.784 Y96.439 E.01725
G1 X97.256 Y96.597 E.01728
G1 X96.549 Y96.635 E.0222
G1 X95.895 Y96.527 E.02078
G1 X95.385 Y96.314 E.01733
G1 X94.928 Y96.006 E.01728
G1 X94.54 Y95.616 E.01725
G1 X94.277 Y95.211 E.01514
G1 X94.023 Y94.638 E.01965
G1 X93.92 Y94.107 E.01696
G1 X93.922 Y93.556 E.01728
G1 X94.031 Y93.017 E.01724
G1 X94.244 Y92.508 E.0173
G1 X94.567 Y92.031 E.01806
G1 X95.975 Y90.493 E.06538
G1 X97.51 Y89.085 E.06531
G1 X99.164 Y87.816 E.06536
G1 X100.907 Y86.705 E.06481
G1 X102.755 Y85.742 E.06534
G1 X104.68 Y84.945 E.06533
G1 X106.668 Y84.319 E.06535
G1 X108.704 Y83.869 E.06538
G1 X109.206 Y83.827 E.01579
G1 X109.786 Y83.889 E.01829
G1 X110.314 Y84.058 E.01738
G1 X110.794 Y84.325 E.01722
G1 X111.061 Y84.538 E.01071
M204 S1000
G1 X111.483 Y84.458 F10800
;WIPE_START
G1 F8640
G1 X111.396 Y84.889 E-.12804
G1 X111.695 Y85.352 E-.14544
G1 X111.897 Y85.865 E-.14549
G1 X111.952 Y86.167 E-.08103
;WIPE_END
G1 X119.198 Y92.211 F10800
G1 E.5 F2400
M204 S800
;TYPE:Perimeter
G1 F1200
G1 X119.441 Y92.722 E.01774
G1 X119.593 Y93.327 E.01956
G1 X119.621 Y93.864 E.01686
G1 X119.576 Y94.371 E.01596
G1 X119.443 Y94.868 E.01613
G1 X119.176 Y95.432 E.01957
G1 X118.831 Y95.901 E.01826
G1 X118.384 Y96.318 E.01917
G1 X117.808 Y96.676 E.02126
G1 X117.22 Y96.887 E.01959
G1 X116.602 Y96.979 E.01959
G1 X115.979 Y96.949 E.01956
G1 X114.23 Y96.602 E.05591
G1 X112.819 Y96.51 E.04433
G1 X111.409 Y96.602 E.0443
G1 X109.734 Y96.939 E.05357
G1 X109.147 Y96.983 E.01846
G1 X108.526 Y96.912 E.0196
G1 X108.035 Y96.756 E.01615
G1 X107.386 Y96.419 E.02293
G1 X106.909 Y96.015 E.0196
