; generated by PrusaSlicer 2.6.1+win64 on 2023-10-02 at 23:28:53 UTC


;
;
; 

; external perimeters extrusion width = 0.45mm
; perimeters extrusion width = 0.45mm
; infill extrusion width = 0.45mm
; solid infill extrusion width = 0.45mm
; top infill extrusion width = 0.40mm
; first layer extrusion width = 0.42mm

M73 P0 R44


; Pre-Processed for Cancel-Object support by preprocess_cancellation v0.2.0
; 1 known objects
EXCLUDE_OBJECT_DEFINE NAME=SV06_EC_heat_bed_cable_clamp_V1_stl_id_0_copy_0 CENTER=108.497,109.935 POLYGON=[[101.179,68.994],[101.179,151.007],[118.817,151.007],[118.817,68.994]]
;TYPE:Custom
M104 S230 ; set extruder temp
M140 S85 ; set bed temp
M190 S85 ; wait for bed temp
M109 S230 ; wait for extruder temp
G28;
G1 Z4.0 F3000 ;Move Z Axis up
G92 E0 ;Reset Extruder
G1 X5.1 Y20 Z0.28 F5000.0 ;Move to start position
G1 X5.1 Y30.0 Z0.28 F1500.0 E1 ;Draw a short bit in case the extruder turns in the wrong direction
G1 X5.1 Y200.0 Z0.28 F1500.0 E15 ;Draw the first line
G1 X5.4 Y200.0 Z0.28 F5000.0 ;Move to side a little
G1 X5.4 Y20 Z0.28 F1500.0 E30 ;Draw the second line
G92 E0 ;Reset Extruder
G1 Z2.0 F3000 ;Move Z Axis up
G21 ; set units to millimeters
G90 ; use absolute coordinates
M83 ; use relative distances for extrusion
; Filament gcode
M107
;LAYER_CHANGE
;Z:0.2
;HEIGHT:0.2
;BEFORE_LAYER_CHANGE
G92 E0.0
;0.2


G1 E-1 F2400
G1 Z.2 F720
;AFTER_LAYER_CHANGE
;0.2
G1 Z.4
G1 X107.555 Y67.705 F10800
G1 Z.2 F720
G1 E1 F2400
M204 S800
;TYPE:Skirt/Brim
;WIDTH:0.42
G1 F1200
G1 X108.083 Y67.159 E.02381
G1 X108.841 Y66.687 E.028
G1 X109.564 Y66.455 E.02381
G1 X110.456 Y66.396 E.02803
G1 X111.109 Y66.505 E.02076
G1 X111.815 Y66.784 E.0238
G1 X119.895 Y71.451 E.29257
G1 X120.408 Y71.87 E.02077
G1 X120.951 Y72.577 E.02795
G1 X121.224 Y73.182 E.02081
G1 X121.374 Y73.827 E.02076
G1 X121.423 Y145.699 E2.2535
G1 X121.336 Y146.493 E.02504
G1 X121.023 Y147.327 E.02793
G1 X120.59 Y147.954 E.02389
G1 X119.918 Y148.543 E.02802
G1 X111.84 Y153.215 E.29259
G1 X111.135 Y153.495 E.02378
G1 X110.249 Y153.611 E.02802
G1 X109.59 Y153.546 E.02076
G1 X108.867 Y153.313 E.02382
G1 X108.108 Y152.842 E.02801
G1 X107.58 Y152.296 E.02381
G1 X102.327 Y143.266 E.32755
G1 X100.843 Y140.29 E.10427
G1 X100.531 Y139.509 E.02637
G1 X99.54 Y136.537 E.09823
G1 X98.933 Y133.566 E.09508
G1 X98.81 Y132.802 E.02426
G1 X98.588 Y129.358 E.10821
G1 X98.577 Y90.678 E1.21278
G1 X98.806 Y87.106 E.11223
G1 X99.399 Y84.019 E.09856
G1 X99.595 Y83.223 E.0257
G1 X100.603 Y80.248 E.09849
G1 X100.941 Y79.475 E.02645
G1 X102.307 Y76.739 E.09588
G1 X107.524 Y67.757 E.32568
M204 S1000
; printing object SV06_EC_heat_bed_cable_clamp_V1.stl id:0 copy 0
EXCLUDE_OBJECT_START NAME=SV06_EC_heat_bed_cable_clamp_V1_stl_id_0_copy_0
;WIPE_START
G1 F8640
G1 X108.083 Y67.159 E-.21602
G1 X108.841 Y66.687 E-.23564
G1 X109.564 Y66.455 E-.20037
G1 X110.456 Y66.396 E-.2359
G1 X110.875 Y66.466 E-.11207
;WIPE_END
G1 Z.4 F720
G1 X109.292 Y148.097 F10800
G1 Z.2 F720
M73 P1 R44
G1 E1 F2400
M204 S800
;TYPE:Perimeter
;WIDTH:0.452273
G1 F1200
G1 X109.434 Y148.392 E.01114
;WIDTH:0.450788
G1 X110.395 Y150.082 E.06593
;WIDTH:0.441978
G1 X110.418 Y150.145 E.00223
G1 X110.434 Y150.231 E.0029
G1 X110.388 Y150.364 E.00467
G1 X110.207 Y150.411 E.00621
G1 X110.049 Y150.281 E.00679
;WIDTH:0.450788
G1 X109.08 Y148.595 E.06595
;WIDTH:0.452273
G1 X108.961 Y148.387 E.00816
G1 X109.247 Y148.136 E.01295
M204 S1000
;WIPE_START
G1 F8640
G1 X109.434 Y148.392 E-.08366
G1 X110.395 Y150.082 E-.51303
G1 X110.418 Y150.145 E-.0177
G1 X110.434 Y150.231 E-.02308
G1 X110.388 Y150.364 E-.03714
G1 X110.207 Y150.411 E-.04935
G1 X110.049 Y150.281 E-.05399
G1 X109.63 Y149.551 E-.22205
;WIPE_END
G1 Z.4 F720
G1 X107.637 Y145.227 F10800
G1 Z.2 F720
G1 E1 F2400
M204 S800
;WIDTH:0.451161
G1 F1200
G1 X107.565 Y145.207 E.00254
G1 X107.215 Y145.361 E.01298
G1 X107.095 Y145.155 E.00809
;WIDTH:0.449534
G1 X106.832 Y144.707 E.01756
;WIDTH:0.443357
G1 X105.054 Y141.625 E.11847
;WIDTH:0.441321
G1 X104.001 Y139.513 E.07818
;WIDTH:0.42423
G1 X103.969 Y139.445 E.00238
;WIDTH:0.454736
G1 X103.651 Y138.763 E.02577
G1 X103.105 Y137.217 E.05614
;WIDTH:0.416506
G1 X103.081 Y137.146 E.00233
;WIDTH:0.455926
G1 X102.621 Y135.731 E.0511
G1 X102.411 Y134.774 E.03365
;WIDTH:0.445235
G1 X101.983 Y132.564 E.0753
G1 X101.963 Y132.348 E.00726
;WIDTH:0.43673
G1 X101.802 Y129.992 E.07733
;WIDTH:0.426455
G1 X101.799 Y129.936 E.00179
;WIDTH:0.446649
G1 X101.767 Y129.295 E.02155
G1 X101.765 Y126.389 E.09756
;WIDTH:0.447931
G1 X101.766 Y126.035 E.01192
G1 X102.177 Y125.88 E.01479
G1 X102.167 Y126.389 E.01714
;WIDTH:0.446649
G1 X102.184 Y129.96 E.11988
;WIDTH:0.43673
G1 X102.356 Y132.32 E.07748
;WIDTH:0.445235
G1 X102.782 Y134.704 E.08101
;WIDTH:0.421735
G1 X102.794 Y134.759 E.00177
;WIDTH:0.455926
G1 X103.016 Y135.608 E.03014
G1 X103.438 Y137.035 E.0511
;WIDTH:0.416506
G1 X103.456 Y137.088 E.00174
;WIDTH:0.454736
G1 X104.038 Y138.622 E.05618
G1 X104.341 Y139.342 E.02675
;WIDTH:0.441321
G1 X105.41 Y141.445 E.07815
;WIDTH:0.443374
G1 X107.178 Y144.506 E.1177
;WIDTH:0.443489
G1 X107.186 Y144.518 E.00048
;WIDTH:0.451161
G1 X107.605 Y145.176 E.02648
M204 S1000
;WIPE_START
G1 F8640
G1 X107.565 Y145.207 E-.01335
G1 X107.215 Y145.361 E-.10091
G1 X107.095 Y145.155 E-.06291
G1 X106.832 Y144.707 E-.13709
G1 X105.533 Y142.456 E-.68574
;WIPE_END
G1 Z.4 F720
G1 X102.199 Y120.612 F10800
G1 Z.2 F720
G1 E1 F2400
M204 S800
;WIDTH:0.451916
G1 F1200
G1 X102.031 Y120.499 E.00689
G1 X101.767 Y120.415 E.00942
G1 X101.763 Y120.021 E.0134
;WIDTH:0.444824
G1 X101.762 Y112.006 E.26785
;WIDTH:0.442623
G1 X101.762 Y111.807 E.00661
G1 X102.161 Y111.805 E.01326
;WIDTH:0.444824
G1 X102.165 Y120.02 E.27453
;WIDTH:0.445656
G1 X102.166 Y120.058 E.00127
;WIDTH:0.451916
G1 X102.196 Y120.552 E.01683
M204 S1000
;WIPE_START
G1 F8640
G1 X102.031 Y120.499 E-.04573
G1 X101.767 Y120.415 E-.07311
G1 X101.763 Y120.021 E-.10398
G1 X101.763 Y117.076 E-.77718
;WIPE_END
G1 Z.4 F720
G1 X107.96 Y145.646 F10800
G1 Z.2 F720
G1 E1 F2400
M204 S800
;TYPE:External perimeter
;WIDTH:0.419999
G1 F1200
G1 X107.723 Y145.566 E.00784
G1 X107.126 Y145.811 E.02023
G1 X106.998 Y145.77 E.00421
M73 P1 R43
G1 X104.749 Y141.882 E.14083
G1 X103.29 Y138.928 E.1033
G1 X102.235 Y135.82 E.10291
G1 X101.593 Y132.602 E.10289
G1 X101.377 Y129.314 E.10331
G1 X101.375 Y125.684 E.11382
G1 X101.635 Y125.669 E.00817
G1 X101.962 Y125.546 E.01095
G1 X102.106 Y125.422 E.00596
;WIDTH:0.425403
G1 X102.237 Y125.169 E.00906
G1 X102.276 Y124.89 E.00896
;WIDTH:0.419865
G1 X102.275 Y121.565 E.10422
;WIDTH:0.441557
G1 X102.224 Y121.225 E.0114
G1 X101.983 Y120.925 E.01276
;WIDTH:0.419999
G1 X101.777 Y120.828 E.00714
G1 X101.374 Y120.772 E.01276
G1 X101.373 Y111.514 E.29028
G1 X101.458 Y111.42 E.00397
G1 X102.55 Y111.415 E.03424
G1 X102.555 Y120.02 E.2698
G1 X102.576 Y120.356 E.01056
;WIDTH:0.429417
G1 X102.651 Y121.565 E.03893
;WIDTH:0.419865
G1 X102.653 Y124.89 E.10422
;WIDTH:0.425403
G1 X102.572 Y125.881 E.03162
;WIDTH:0.419999
G1 X102.557 Y126.388 E.0159
G1 X102.563 Y129.935 E.11121
G1 X102.74 Y132.291 E.07408
G1 X103.158 Y134.657 E.07533
G1 X103.805 Y136.951 E.07473
G1 X104.676 Y139.167 E.07466
G1 X105.755 Y141.268 E.07405
G1 X107.517 Y144.315 E.11036
G1 X107.904 Y144.923 E.0226
G1 X108.354 Y145.569 E.02468
G1 X109.341 Y147.278 E.06188
G1 X109.775 Y148.199 E.03192
G1 X110.733 Y149.891 E.06096
G1 X110.799 Y150.075 E.00613
G1 X110.837 Y150.278 E.00648
G1 X110.779 Y150.493 E.00698
G1 X110.643 Y150.67 E.007
G1 X110.387 Y150.802 E.00903
G1 X110.103 Y150.798 E.00891
G1 X109.848 Y150.656 E.00915
G1 X109.734 Y150.512 E.00576
G1 X108.74 Y148.791 E.06231
G1 X108.504 Y148.329 E.01627
G1 X108.533 Y148.222 E.00348
G1 X109.036 Y147.828 E.02003
G1 X109.1 Y147.631 E.00649
G1 X107.991 Y145.697 E.0699
M204 S1000
G1 X107.976 Y145.397 F10800
;WIPE_START
G1 F8640
G1 X107.723 Y145.566 E-.07872
G1 X107.126 Y145.811 E-.17029
G1 X106.998 Y145.77 E-.03547
G1 X105.64 Y143.423 E-.71552
;WIPE_END
G1 Z.4 F720
G1 X116.668 Y143.83 F10800
G1 Z.2 F720
G1 E1 F2400
M204 S800
;TYPE:Perimeter
;WIDTH:0.45087
G1 F1200
G1 X117.087 Y143.69 E.01499
G1 X117.26 Y143.983 E.01154
;WIDTH:0.445117
G1 X118.179 Y145.563 E.06113
;WIDTH:0.443414
G1 X118.223 Y145.738 E.00601
G1 X118.174 Y145.86 E.00438
G1 X117.985 Y145.915 E.00656
G1 X117.848 Y145.79 E.00618
;WIDTH:0.445117
G1 X116.912 Y144.185 E.06214
;WIDTH:0.45087
G1 X116.702 Y143.88 E.01256
M204 S1000
;WIPE_START
G1 F8640
G1 X117.087 Y143.69 E-.1133
G1 X117.26 Y143.983 E-.08979
G1 X118.179 Y145.563 E-.48234
G1 X118.223 Y145.738 E-.04762
G1 X118.174 Y145.86 E-.03469
G1 X117.985 Y145.915 E-.05194
G1 X117.848 Y145.79 E-.04894
G1 X117.597 Y145.36 E-.13138
;WIPE_END
G1 Z.4 F720
G1 X115.003 Y140.944 F10800
G1 Z.2 F720
G1 E1 F2400
M204 S800
;WIDTH:0.459565
G1 F1200
G1 X114.778 Y140.474 E.01805
;WIDTH:0.502052
G1 X113.616 Y138.41 E.09043
;WIDTH:0.50411
G1 X113.589 Y138.361 E.00215
;WIDTH:0.540362
G1 X113.262 Y137.758 E.02837
;WIDTH:0.576613
G1 X112.936 Y137.155 E.03042
;WIDTH:0.596133
G1 X112.637 Y136.552 E.03096
G1 X112.565 Y136.459 E.00541
;WIDTH:0.5521
G1 X112.493 Y136.367 E.00495
;WIDTH:0.508066
G1 X112.421 Y136.274 E.00455
;WIDTH:0.464033
G1 X112.349 Y136.182 E.00409
;WIDTH:0.419999
G1 X112.146 Y135.786 E.01395
G1 X111.573 Y134.329 E.04909
G1 X111.149 Y132.821 E.04912
G1 X110.9 Y131.413 E.04483
G1 X110.749 Y130.003 E.04446
G1 X111.142 Y130.086 E.01259
G1 X111.592 Y130.278 E.01534
G1 X111.856 Y130.474 E.01031
G1 X112.057 Y130.739 E.01043
G1 X112.213 Y131.167 E.01428
G1 X112.353 Y132.627 E.04599
G1 X112.456 Y133.443 E.02579
G1 X112.732 Y134.798 E.04336
G1 X113.013 Y135.728 E.03046
;WIDTH:0.464033
G1 X113.044 Y135.874 E.00523
;WIDTH:0.508066
G1 X113.075 Y136.021 E.00581
;WIDTH:0.5521
G1 X113.106 Y136.167 E.00632
;WIDTH:0.596133
G1 X113.137 Y136.314 E.00691
G1 X113.417 Y136.925 E.03092
;WIDTH:0.576613
G1 X113.708 Y137.539 E.03015
;WIDTH:0.540362
G1 X113.999 Y138.153 E.0281
;WIDTH:0.50411
G1 X114.018 Y138.189 E.00156
;WIDTH:0.502052
G1 X115.139 Y140.275 E.09041
;WIDTH:0.459565
G1 X115.335 Y140.652 E.01472
G1 X115.048 Y140.904 E.01323
M204 S1000
;WIPE_START
G1 F8640
G1 X114.778 Y140.474 E-.13399
G1 X113.616 Y138.41 E-.62505
G1 X113.589 Y138.361 E-.01476
G1 X113.262 Y137.758 E-.18102
G1 X113.181 Y137.607 E-.04518
;WIPE_END
G1 Z.4 F720
G1 X112.772 Y117.308 F10800
G1 Z.2 F720
G1 E1 F2400
M204 S800
;WIDTH:0.419999
G1 F1200
G1 X111.833 Y117.32 E.02944
G1 X110.786 Y117.417 E.03297
G1 X110.701 Y117.502 E.00377
G1 X110.736 Y117.092 E.0129
G1 X110.747 Y116.589 E.01577
G1 X110.747 Y111.658 E.15461
G1 X110.977 Y111.535 E.00818
G1 X111.099 Y111.102 E.0141
G1 X111.173 Y110.968 E.0048
G1 X111.384 Y110.887 E.00709
G1 X112.722 Y110.889 E.04195
G1 X112.988 Y110.929 E.00843
G1 X113.257 Y111.053 E.00929
G1 X113.43 Y111.3 E.00946
G1 X113.522 Y111.632 E.0108
G1 X113.517 Y116.668 E.1579
G1 X113.404 Y116.979 E.01037
G1 X113.096 Y117.248 E.01282
G1 X112.831 Y117.297 E.00845
M204 S1000
;WIPE_START
G1 F8640
G1 X111.833 Y117.32 E-.26343
G1 X110.786 Y117.417 E-.27747
G1 X110.701 Y117.502 E-.03172
G1 X110.736 Y117.092 E-.10859
G1 X110.747 Y116.589 E-.13277
G1 X110.747 Y115.884 E-.18602
;WIPE_END
G1 Z.4 F720
G1 X116.569 Y143.476 F10800
G1 Z.2 F720
G1 E1 F2400
M204 S800
;TYPE:External perimeter
G1 F1200
G1 X117.162 Y143.237 E.02005
G1 X117.297 Y143.271 E.00437
G1 X118.515 Y145.368 E.07604
G1 X118.624 Y145.652 E.00954
G1 X118.609 Y145.783 E.00413
;WIDTH:0.419991
G1 X118.591 Y145.943 E.00505
G1 X118.476 Y146.128 E.00683
G1 X118.233 Y146.285 E.00907
G1 X117.94 Y146.308 E.00921
G1 X117.73 Y146.22 E.00714
G1 X117.526 Y146.01 E.00918
G1 X116.576 Y144.381 E.05913
G1 X116.041 Y143.625 E.02904
G1 X114.896 Y141.638 E.0719
;WIDTH:0.41983
G1 X114.843 Y141.537 E.00357
;WIDTH:0.420023
G1 X114.436 Y140.671 E.03
G1 X112.539 Y137.378 E.11916
G1 X111.802 Y135.942 E.05061
G1 X111.215 Y134.449 E.0503
G1 X110.781 Y132.905 E.05029
G1 X110.501 Y131.325 E.05031
G1 X110.438 Y130.525 E.02516
G1 X110.276 Y129.31 E.03843
G1 X110.273 Y118.076 E.35226
;WIDTH:0.41978
G1 X110.282 Y117.932 E.00452
;WIDTH:0.419999
G1 X110.358 Y117.096 E.02632
G1 X110.37 Y116.589 E.0159
G1 X110.37 Y111.412 E.16232
G1 X110.505 Y111.412 E.00423
G1 X110.662 Y111.327 E.0056
G1 X110.817 Y110.782 E.01777
G1 X111.034 Y110.585 E.00919
G1 X111.338 Y110.51 E.00982
G1 X112.722 Y110.512 E.04339
G1 X113.228 Y110.596 E.01608
G1 X113.499 Y110.758 E.0099
G1 X113.711 Y110.992 E.0099
G1 X113.878 Y111.396 E.01371
G1 X113.899 Y111.614 E.00687
G1 X113.895 Y115.931 E.13536
G1 X113.876 Y116.796 E.02713
G1 X113.717 Y117.199 E.01358
G1 X113.485 Y117.431 E.01029
G1 X113.232 Y117.603 E.00959
G1 X112.776 Y117.685 E.01453
G1 X111.868 Y117.696 E.02847
G1 X110.821 Y117.793 E.03297
G1 X110.653 Y117.964 E.00752
;WIDTH:0.41978
G1 X110.65 Y118.076 E.00351
;WIDTH:0.419999
G1 X110.66 Y129.469 E.35722
G1 X110.803 Y129.629 E.00673
G1 X111.288 Y129.731 E.01554
G1 X111.868 Y129.987 E.01988
G1 X112.208 Y130.28 E.01407
G1 X112.453 Y130.657 E.0141
G1 X112.585 Y131.094 E.01431
G1 X112.728 Y132.591 E.04715
G1 X112.826 Y133.369 E.02459
G1 X113.093 Y134.69 E.04226
G1 X113.367 Y135.597 E.02971
G1 X113.562 Y136.126 E.01768
G1 X114.383 Y137.983 E.06366
G1 X115.811 Y140.705 E.09638
G1 X115.767 Y140.818 E.0038
G1 X115.262 Y141.213 E.0201
G1 X115.196 Y141.409 E.00648
;WIDTH:0.41983
G1 X115.217 Y141.453 E.00153
;WIDTH:0.419999
G1 X116.346 Y143.409 E.07081
G1 X116.512 Y143.459 E.00544
M204 S1000
G1 X116.744 Y143.836 F10800
;WIPE_START
G1 F8640
G1 X117.162 Y143.237 E-.18126
G1 X117.297 Y143.271 E-.03674
G1 X118.515 Y145.368 E-.63995
G1 X118.624 Y145.652 E-.08027
G1 X118.609 Y145.783 E-.0348
G1 X118.598 Y145.885 E-.02698
;WIPE_END
G1 Z.4 F720
G1 X112.096 Y131.722 F10800
G1 Z.2 F720
G1 E1 F2400
M204 S800
;TYPE:Solid infill
;WIDTH:0.420751
G1 F1200
G1 X111.173 Y130.799 E.04101
G1 X111.243 Y131.403 E.0191
G1 X111.964 Y132.124 E.03203
G1 X112.02 Y132.715 E.01865
G1 X111.357 Y132.052 E.02946
G1 X111.472 Y132.701 E.02071
G1 X112.095 Y133.324 E.02768
G1 X112.219 Y133.982 E.02104
G1 X111.675 Y133.438 E.02417
G1 X111.885 Y134.182 E.02429
G1 X112.353 Y134.651 E.02082
G1 X112.387 Y134.821 E.00545
G1 X112.565 Y135.396 E.01891
G1 X111.923 Y134.755 E.0285
M204 S1000
;WIPE_START
G1 F8640
G1 X112.565 Y135.396 E-.2394
G1 X112.387 Y134.821 E-.15884
G1 X112.353 Y134.651 E-.04575
G1 X111.885 Y134.182 E-.17484
G1 X111.675 Y133.438 E-.204
G1 X112.15 Y133.913 E-.17717
;WIPE_END
G1 Z.4 F720
G1 X112.77 Y111.059 F10800
G1 Z.2 F720
G1 E1 F2400
M204 S800
;WIDTH:0.437491
G1 F1200
G1 X113.1 Y111.389 E.01531
G1 X113.172 Y111.565 E.00624
G1 X113.173 Y112.021 E.01496
G1 X112.381 Y111.228 E.03677
G1 X111.821 Y111.227 E.01837
G1 X113.174 Y112.579 E.06275
G1 X113.174 Y113.138 E.01834
G1 X111.399 Y111.363 E.08236
G1 X111.254 Y111.745 E.01341
G1 X111.234 Y111.756 E.00075
G1 X113.175 Y113.696 E.09004
G1 X113.175 Y114.255 E.01834
G1 X111.087 Y112.166 E.0969
G1 X111.087 Y112.724 E.01831
G1 X113.176 Y114.814 E.09695
G1 X113.177 Y115.372 E.01831
G1 X111.087 Y113.282 E.09697
G1 X111.087 Y113.84 E.01831
G1 X113.177 Y115.931 E.097
G1 X113.178 Y116.489 E.01831
G1 X111.087 Y114.398 E.09702
G1 X111.086 Y114.956 E.01831
G1 X113.017 Y116.886 E.08957
G1 X112.987 Y116.916 E.00139
G1 X112.815 Y116.968 E.0059
G1 X112.543 Y116.971 E.00892
G1 X111.086 Y115.514 E.0676
G1 X111.086 Y116.072 E.01831
G1 X111.992 Y116.977 E.04201
G1 X111.471 Y117.014 E.01714
G1 X110.917 Y116.46 E.0257
M204 S1000
;WIPE_START
G1 F8640
G1 X111.471 Y117.014 E-.20675
G1 X111.992 Y116.977 E-.13783
G1 X111.086 Y116.072 E-.33793
G1 X111.086 Y115.514 E-.14725
G1 X111.542 Y115.97 E-.17024
;WIPE_END
G1 Z.4 F720
G1 X116.648 Y76.171 F10800
G1 Z.2 F720
G1 E1 F2400
M204 S800
;TYPE:Perimeter
;WIDTH:0.451385
G1 F1200
G1 X116.838 Y75.893 E.01144
;WIDTH:0.449901
G1 X117.822 Y74.216 E.0658
;WIDTH:0.443623
G1 X117.967 Y74.078 E.00667
G1 X118.146 Y74.119 E.00612
G1 X118.205 Y74.248 E.00473
G1 X118.172 Y74.411 E.00554
;WIDTH:0.449901
G1 X117.189 Y76.099 E.0661
;WIDTH:0.451385
G1 X117.068 Y76.307 E.00817
G1 X116.705 Y76.16 E.0133
M204 S1000
;WIPE_START
G1 F8640
G1 X116.838 Y75.893 E-.07872
G1 X117.822 Y74.216 E-.5131
G1 X117.967 Y74.078 E-.05282
G1 X118.146 Y74.119 E-.04846
