; generated by PrusaSlicer 2.6.1+win64 on 2023-10-05 at 17:15:41 UTC


;
;
; 

; external perimeters extrusion width = 0.45mm
; perimeters extrusion width = 0.45mm
; infill extrusion width = 0.45mm
; solid infill extrusion width = 0.45mm
; top infill extrusion width = 0.40mm
; support material extrusion width = 0.35mm
; first layer extrusion width = 0.42mm

M73 P0 R21


; Pre-Processed for Cancel-Object support by preprocess_cancellation v0.2.0
; 1 known objects
EXCLUDE_OBJECT_DEFINE NAME=sv06_pip_bed_bracket_stl_id_0_copy_0 CENTER=110.010,110.262 POLYGON=[[93.214,102.442],[93.214,119.865],[126.786,119.865],[126.786,102.442]]
;TYPE:Custom
M104 S230 ; set extruder temp
M140 S85 ; set bed temp
M190 S85 ; wait for bed temp
M109 S230 ; wait for extruder temp
G28;
G1 Z4.0 F3000 ;Move Z Axis up
G92 E0 ;Reset Extruder
G1 X5.1 Y20 Z0.28 F5000.0 ;Move to start position
G1 X5.1 Y30.0 Z0.28 F1500.0 E1 ;Draw a short bit in case the extruder turns in the wrong direction
G1 X5.1 Y200.0 Z0.28 F1500.0 E15 ;Draw the first line
G1 X5.4 Y200.0 Z0.28 F5000.0 ;Move to side a little
G1 X5.4 Y20 Z0.28 F1500.0 E30 ;Draw the second line
G92 E0 ;Reset Extruder
G1 Z2.0 F3000 ;Move Z Axis up
G21 ; set units to millimeters
G90 ; use absolute coordinates
M83 ; use relative distances for extrusion
; Filament gcode
M107
;LAYER_CHANGE
;Z:0.3
;HEIGHT:0.3
;BEFORE_LAYER_CHANGE
G92 E0.0
;0.3


M73 P1 R21
G1 E-1 F2400
G1 Z.2 F720
G1 Z.3
;AFTER_LAYER_CHANGE
;0.3
G1 Z.5
G1 X91.25 Y101.142 F10800
G1 Z.3 F720
G1 E1 F2400
M204 S800
;TYPE:Skirt/Brim
;WIDTH:0.42
G1 F1200
G1 X92.294 Y100.274 E.06022
G1 X93.214 Y100.087 E.04164
G1 X126.786 Y100.087 E1.48908
G1 X128.086 Y100.478 E.06021
G1 X128.955 Y101.523 E.06028
G1 X129.142 Y102.442 E.0416
G1 X129.142 Y119.865 E.77279
G1 X128.75 Y121.165 E.06023
G1 X127.706 Y122.033 E.06022
G1 X126.786 Y122.22 E.04164
G1 X93.214 Y122.22 E1.48908
G1 X91.914 Y121.829 E.06021
G1 X91.045 Y120.784 E.06028
G1 X90.858 Y119.865 E.0416
G1 X90.858 Y102.442 E.77279
G1 X91.233 Y101.199 E.05759
M204 S1000
; printing object sv06 pip bed bracket.stl id:0 copy 0
EXCLUDE_OBJECT_START NAME=sv06_pip_bed_bracket_stl_id_0_copy_0
;WIPE_START
G1 F8640
G1 X92.294 Y100.274 E-.37145
G1 X93.214 Y100.087 E-.24774
G1 X94.657 Y100.087 E-.38081
;WIPE_END
G1 Z.5 F720
G1 X98.52 Y104.02 F10800
G1 Z.3 F720
G1 E1 F2400
M204 S800
;TYPE:Support material
G1 F1200
G1 X96.551 Y104.02 E.08733
G1 X96.27 Y104.301 E.01763
G1 X96.27 Y112.699 E.37249
G1 X96.551 Y112.98 E.01763
G1 X104.699 Y112.98 E.3614
G1 X104.98 Y112.699 E.01763
G1 X104.98 Y107.48 E.23149
G1 X115.02 Y107.48 E.44532
G1 X115.02 Y112.699 E.23149
G1 X115.301 Y112.98 E.01763
G1 X123.449 Y112.98 E.3614
G1 X123.73 Y112.699 E.01763
G1 X123.73 Y104.301 E.37249
G1 X123.449 Y104.02 E.01763
G1 X121.48 Y104.02 E.08733
G1 X121.48 Y102.442 E.06999
G1 X126.786 Y102.442 E.23535
G1 X126.786 Y119.865 E.77279
M73 P2 R21
G1 X93.214 Y119.865 E1.48908
G1 X93.214 Y102.442 E.77279
G1 X98.52 Y102.442 E.23535
G1 X98.52 Y103.967 E.06764
M204 S1000
;WIPE_START
G1 F8640
G1 X98.52 Y102.442 E-.40243
G1 X96.256 Y102.442 E-.59757
;WIPE_END
G1 Z.5 F720
G1 X126.2 Y119.705 F10800
G1 Z.3 F720
G1 E1 F2400
M204 S800
G1 F1200
G1 X126.2 Y102.762 E.7515
G1 X125.805 Y102.762 E.01752
G1 X125.805 Y119.545 E.74441
G1 X125.41 Y119.545 E.01752
G1 X125.41 Y102.762 E.74441
G1 X125.015 Y102.762 E.01752
G1 X125.015 Y119.545 E.74441
G1 X124.62 Y119.545 E.01752
G1 X124.62 Y102.762 E.74441
G1 X124.225 Y102.762 E.01752
G1 X124.225 Y119.545 E.74441
G1 X123.83 Y119.545 E.01752
G1 X123.83 Y113.052 E.288
G1 X123.581 Y113.3 E.01559
G1 X123.434 Y113.3 E.00652
G1 X123.434 Y119.545 E.277
G1 X123.039 Y119.545 E.01752
G1 X123.039 Y113.3 E.277
G1 X122.644 Y113.3 E.01752
G1 X122.644 Y119.545 E.277
G1 X122.249 Y119.545 E.01752
G1 X122.249 Y113.3 E.277
G1 X121.854 Y113.3 E.01752
G1 X121.854 Y119.545 E.277
G1 X121.459 Y119.545 E.01752
G1 X121.459 Y113.3 E.277
G1 X121.064 Y113.3 E.01752
G1 X121.064 Y119.545 E.277
G1 X120.669 Y119.545 E.01752
G1 X120.669 Y113.3 E.277
G1 X120.273 Y113.3 E.01756
M73 P3 R21
G1 X120.273 Y119.545 E.277
G1 X119.878 Y119.545 E.01752
G1 X119.878 Y113.3 E.277
G1 X119.483 Y113.3 E.01752
G1 X119.483 Y119.545 E.277
G1 X119.088 Y119.545 E.01752
G1 X119.088 Y113.3 E.277
G1 X118.693 Y113.3 E.01752
G1 X118.693 Y119.545 E.277
G1 X118.298 Y119.545 E.01752
G1 X118.298 Y113.3 E.277
G1 X117.903 Y113.3 E.01752
G1 X117.903 Y119.545 E.277
G1 X117.508 Y119.545 E.01752
G1 X117.508 Y113.3 E.277
G1 X117.112 Y113.3 E.01756
G1 X117.112 Y119.545 E.277
G1 X116.717 Y119.545 E.01752
G1 X116.717 Y113.3 E.277
G1 X116.322 Y113.3 E.01752
G1 X116.322 Y119.545 E.277
G1 X115.927 Y119.545 E.01752
G1 X115.927 Y113.3 E.277
G1 X115.532 Y113.3 E.01752
G1 X115.532 Y119.545 E.277
G1 X115.137 Y119.545 E.01752
G1 X115.137 Y113.268 E.27842
G1 X114.742 Y112.873 E.02478
G1 X114.742 Y119.545 E.29594
G1 X114.346 Y119.545 E.01756
G1 X114.346 Y107.8 E.52095
G1 X113.951 Y107.8 E.01752
G1 X113.951 Y119.545 E.52095
G1 X113.556 Y119.545 E.01752
G1 X113.556 Y107.8 E.52095
G1 X113.161 Y107.8 E.01752
G1 X113.161 Y119.545 E.52095
G1 X112.766 Y119.545 E.01752
G1 X112.766 Y107.8 E.52095
M73 P3 R20
G1 X112.371 Y107.8 E.01752
G1 X112.371 Y119.545 E.52095
G1 X111.976 Y119.545 E.01752
G1 X111.976 Y107.8 E.52095
G1 X111.581 Y107.8 E.01752
G1 X111.581 Y119.545 E.52095
G1 X111.185 Y119.545 E.01756
G1 X111.185 Y107.8 E.52095
G1 X110.79 Y107.8 E.01752
G1 X110.79 Y119.545 E.52095
G1 X110.395 Y119.545 E.01752
G1 X110.395 Y107.8 E.52095
G1 X110 Y107.8 E.01752
G1 X110 Y119.545 E.52095
G1 X109.605 Y119.545 E.01752
G1 X109.605 Y107.8 E.52095
G1 X109.21 Y107.8 E.01752
M73 P4 R20
G1 X109.21 Y119.545 E.52095
G1 X108.815 Y119.545 E.01752
G1 X108.815 Y107.8 E.52095
G1 X108.419 Y107.8 E.01756
G1 X108.419 Y119.545 E.52095
G1 X108.024 Y119.545 E.01752
G1 X108.024 Y107.8 E.52095
G1 X107.629 Y107.8 E.01752
G1 X107.629 Y119.545 E.52095
G1 X107.234 Y119.545 E.01752
G1 X107.234 Y107.8 E.52095
G1 X106.839 Y107.8 E.01752
G1 X106.839 Y119.545 E.52095
G1 X106.444 Y119.545 E.01752
G1 X106.444 Y107.8 E.52095
G1 X106.049 Y107.8 E.01752
G1 X106.049 Y119.545 E.52095
G1 X105.654 Y119.545 E.01752
G1 X105.654 Y107.8 E.52095
G1 X105.3 Y107.8 E.0157
G1 X105.3 Y112.831 E.22315
G1 X105.258 Y112.873 E.00263
G1 X105.258 Y119.545 E.29594
G1 X104.863 Y119.545 E.01752
G1 X104.863 Y113.268 E.27842
G1 X104.831 Y113.3 E.00201
G1 X104.468 Y113.3 E.0161
G1 X104.468 Y119.545 E.277
G1 X104.073 Y119.545 E.01752
G1 X104.073 Y113.3 E.277
G1 X103.678 Y113.3 E.01752
G1 X103.678 Y119.545 E.277
G1 X103.283 Y119.545 E.01752
G1 X103.283 Y113.3 E.277
G1 X102.888 Y113.3 E.01752
G1 X102.888 Y119.545 E.277
G1 X102.492 Y119.545 E.01756
G1 X102.492 Y113.3 E.277
G1 X102.097 Y113.3 E.01752
G1 X102.097 Y119.545 E.277
G1 X101.702 Y119.545 E.01752
G1 X101.702 Y113.3 E.277
G1 X101.307 Y113.3 E.01752
G1 X101.307 Y119.545 E.277
G1 X100.912 Y119.545 E.01752
G1 X100.912 Y113.3 E.277
G1 X100.517 Y113.3 E.01752
G1 X100.517 Y119.545 E.277
G1 X100.122 Y119.545 E.01752
G1 X100.122 Y113.3 E.277
G1 X99.727 Y113.3 E.01752
G1 X99.727 Y119.545 E.277
G1 X99.331 Y119.545 E.01756
G1 X99.331 Y113.3 E.277
G1 X98.936 Y113.3 E.01752
G1 X98.936 Y119.545 E.277
G1 X98.541 Y119.545 E.01752
G1 X98.541 Y113.3 E.277
G1 X98.146 Y113.3 E.01752
M73 P5 R20
G1 X98.146 Y119.545 E.277
G1 X97.751 Y119.545 E.01752
G1 X97.751 Y113.3 E.277
G1 X97.356 Y113.3 E.01752
G1 X97.356 Y119.545 E.277
G1 X96.961 Y119.545 E.01752
G1 X96.961 Y113.3 E.277
G1 X96.566 Y113.3 E.01752
G1 X96.566 Y119.545 E.277
G1 X96.17 Y119.545 E.01756
G1 X96.17 Y113.052 E.288
G1 X95.95 Y112.831 E.01383
G1 X95.95 Y104.169 E.3842
G1 X96.17 Y103.948 E.01383
G1 X96.17 Y102.762 E.0526
G1 X96.566 Y102.762 E.01756
G1 X96.566 Y103.7 E.0416
G1 X96.961 Y103.7 E.01752
G1 X96.961 Y102.762 E.0416
G1 X97.356 Y102.762 E.01752
G1 X97.356 Y103.7 E.0416
G1 X97.751 Y103.7 E.01752
G1 X97.751 Y102.762 E.0416
G1 X98.146 Y102.762 E.01752
G1 X98.146 Y103.86 E.0487
M204 S1000
;WIPE_START
G1 F8640
G1 X98.146 Y102.762 E-.28975
G1 X97.751 Y102.762 E-.10424
G1 X97.751 Y103.7 E-.24753
G1 X97.356 Y103.7 E-.10424
G1 X97.356 Y102.762 E-.24753
G1 X97.331 Y102.762 E-.00671
;WIPE_END
G1 Z.5 F720
G1 X123.83 Y104.174 F10800
G1 Z.3 F720
G1 E1 F2400
M204 S800
G1 F1200
G1 X123.83 Y102.762 E.06263
G1 X123.434 Y102.762 E.01756
G1 X123.434 Y103.7 E.0416
G1 X123.039 Y103.7 E.01752
G1 X123.039 Y102.762 E.0416
G1 X122.644 Y102.762 E.01752
G1 X122.644 Y103.7 E.0416
G1 X122.249 Y103.7 E.01752
G1 X122.249 Y102.762 E.0416
G1 X121.854 Y102.762 E.01752
G1 X121.854 Y103.86 E.0487
M204 S1000
;WIPE_START
G1 F8640
G1 X121.854 Y102.762 E-.28975
G1 X122.249 Y102.762 E-.10424
G1 X122.249 Y103.7 E-.24753
G1 X122.644 Y103.7 E-.10424
G1 X122.644 Y102.762 E-.24753
G1 X122.669 Y102.762 E-.00671
;WIPE_END
G1 Z.5 F720
G1 X95.775 Y119.705 F10800
G1 Z.3 F720
G1 E1 F2400
M204 S800
G1 F1200
G1 X95.775 Y102.762 E.7515
G1 X95.38 Y102.762 E.01752
G1 X95.38 Y119.545 E.74441
G1 X94.985 Y119.545 E.01752
G1 X94.985 Y102.762 E.74441
G1 X94.59 Y102.762 E.01752
G1 X94.59 Y119.545 E.74441
G1 X94.195 Y119.545 E.01752
G1 X94.195 Y102.762 E.74441
G1 X93.8 Y102.762 E.01752
G1 X93.8 Y119.705 E.7515
M204 S1000
;WIPE_START
G1 F8640
G1 X93.8 Y115.916 E-1
;WIPE_END
G1 Z.5 F720
G1 X100.844 Y108.856 F10800
G1 Z.3 F720
G1 E1 F2400
M204 S800
G1 F1200
G1 X101.087 Y108.917 E.01111
G1 X101.199 Y108.972 E.00553
G1 X101.397 Y109.126 E.01113
G1 X101.544 Y109.328 E.01108
G1 X101.595 Y109.443 E.00558
G1 X101.629 Y109.563 E.00553
G1 X101.647 Y109.813 E.01112
G1 X101.595 Y110.057 E.01107
G1 X101.544 Y110.172 E.00558
G1 X101.397 Y110.374 E.01108
G1 X101.303 Y110.458 E.00559
G1 X101.087 Y110.583 E.01107
G1 X100.844 Y110.644 E.01111
G1 X100.719 Y110.648 E.00555
G1 X100.472 Y110.605 E.01112
G1 X100.247 Y110.495 E.01111
G1 X100.149 Y110.418 E.00553
G1 X99.988 Y110.226 E.01111
G1 X99.929 Y110.116 E.00554
G1 X99.86 Y109.875 E.01112
G1 X99.851 Y109.75 E.00556
G1 X99.86 Y109.625 E.00556
G1 X99.929 Y109.384 E.01112
G1 X99.988 Y109.274 E.00554
G1 X100.149 Y109.082 E.01111
G1 X100.247 Y109.005 E.00553
G1 X100.472 Y108.895 E.01111
G1 X100.594 Y108.865 E.00557
G1 X100.791 Y108.854 E.00875
M204 S1000
G1 X101.307 Y110.232 F10800
M204 S800
G1 F1200
G1 X101.307 Y109.601 E.02799
G1 X101.293 Y109.552 E.00226
G1 X101.166 Y109.348 E.01066
G1 X101.039 Y109.249 E.00714
G1 X100.912 Y109.196 E.0061
G1 X100.912 Y110.304 E.04915
G1 X100.73 Y110.328 E.00814
G1 X100.517 Y110.278 E.0097
G1 X100.517 Y109.05 E.05447
M204 S1000
;WIPE_START
G1 F8640
G1 X100.517 Y110.278 E-.32406
G1 X100.73 Y110.328 E-.05774
G1 X100.912 Y110.304 E-.04844
G1 X100.912 Y109.196 E-.29239
G1 X101.039 Y109.249 E-.03632
G1 X101.166 Y109.348 E-.04249
G1 X101.293 Y109.552 E-.06341
G1 X101.307 Y109.601 E-.01345
G1 X101.307 Y110.062 E-.1217
;WIPE_END
G1 Z.5 F720
G1 X119.344 Y108.856 F10800
G1 Z.3 F720
G1 E1 F2400
M204 S800
G1 F1200
G1 X119.587 Y108.917 E.01111
G1 X119.699 Y108.972 E.00553
G1 X119.897 Y109.126 E.01113
G1 X120.044 Y109.328 E.01108
G1 X120.095 Y109.443 E.00558
G1 X120.147 Y109.687 E.01107
G1 X120.147 Y109.813 E.00559
G1 X120.095 Y110.057 E.01107
G1 X120.044 Y110.172 E.00558
G1 X119.897 Y110.374 E.01108
G1 X119.699 Y110.528 E.01113
G1 X119.587 Y110.583 E.00553
G1 X119.344 Y110.644 E.01111
G1 X119.219 Y110.648 E.00555
G1 X119.094 Y110.635 E.00557
G1 X118.856 Y110.558 E.0111
G1 X118.747 Y110.495 E.00558
G1 X118.561 Y110.328 E.01109
G1 X118.429 Y110.116 E.01108
G1 X118.36 Y109.875 E.01112
G1 X118.351 Y109.75 E.00556
G1 X118.36 Y109.625 E.00556
G1 X118.429 Y109.384 E.01112
G1 X118.561 Y109.172 E.01108
G1 X118.649 Y109.082 E.00558
G1 X118.856 Y108.942 E.01108
G1 X118.972 Y108.895 E.00555
G1 X119.094 Y108.865 E.00557
G1 X119.291 Y108.854 E.00875
M204 S1000
G1 X119.483 Y110.449 F10800
M204 S800
G1 F1200
G1 X119.483 Y109.222 E.05442
G1 X119.31 Y109.175 E.00795
G1 X119.088 Y109.196 E.00989
G1 X119.088 Y110.304 E.04915
G1 X118.997 Y110.269 E.00432
G1 X118.863 Y110.18 E.00714
G1 X118.722 Y109.985 E.01067
G1 X118.693 Y109.902 E.0039
G1 X118.693 Y109.266 E.02821
M204 S1000
;WIPE_START
G1 F8640
G1 X118.693 Y109.902 E-.16783
G1 X118.722 Y109.985 E-.0232
G1 X118.863 Y110.18 E-.0635
G1 X118.997 Y110.269 E-.04245
G1 X119.088 Y110.304 E-.02573
G1 X119.088 Y109.196 E-.29239
G1 X119.31 Y109.175 E-.05884
G1 X119.483 Y109.222 E-.04731
G1 X119.483 Y110.278 E-.27875
;WIPE_END
G1 Z.5 F720
G1 X103.769 Y106.672 F10800
G1 Z.3 F720
G1 E1 F2400
M204 S800
;TYPE:Perimeter
;WIDTH:0.42
M73 P6 R20
G1 F1200
G1 X103.734 Y106.768 E.00453
G1 X103.734 Y111.734 E.22027
G1 X101.526 Y111.734 E.09794
G1 X101.885 Y111.567 E.01756
G1 X102.342 Y111.184 E.02645
G1 X102.675 Y110.69 E.02642
G1 X102.853 Y110.177 E.02408
G1 X102.892 Y109.638 E.02397
G1 X102.787 Y109.087 E.02488
G1 X102.506 Y108.527 E.02779
G1 X102.125 Y108.107 E.02515
G1 X101.621 Y107.793 E.02634
G1 X101.047 Y107.628 E.02649
G1 X100.573 Y107.616 E.02103
G1 X100.012 Y107.739 E.02547
G1 X99.469 Y108.034 E.02741
G1 X99.062 Y108.431 E.02522
G1 X98.764 Y108.947 E.02643
G1 X98.62 Y109.526 E.02646
G1 X98.628 Y110.067 E.024
G1 X98.764 Y110.553 E.02238
G1 X99.083 Y111.093 E.02782
G1 X99.493 Y111.485 E.02516
G1 X99.959 Y111.734 E.02343
G1 X97.516 Y111.734 E.10836
G1 X97.516 Y105.266 E.28689
G1 X122.484 Y105.266 E1.10745
G1 X122.484 Y111.734 E.28689
G1 X120.026 Y111.734 E.10902
G1 X120.385 Y111.567 E.01756
G1 X120.842 Y111.184 E.02645
G1 X121.175 Y110.69 E.02642
G1 X121.353 Y110.177 E.02408
G1 X121.392 Y109.637 E.02401
G1 X121.287 Y109.088 E.02479
G1 X121.026 Y108.552 E.02644
G1 X120.626 Y108.108 E.02651
G1 X120.121 Y107.793 E.0264
G1 X119.547 Y107.628 E.02649
G1 X119.073 Y107.616 E.02103
G1 X118.518 Y107.737 E.0252
G1 X117.991 Y108.017 E.02647
G1 X117.562 Y108.431 E.02644
G1 X117.264 Y108.947 E.02643
G1 X117.12 Y109.526 E.02646
G1 X117.128 Y110.067 E.024
G1 X117.264 Y110.553 E.02238
G1 X117.562 Y111.07 E.02647
G1 X117.991 Y111.483 E.02641
G1 X118.459 Y111.734 E.02356
G1 X116.266 Y111.734 E.09727
G1 X116.266 Y106.778 E.21982
G1 X116.141 Y106.426 E.01657
G1 X115.732 Y106.234 E.02004
G1 X104.268 Y106.234 E.50848
G1 X104.176 Y106.242 E.0041
G1 X103.859 Y106.425 E.01624
G1 X103.79 Y106.616 E.00901
M204 S1000
G1 X104.09 Y106.768 F10800
M204 S800
;TYPE:External perimeter
G1 F1200
G1 X104.09 Y112.09 E.23606
G1 X101.774 Y112.09 E.10273
;WIDTH:0.46149
G1 X101.591 Y112.069 E.00912
;WIDTH:0.502981
G1 X101.407 Y112.049 E.01012
;WIDTH:0.544472
G1 X101.223 Y112.028 E.01109
G1 X100.694 Y112.041 E.03169
;WIDTH:0.517399
G1 X100.43 Y112.066 E.01498
;WIDTH:0.468699
G1 X100.166 Y112.09 E.01337
;WIDTH:0.42
G1 X97.16 Y112.09 E.13333
G1 X97.16 Y104.91 E.31847
G1 X122.84 Y104.91 E1.13903
G1 X122.84 Y106.69 E.07895
G1 X122.84 Y112.09 E.23952
G1 X120.274 Y112.09 E.11381
;WIDTH:0.46149
G1 X120.091 Y112.069 E.00912
;WIDTH:0.502981
G1 X119.907 Y112.049 E.01012
;WIDTH:0.544472
G1 X119.723 Y112.028 E.01109
G1 X119.194 Y112.041 E.03169
;WIDTH:0.56014
G1 X118.666 Y112.02 E.03267
G1 X118.469 Y112.043 E.01226
;WIDTH:0.513426
G1 X118.272 Y112.067 E.01112
;WIDTH:0.466713
G1 X118.076 Y112.09 E.0099
;WIDTH:0.42
G1 X115.91 Y112.09 E.09607
G1 X115.91 Y106.778 E.23561
G1 X115.869 Y106.654 E.00579
G1 X115.732 Y106.59 E.00671
G1 X104.268 Y106.59 E.50848
G1 X104.131 Y106.654 E.00671
G1 X104.11 Y106.711 E.00269
M204 S1000
G1 X103.704 Y106.871 F10800
;WIPE_START
G1 F8640
G1 X104.096 Y110.5 E-1
;WIPE_END
G1 Z.5 F720
G1 X118.562 Y111.434 F10800
G1 Z.3 F720
G1 E1 F2400
M204 S800
;WIDTH:0.513426
G1 F1200
G1 X118.416 Y111.341 E.0097
;WIDTH:0.466713
G1 X118.27 Y111.247 E.00871
;WIDTH:0.42
G1 X117.864 Y110.881 E.02425
G1 X117.626 Y110.5 E.01993
G1 X117.478 Y110.005 E.02292
G1 X117.482 Y109.477 E.02342
G1 X117.626 Y109 E.0221
G1 X117.896 Y108.581 E.02211
G1 X118.28 Y108.249 E.02252
G1 X118.72 Y108.041 E.02159
G1 X119.172 Y107.963 E.02034
G1 X119.461 Y107.974 E.01283
G1 X119.943 Y108.101 E.02211
G1 X120.371 Y108.355 E.02208
G1 X120.712 Y108.719 E.02212
G1 X120.939 Y109.161 E.02204
G1 X121.036 Y109.65 E.02211
G1 X120.995 Y110.146 E.02207
G1 X120.818 Y110.612 E.02211
G1 X120.52 Y111.01 E.02205
G1 X120.123 Y111.312 E.02212
;WIDTH:0.46149
G1 X119.976 Y111.391 E.00827
;WIDTH:0.502981
G1 X119.829 Y111.471 E.00916
;WIDTH:0.544472
