; generated by PrusaSlicer 2.6.1+win64 on 2023-10-09 at 19:02:29 UTC

; 

; external perimeters extrusion width = 0.40mm
; perimeters extrusion width = 0.46mm
; infill extrusion width = 0.46mm
; solid infill extrusion width = 0.56mm
; top infill extrusion width = 0.40mm
; support material extrusion width = 0.46mm
; first layer extrusion width = 0.50mm

M190 S60 ; set bed temperature and wait for it to be reached


; Pre-Processed for Cancel-Object support by preprocess_cancellation v0.2.0
; 1 known objects
EXCLUDE_OBJECT_DEFINE NAME=SV06_GT2_Y_Stop_v3_stl_id_0_copy_0 CENTER=113.617,117.533 POLYGON=[[106.4,100.7],[106.4,134.3],[118.6,134.3],[118.6,100.7]]
M104 S200 ; set temperature
;TYPE:Custom
G28 ; home all axes
G1 Z5 F5000 ; lift nozzle
M109 S200 ; set temperature and wait for it to be reached
G21 ; set units to millimeters
G90 ; use absolute coordinates
M82 ; use absolute distances for extrusion
G92 E0
; Filament gcode
M107
;LAYER_CHANGE
;Z:0.26
;HEIGHT:0.26
G1 Z.26 F18000
G1 E-2 F2400
G92 E0
M204 S3500
G1 X109.52 Y97.564 F18000
G1 E2 F2400
M204 S1000
;TYPE:Skirt/Brim
;WIDTH:0.5
G1 F1800
G1 X110.728 Y96.583 E2.07472
G1 X112.097 Y95.976 E2.14663
G1 X113.438 Y95.748 E2.21194
G1 X115.998 Y95.736 E2.33486
G1 X117.244 Y95.737 E2.39469
G1 X119.297 Y96.203 E2.49578
G1 X120.975 Y97.443 E2.59596
G1 X121.622 Y98.397 E2.65131
G1 X122.206 Y100.686 E2.76474
G1 X122.207 Y134.3 E4.37876
G1 X122.065 Y135.457 E4.43473
G1 X121.242 Y137.223 E4.52828
G1 X119.46 Y138.717 E4.63994
G1 X117.235 Y139.263 E4.74995
G1 X113.652 Y139.262 E4.92199
G1 X112.753 Y139.179 E4.96534
G1 X111.954 Y138.983 E5.00484
G1 X111.039 Y138.599 E5.05249
G1 X110.203 Y138.063 E5.10017
G1 X109.434 Y137.348 E5.15059
G1 X102.637 Y127.717 E5.7166
G1 X101.942 Y126.431 E5.78679
G1 X101.546 Y125.068 E5.85494
G1 X101.445 Y124.069 E5.90315
G1 X101.449 Y110.778 E6.54134
G1 X101.667 Y109.397 E6.60847
G1 X102.016 Y108.399 E6.65924
G1 X102.474 Y107.537 E6.70611
G1 X109.016 Y98.17 E7.25471
G1 X109.482 Y97.61 E7.28969
M204 S3500
G1 X109.822 Y97.893 F18000
M204 S1000
G1 F1800
G1 X109.837 Y97.875 E7.29082
G1 X110.95 Y96.967 E7.35979
G1 X112.213 Y96.405 E7.42617
G1 X113.451 Y96.192 E7.48649
G1 X115.998 Y96.18 E7.60879
G1 X117.243 Y96.181 E7.66857
G1 X119.237 Y96.667 E7.76712
G1 X121.172 Y98.5 E7.8951
G1 X121.762 Y100.686 E8.00382
G1 X121.763 Y134.3 E9.61784
G1 X121.633 Y135.355 E9.66888
G1 X120.886 Y136.957 E9.75375
G1 X119.266 Y138.317 E9.85531
G1 X117.235 Y138.819 E9.95577
G1 X113.652 Y138.818 E10.12781
G1 X112.821 Y138.74 E10.16789
G1 X112.096 Y138.563 E10.20372
G1 X111.251 Y138.209 E10.24771
G1 X110.48 Y137.715 E10.29168
G1 X109.769 Y137.056 E10.33823
G1 X103.001 Y127.462 E10.90199
G1 X102.35 Y126.255 E10.96784
G1 X101.984 Y124.998 E11.0307
G1 X101.89 Y124.068 E11.07558
G1 X101.892 Y110.811 E11.71213
G1 X102.099 Y109.5 E11.77586
G1 X102.426 Y108.569 E11.82324
G1 X102.855 Y107.765 E11.867
G1 X109.38 Y98.425 E12.41407
G1 X109.784 Y97.939 E12.44442
M204 S3500
G1 X110.124 Y98.222 F18000
M204 S1000
G1 F1800
G1 X110.154 Y98.186 E12.44667
G1 X111.172 Y97.352 E12.50986
G1 X112.563 Y96.77 E12.58226
G1 X113.465 Y96.636 E12.62605
G1 X115.998 Y96.624 E12.74768
G1 X117.243 Y96.626 E12.80746
G1 X119.045 Y97.067 E12.89654
G1 X120.782 Y98.713 E13.01144
G1 X121.318 Y100.686 E13.10961
G1 X121.318 Y134.3 E14.72363
G1 X121.2 Y135.253 E14.76974
G1 X120.53 Y136.691 E14.84591
G1 X119.072 Y137.918 E14.93741
G1 X117.235 Y138.375 E15.0283
G1 X113.652 Y138.373 E15.20034
G1 X112.889 Y138.301 E15.23714
G1 X112.239 Y138.142 E15.26927
G1 X111.464 Y137.819 E15.30959
G1 X110.756 Y137.367 E15.34992
G1 X110.105 Y136.765 E15.3925
G1 X103.365 Y127.207 E15.95407
G1 X102.758 Y126.079 E16.01558
G1 X102.423 Y124.927 E16.07319
G1 X102.334 Y124.068 E16.11466
G1 X102.335 Y110.843 E16.74968
G1 X102.531 Y109.603 E16.80996
G1 X102.836 Y108.74 E16.85391
G1 X103.236 Y107.993 E16.8946
G1 X109.744 Y98.68 E17.44014
G1 X110.086 Y98.268 E17.46585
M204 S3500
G1 X110.451 Y98.525 F18000
M204 S1000
G1 F1800
G1 X110.471 Y98.497 E17.4675
G1 X111.394 Y97.737 E17.52491
G1 X112.68 Y97.198 E17.59186
G1 X113.478 Y97.08 E17.63059
G1 X115.998 Y97.068 E17.75159
G1 X117.242 Y97.07 E17.81132
G1 X118.854 Y97.468 E17.89105
G1 X120.392 Y98.926 E17.99281
G1 X120.874 Y100.686 E18.08043
G1 X120.874 Y134.3 E19.69445
G1 X120.768 Y135.152 E19.73568
G1 X120.174 Y136.426 E19.80318
G1 X118.878 Y137.518 E19.88455
G1 X117.236 Y137.931 E19.96585
G1 X113.653 Y137.929 E20.13789
G1 X112.381 Y137.721 E20.19978
G1 X111.677 Y137.429 E20.23638
G1 X111.033 Y137.02 E20.27301
G1 X110.44 Y136.474 E20.31172
G1 X103.728 Y126.953 E20.87107
G1 X103.166 Y125.904 E20.92821
G1 X102.861 Y124.856 E20.98062
G1 X102.778 Y124.068 E21.01867
G1 X102.778 Y110.876 E21.6521
G1 X102.963 Y109.706 E21.70898
G1 X103.246 Y108.911 E21.7495
G1 X103.617 Y108.222 E21.78707
G1 X110.417 Y98.574 E22.35383
M204 S3500
; printing object SV06 GT2 Y-Stop v3.stl id:0 copy 0
EXCLUDE_OBJECT_START NAME=SV06_GT2_Y_Stop_v3_stl_id_0_copy_0
G1 E20.35383 F2400
G92 E0
G1 X117.05 Y121.37 F18000
G1 E2 F2400
M204 S1000
;TYPE:External perimeter
;WIDTH:0.815709
G1 F1800
G1 X117.05 Y111.292 E2.82784
M204 S3500
G1 E.82784 F2400
G92 E0
G1 X112.191 Y122.508 F18000
G1 E2 F2400
M204 S1000
;TYPE:Perimeter
;WIDTH:0.5
G1 F1800
G1 X116.291 Y122.508 E2.19687
G1 X116.292 Y133.348 E2.71737
G1 X113.798 Y133.347 E2.83712
G1 X107.509 Y124.362 E3.36373
G1 X107.444 Y124.252 E3.36987
G1 X107.403 Y124.156 E3.37488
G1 X107.374 Y124.056 E3.37988
G1 X107.361 Y123.973 E3.38391
G1 X107.351 Y111.172 E3.99857
G1 X107.363 Y111.013 E4.00623
G1 X107.4 Y110.858 E4.01388
G1 X107.446 Y110.747 E4.01965
G1 X107.528 Y110.61 E4.02732
G1 X112.862 Y102.99 E4.47394
G1 X113.049 Y103.049 E4.48336
G1 X113.049 Y109.622 E4.79897
G1 X112.813 Y109.744 E4.81173
G1 X112.379 Y110.221 E4.8427
G1 X112.193 Y110.794 E4.87163
G1 X112.191 Y122.448 E5.43121
M204 S3500
G1 X112.636 Y122.064 F18000
M204 S1000
G1 F1800
G1 X116.736 Y122.064 E5.62808
G1 X116.736 Y133.792 E6.19122
G1 X113.707 Y133.791 E6.33666
G1 X113.652 Y133.782 E6.33934
G1 X113.604 Y133.766 E6.34177
G1 X113.56 Y133.742 E6.34418
G1 X113.524 Y133.714 E6.34637
G1 X113.463 Y133.643 E6.35086
G1 X107.135 Y124.602 E6.88075
G1 X107.047 Y124.453 E6.88906
G1 X106.984 Y124.306 E6.89674
G1 X106.94 Y124.154 E6.90434
G1 X106.916 Y124.009 E6.9114
G1 X106.907 Y111.156 E7.52855
G1 X106.923 Y110.945 E7.53871
G1 X106.976 Y110.72 E7.54981
G1 X107.048 Y110.547 E7.55881
G1 X107.155 Y110.369 E7.56878
G1 X113.307 Y101.581 E8.08387
G1 X113.493 Y101.64 E8.09324
G1 X113.493 Y109.893 E8.48952
G1 X113.087 Y110.102 E8.51145
G1 X112.772 Y110.449 E8.53395
G1 X112.637 Y110.864 E8.5549
G1 X112.636 Y122.004 E9.0898
M204 S3500
G1 X113.08 Y121.62 F18000
M204 S1000
;TYPE:External perimeter
G1 F1800
G1 X117.18 Y121.62 E9.28667
G1 X117.18 Y134.236 E9.89244
G1 X113.673 Y134.235 E10.06083
G1 X113.545 Y134.215 E10.06705
G1 X113.425 Y134.175 E10.07312
G1 X113.314 Y134.114 E10.0792
G1 X113.216 Y134.036 E10.08521
G1 X113.112 Y133.917 E10.0928
G1 X106.761 Y124.842 E10.62466
G1 X106.65 Y124.653 E10.63518
G1 X106.565 Y124.457 E10.64544
G1 X106.506 Y124.252 E10.65568
G1 X106.472 Y124.045 E10.66575
G1 X106.463 Y111.14 E11.2854
G1 X106.482 Y110.876 E11.29811
G1 X106.552 Y110.582 E11.31262
G1 X106.65 Y110.346 E11.32489
G1 X106.782 Y110.127 E11.33717
G1 X113.122 Y101.07 E11.86802
G1 X113.27 Y100.919 E11.87817
G1 X113.444 Y100.819 E11.88781
G1 X113.618 Y100.772 E11.89646
G1 X113.937 Y100.762 E11.91178
G1 X113.937 Y110.247 E12.36722
G1 X113.66 Y110.307 E12.38083
G1 X113.362 Y110.46 E12.39691
G1 X113.165 Y110.677 E12.41098
G1 X113.081 Y110.935 E12.42401
G1 X113.08 Y121.56 E12.93418
M204 S3500
G1 X113.079 Y122.02 F18000
G1 E10.93418 F2400
G92 E0
G1 X116.063 Y110.248 F18000
G1 E2 F2400
M204 S1000
G1 F1800
G1 X116.063 Y100.763 E2.45544
G1 X117.179 Y100.764 E2.50903
G1 X117.18 Y111.02 E3.00149
G1 X116.952 Y111.053 E3.01255
G1 X116.841 Y110.686 E3.03096
G1 X116.646 Y110.466 E3.04508
G1 X116.35 Y110.31 E3.06115
G1 X116.122 Y110.26 E3.07236
M204 S3500
G1 X116.303 Y109.928 F18000
G1 X116.621 Y110.202
M204 S1000
;TYPE:Gap fill
;WIDTH:0.728156
G1 F1800
G1 X116.621 Y100.985 E3.74224
M204 S3500
G1 E1.74224 F2400
G92 E0
G1 X112.432 Y103.838 F18000
G1 E2 F2400
M204 S1000
;TYPE:Solid infill
;WIDTH:0.500301
G1 F1800
G1 X112.916 Y104.322 E2.03289
M204 S3500
G1 X112.916 Y104.951 F18000
M204 S1000
G1 F1800
G1 X112.173 Y104.208 E2.08338
M204 S3500
G1 X111.914 Y104.577 F18000
M204 S1000
G1 F1800
G1 X112.916 Y105.579 E2.15147
M204 S3500
G1 X112.916 Y106.208 F18000
M204 S1000
G1 F1800
G1 X111.655 Y104.947 E2.23716
M204 S3500
G1 X111.396 Y105.317 F18000
M204 S1000
G1 F1800
G1 X112.916 Y106.836 E2.34041
M204 S3500
G1 X112.916 Y107.465 F18000
M204 S1000
G1 F1800
G1 X111.137 Y105.687 E2.46126
M204 S3500
G1 X110.878 Y106.057 F18000
M204 S1000
G1 F1800
G1 X112.916 Y108.094 E2.59971
M204 S3500
G1 X112.916 Y108.722 F18000
M204 S1000
G1 F1800
G1 X110.62 Y106.426 E2.75573
M204 S3500
G1 X110.361 Y106.796 F18000
M204 S1000
G1 F1800
G1 X112.916 Y109.351 E2.92935
M204 S3500
G1 X112.655 Y109.719 F18000
M204 S1000
G1 F1800
G1 X110.102 Y107.166 E3.10283
M204 S3500
G1 X109.843 Y107.536 F18000
M204 S1000
G1 F1800
G1 X112.356 Y110.048 E3.27356
M204 S3500
G1 X112.155 Y110.477 F18000
M204 S1000
G1 F1800
G1 X109.584 Y107.905 E3.4483
M204 S3500
G1 X109.325 Y108.275 F18000
M204 S1000
G1 F1800
G1 X112.059 Y111.009 E3.63408
M204 S3500
G1 X112.059 Y111.638 F18000
M204 S1000
G1 F1800
G1 X109.066 Y108.645 E3.83746
M204 S3500
G1 X108.808 Y109.015 F18000
M204 S1000
G1 F1800
G1 X112.059 Y112.266 E4.05837
M204 S3500
G1 X112.059 Y112.895 F18000
M204 S1000
G1 F1800
G1 X108.549 Y109.384 E4.29691
M204 S3500
G1 X108.29 Y109.754 F18000
M204 S1000
G1 F1800
G1 X112.059 Y113.523 E4.55302
M204 S3500
G1 X112.059 Y114.152 F18000
M204 S1000
G1 F1800
G1 X108.031 Y110.124 E4.82673
M204 S3500
G1 X107.772 Y110.494 F18000
M204 S1000
G1 F1800
G1 X112.059 Y114.78 E5.118
M204 S3500
G1 X112.059 Y115.409 F18000
M204 S1000
G1 F1800
G1 X107.533 Y110.884 E5.42551
M204 S3500
G1 X107.485 Y111.463 F18000
M204 S1000
G1 F1800
G1 X112.059 Y116.038 E5.73635
M204 S3500
G1 X112.059 Y116.666 F18000
M204 S1000
G1 F1800
G1 X107.485 Y112.092 E6.04716
M204 S3500
G1 X107.486 Y112.722 F18000
M204 S1000
G1 F1800
G1 X112.059 Y117.295 E6.3579
M204 S3500
G1 X112.059 Y117.923 F18000
M204 S1000
G1 F1800
G1 X107.486 Y113.351 E6.66861
M204 S3500
G1 X107.486 Y113.98 F18000
M204 S1000
G1 F1800
G1 X112.059 Y118.552 E6.97932
M204 S3500
G1 X112.059 Y119.18 F18000
M204 S1000
G1 F1800
G1 X107.487 Y114.609 E7.28996
M204 S3500
G1 X107.487 Y115.238 F18000
M204 S1000
G1 F1800
G1 X112.058 Y119.809 E7.60057
M204 S3500
G1 X112.058 Y120.438 F18000
M204 S1000
G1 F1800
G1 X107.488 Y115.867 E7.91114
M204 S3500
G1 X107.488 Y116.496 F18000
M204 S1000
G1 F1800
G1 X112.058 Y121.066 E8.22168
M204 S3500
G1 X112.058 Y121.695 F18000
M204 S1000
G1 F1800
G1 X107.489 Y117.125 E8.53218
M204 S3500
G1 X107.489 Y117.754 F18000
M204 S1000
G1 F1800
G1 X112.058 Y122.323 E8.84265
M204 S3500
G1 E6.84265 F2400
G92 E0
G1 X115.52 Y122.642 F18000
G1 E2 F2400
M204 S1000
G1 F1800
G1 X116.158 Y123.28 E2.04335
M204 S3500
G1 X116.158 Y123.909 F18000
M204 S1000
G1 F1800
G1 X114.891 Y122.642 E2.12944
M204 S3500
G1 X114.262 Y122.642 F18000
M204 S1000
G1 F1800
G1 X116.158 Y124.537 E2.25824
M204 S3500
G1 X116.158 Y125.166 F18000
M204 S1000
G1 F1800
G1 X113.634 Y122.642 E2.42975
M204 S3500
G1 X113.005 Y122.642 F18000
M204 S1000
G1 F1800
G1 X116.158 Y125.795 E2.644
M204 S3500
G1 X116.158 Y126.423 F18000
M204 S1000
G1 F1800
G1 X112.377 Y122.642 E2.90092
M204 S3500
G1 E.90092 F2400
G92 E0
G1 X116.158 Y127.052 F18000
G1 E2 F2400
M204 S1000
G1 F1800
G1 X107.49 Y118.383 E2.58904
M204 S3500
G1 X107.49 Y119.013 F18000
M204 S1000
G1 F1800
G1 X116.158 Y127.681 E3.17804
M204 S3500
G1 X116.158 Y128.309 F18000
M204 S1000
G1 F1800
G1 X107.491 Y119.642 E3.76698
M204 S3500
G1 X107.491 Y120.271 F18000
M204 S1000
G1 F1800
G1 X116.158 Y128.938 E4.35592
M204 S3500
G1 X116.158 Y129.566 F18000
M204 S1000
G1 F1800
G1 X107.492 Y120.9 E4.94479
M204 S3500
G1 X107.492 Y121.529 F18000
M204 S1000
G1 F1800
G1 X116.158 Y130.195 E5.53366
M204 S3500
G1 X116.158 Y130.824 F18000
M204 S1000
G1 F1800
G1 X107.493 Y122.158 E6.12249
M204 S3500
G1 X107.493 Y122.787 F18000
M204 S1000
G1 F1800
G1 X116.158 Y131.452 E6.71129
M204 S3500
G1 X116.158 Y132.081 F18000
M204 S1000
G1 F1800
G1 X107.493 Y123.416 E7.30009
M204 S3500
G1 X107.516 Y124.067 F18000
M204 S1000
G1 F1800
G1 X116.158 Y132.71 E7.88736
M204 S3500
G1 X116.034 Y133.214 F18000
M204 S1000
G1 F1800
G1 X108.813 Y125.993 E8.37804
M204 S3500
G1 E6.37804 F2400
G92 E0
G1 X110.28 Y128.089 F18000
G1 E2 F2400
M204 S1000
G1 F1800
G1 X115.405 Y133.214 E2.34825
M204 S3500
G1 X114.777 Y133.214 F18000
M204 S1000
G1 F1800
G1 X111.746 Y130.184 E2.55418
M204 S3500
; stop printing object SV06 GT2 Y-Stop v3.stl id:0 copy 0
EXCLUDE_OBJECT_END NAME=SV06_GT2_Y_Stop_v3_stl_id_0_copy_0
;LAYER_CHANGE
;Z:0.46
;HEIGHT:0.2
G1 Z.46 F18000
; printing object SV06 GT2 Y-Stop v3.stl id:0 copy 0
EXCLUDE_OBJECT_START NAME=SV06_GT2_Y_Stop_v3_stl_id_0_copy_0
G1 X116.656 Y122.144
M204 S1000
;TYPE:Perimeter
;WIDTH:0.46
G1 F9000
G1 X116.656 Y133.494 E2.9478
G1 X113.721 Y133.494 E3.04959
G1 X107.387 Y124.444 E3.43268
G1 X107.314 Y124.319 E3.4377
G1 X107.265 Y124.207 E3.44194
G1 X107.231 Y124.089 E3.4462
G1 X107.214 Y123.987 E3.44979
G1 X107.204 Y111.165 E3.89446
G1 X107.218 Y110.989 E3.90058
G1 X107.259 Y110.814 E3.90681
G1 X107.314 Y110.682 E3.91177
G1 X107.405 Y110.53 E3.91791
G1 X113.021 Y102.509 E4.25749
G1 X113.196 Y102.565 E4.26386
G1 X113.196 Y109.829 E4.51578
G1 X112.965 Y109.997 E4.52569
G1 X112.673 Y110.405 E4.54309
G1 X112.556 Y110.85 E4.55905
G1 X112.556 Y122.144 E4.95073
G1 X116.596 Y122.144 E5.09084
M204 S3500
G1 X117.027 Y121.727 F18000
M204 S1000
G1 F9000
G1 X117.073 Y121.727 E5.09244
G1 X117.073 Y133.911 E5.51498
G1 X113.698 Y133.911 E5.63203
G1 X113.623 Y133.899 E5.63466
G1 X113.556 Y133.876 E5.63712
G1 X113.494 Y133.842 E5.63957
G1 X113.442 Y133.801 E5.64187
G1 X113.365 Y133.712 E5.64595
G1 X107.035 Y124.669 E6.02876
G1 X106.941 Y124.508 E6.03523
G1 X106.872 Y124.349 E6.04124
G1 X106.823 Y124.182 E6.04728
G1 X106.797 Y124.021 E6.05294
G1 X106.787 Y111.15 E6.49931
G1 X106.804 Y110.924 E6.50717
G1 X106.861 Y110.685 E6.51569
G1 X106.94 Y110.495 E6.52283
G1 X107.055 Y110.303 E6.53059
G1 X113.382 Y101.266 E6.91317
G1 X113.613 Y101.042 E6.92433
G1 X113.613 Y110.042 E7.23645
G1 X113.265 Y110.295 E7.25137
G1 X113.057 Y110.585 E7.26375
G1 X112.973 Y110.904 E7.27519
G1 X112.973 Y121.727 E7.65054
G1 X116.967 Y121.727 E7.78905
M204 S3500
G1 X117.072 Y110.47 F18000
M204 S1000
G1 F1800
G1 X116.898 Y110.525 E7.79538
G1 X116.735 Y110.294 E7.80518
G1 X116.387 Y110.042 E7.82008
G1 X116.388 Y101.088 E8.13061
G1 X117.072 Y101.089 E8.15433
G1 X117.072 Y110.41 E8.47759
M204 S3500
G1 E6.47759 F2400
G92 E0
G1 X116.64 Y121.34 F18000
G1 E2 F2400
M204 S750
;TYPE:External perimeter
;WIDTH:0.4
G1 F4800
G1 X116.64 Y110.965 E2.30805
G1 X116.59 Y110.76 E2.31432
G1 X116.456 Y110.57 E2.32122
G1 X116.252 Y110.422 E2.3287
G1 X116 Y110.323 E2.33674
G1 X116 Y100.7 E2.62246
G1 X117.459 Y100.702 E2.66578
G1 X117.46 Y134.298 E3.66329
G1 X113.668 Y134.298 E3.77588
G1 X113.531 Y134.276 E3.78
G1 X113.4 Y134.232 E3.7841
G1 X113.279 Y134.166 E3.78819
G1 X113.173 Y134.082 E3.79221
G1 X113.059 Y133.95 E3.79739
G1 X106.709 Y124.878 E4.12618
G1 X106.595 Y124.684 E4.13286
G1 X106.507 Y124.48 E4.13946
G1 X106.445 Y124.267 E4.14605
G1 X106.41 Y124.053 E4.15249
G1 X106.4 Y111.135 E4.53604
G1 X106.42 Y110.864 E4.54411
G1 X106.492 Y110.565 E4.55324
G1 X106.593 Y110.32 E4.56111
G1 X106.729 Y110.092 E4.56899
G1 X113.086 Y101.014 E4.89804
G1 X113.248 Y100.857 E4.90474
G1 X113.457 Y100.747 E4.91175
G1 X113.652 Y100.704 E4.91768
G1 X114 Y100.7 E4.92801
G1 X114 Y110.322 E5.2137
G1 X113.748 Y110.422 E5.22175
G1 X113.544 Y110.571 E5.22925
G1 X113.413 Y110.753 E5.23591
G1 X113.361 Y110.954 E5.24207
G1 X113.36 Y121.34 E5.55044
G1 X116.58 Y121.34 E5.64605
M204 S3500
G1 X117.005 Y121.504 F18000
G1 X117.05 Y121.534
;TYPE:Gap fill
;WIDTH:0.475552
G1 F1800
