; generated by PrusaSlicer 2.6.1+win64 on 2023-10-15 at 01:40:24 UTC

; 

; external perimeters extrusion width = 0.40mm
; perimeters extrusion width = 0.40mm
; infill extrusion width = 0.64mm
; solid infill extrusion width = 0.56mm
; top infill extrusion width = 0.40mm
; first layer extrusion width = 0.50mm

;TYPE:Custom
M104 S0 ; Stops PS/SS from sending temp waits separately


; Pre-Processed for Cancel-Object support by preprocess_cancellation v0.2.0
; 1 known objects
EXCLUDE_OBJECT_DEFINE NAME=SV06_Plus_SuperPINDA_Mount_stl_id_0_copy_0 CENTER=118.135,119.421 POLYGON=[[87.319,110.81],[87.319,124.19],[137.681,124.19],[137.681,110.81]]
M140 S0
M117
PRINT_START BED=70 HOTEND=250
PURGE_LINE

;; If you are passing variables to PRINT_START, comment out above line and uncomment the last 3 lines instead. (I already did this)
;; Guide: https://github.com/AndrewEllis93/Print-Tuning-Guide/blob/main/articles/passing_slicer_variables.md
;; Make sure the variable names match (for example if you use "EXTRUDER" instead of "HOTEND")
G21 ; set units to millimeters
G90 ; use absolute coordinates
M82 ; use absolute distances for extrusion
G92 E0
; Filament gcode
SET_PRESSURE_ADVANCE ADVANCE=0.05
M107
;LAYER_CHANGE
;Z:0.25
;HEIGHT:0.25
G1 Z.25 F18000
; printing object SV06_Plus_SuperPINDA_Mount.stl id:0 copy 0
EXCLUDE_OBJECT_START NAME=SV06_Plus_SuperPINDA_Mount_stl_id_0_copy_0
G1 E-.7 F2400
G92 E0
G1 Z.35 F18000
M204 S3500
G1 X129.028 Y120.068
G1 Z.25
G1 E.7 F2400
M204 S1000
;TYPE:External perimeter
;WIDTH:0.5
G1 F1800
G1 X129.028 Y111.06 E1.1179
G1 X137.431 Y111.06 E1.50774
G1 X137.431 Y123.94 E2.10528
G1 X87.569 Y123.94 E4.41851
G1 X87.569 Y120.068 E4.59814
G1 X128.968 Y120.068 E6.51875
M204 S3500
G1 X129.428 Y120.056 F18000
G1 X129.474 Y120.515
M204 S1000
;TYPE:Perimeter
G1 F1800
G1 X129.474 Y111.506 E6.9367
G1 X136.985 Y111.506 E7.28516
G1 X136.985 Y123.494 E7.84132
G1 X88.015 Y123.494 E10.11317
G1 X88.015 Y120.515 E10.25137
G1 X129.414 Y120.515 E12.17198
M204 S3500
G1 X129.92 Y120.961 F18000
M204 S1000
G1 F1800
G1 X129.92 Y111.953 E12.58988
G1 X136.538 Y111.953 E12.89691
G1 X136.538 Y123.047 E13.41159
G1 X88.462 Y123.047 E15.64196
G1 X88.462 Y120.961 E15.73874
G1 X129.86 Y120.961 E17.6593
M204 S3500
G1 E16.9593 F2400
G92 E0
G1 Z.35 F18000
G1 X136.405 Y112.989
G1 Z.25
G1 E.7 F2400
M204 S1000
;TYPE:Solid infill
;WIDTH:0.500156
G1 F1800
G1 X135.502 Y112.086 E.75927
M204 S3500
G1 X134.87 Y112.086 F18000
M204 S1000
G1 F1800
G1 X136.405 Y113.621 E.86002
M204 S3500
G1 X136.405 Y114.252 F18000
M204 S1000
G1 F1800
G1 X134.239 Y112.086 E1.00218
M204 S3500
G1 X133.608 Y112.086 F18000
M204 S1000
G1 F1800
G1 X136.405 Y114.883 E1.18575
M204 S3500
G1 X136.405 Y115.515 F18000
M204 S1000
G1 F1800
G1 X132.976 Y112.086 E1.4108
M204 S3500
G1 X132.345 Y112.086 F18000
M204 S1000
G1 F1800
G1 X136.405 Y116.146 E1.67727
M204 S3500
G1 X136.405 Y116.778 F18000
M204 S1000
G1 F1800
G1 X131.713 Y112.086 E1.98522
M204 S3500
G1 X131.082 Y112.086 F18000
M204 S1000
G1 F1800
G1 X136.405 Y117.409 E2.33458
M204 S3500
G1 X136.405 Y118.041 F18000
M204 S1000
G1 F1800
G1 X130.45 Y112.086 E2.72542
M204 S3500
G1 X130.054 Y112.322 F18000
M204 S1000
G1 F1800
G1 X136.405 Y118.672 E3.14222
M204 S3500
G1 X136.405 Y119.304 F18000
M204 S1000
G1 F1800
G1 X130.054 Y112.953 E3.55905
M204 S3500
G1 X130.054 Y113.585 F18000
M204 S1000
G1 F1800
G1 X136.405 Y119.935 E3.97585
M204 S3500
G1 X136.405 Y120.567 F18000
M204 S1000
G1 F1800
G1 X130.054 Y114.216 E4.39268
M204 S3500
G1 X130.054 Y114.848 F18000
M204 S1000
G1 F1800
G1 X136.405 Y121.198 E4.80948
M204 S3500
G1 X136.405 Y121.829 F18000
M204 S1000
G1 F1800
G1 X130.054 Y115.479 E5.22628
M204 S3500
G1 X130.054 Y116.111 F18000
M204 S1000
G1 F1800
G1 X136.405 Y122.461 E5.64308
M204 S3500
G1 X136.226 Y122.914 F18000
M204 S1000
G1 F1800
G1 X130.054 Y116.742 E6.04816
M204 S3500
G1 X130.054 Y117.374 F18000
M204 S1000
G1 F1800
G1 X135.594 Y122.914 E6.41176
M204 S3500
G1 X134.963 Y122.914 F18000
M204 S1000
G1 F1800
G1 X130.054 Y118.005 E6.73395
M204 S3500
G1 X130.054 Y118.637 F18000
M204 S1000
G1 F1800
G1 X134.331 Y122.914 E7.01466
M204 S3500
G1 X133.7 Y122.914 F18000
M204 S1000
G1 F1800
G1 X130.054 Y119.268 E7.25395
M204 S3500
G1 X130.054 Y119.899 F18000
M204 S1000
G1 F1800
G1 X133.068 Y122.914 E7.4518
M204 S3500
G1 X132.437 Y122.914 F18000
M204 S1000
G1 F1800
G1 X130.054 Y120.531 E7.6082
M204 S3500
G1 X129.987 Y121.095 F18000
M204 S1000
G1 F1800
G1 X131.805 Y122.914 E7.72755
M204 S3500
G1 X131.174 Y122.914 F18000
M204 S1000
G1 F1800
G1 X129.355 Y121.095 E7.84693
M204 S3500
G1 X128.724 Y121.095 F18000
M204 S1000
G1 F1800
G1 X130.543 Y122.914 E7.96631
M204 S3500
G1 X129.911 Y122.914 F18000
M204 S1000
G1 F1800
G1 X128.092 Y121.095 E8.08569
M204 S3500
G1 X127.461 Y121.095 F18000
M204 S1000
G1 F1800
G1 X129.28 Y122.914 E8.20507
M204 S3500
G1 X128.648 Y122.914 F18000
M204 S1000
G1 F1800
G1 X126.829 Y121.095 E8.32445
M204 S3500
G1 X126.198 Y121.095 F18000
M204 S1000
G1 F1800
G1 X128.017 Y122.914 E8.44383
M204 S3500
G1 X127.385 Y122.914 F18000
M204 S1000
G1 F1800
G1 X125.567 Y121.095 E8.56318
M204 S3500
G1 X124.935 Y121.095 F18000
M204 S1000
G1 F1800
G1 X126.754 Y122.914 E8.68256
M204 S3500
G1 X126.122 Y122.914 F18000
M204 S1000
G1 F1800
G1 X124.304 Y121.095 E8.80191
M204 S3500
G1 X123.672 Y121.095 F18000
M204 S1000
G1 F1800
G1 X125.491 Y122.914 E8.92129
M204 S3500
G1 X124.859 Y122.914 F18000
M204 S1000
G1 F1800
G1 X123.041 Y121.095 E9.04064
M204 S3500
G1 X122.409 Y121.095 F18000
M204 S1000
G1 F1800
G1 X124.228 Y122.914 E9.16002
M204 S3500
G1 X123.597 Y122.914 F18000
M204 S1000
G1 F1800
G1 X121.778 Y121.095 E9.2794
M204 S3500
G1 X121.146 Y121.095 F18000
M204 S1000
G1 F1800
G1 X122.965 Y122.914 E9.39878
M204 S3500
G1 X122.334 Y122.914 F18000
M204 S1000
G1 F1800
G1 X120.515 Y121.095 E9.51816
M204 S3500
G1 X119.883 Y121.095 F18000
M204 S1000
G1 F1800
G1 X121.702 Y122.914 E9.63754
M204 S3500
G1 X121.071 Y122.914 F18000
M204 S1000
G1 F1800
G1 X119.252 Y121.095 E9.75692
M204 S3500
G1 X118.621 Y121.095 F18000
M204 S1000
G1 F1800
G1 X120.439 Y122.914 E9.87627
M204 S3500
G1 X119.808 Y122.914 F18000
M204 S1000
G1 F1800
G1 X117.989 Y121.095 E9.99565
M204 S3500
G1 X117.358 Y121.095 F18000
M204 S1000
G1 F1800
G1 X119.176 Y122.914 E10.115
M204 S3500
G1 X118.545 Y122.914 F18000
M204 S1000
G1 F1800
G1 X116.726 Y121.095 E10.23438
M204 S3500
G1 X116.095 Y121.095 F18000
M204 S1000
G1 F1800
G1 X117.913 Y122.914 E10.35373
M204 S3500
G1 X117.282 Y122.914 F18000
M204 S1000
G1 F1800
G1 X115.463 Y121.095 E10.47311
M204 S3500
G1 X114.832 Y121.095 F18000
M204 S1000
G1 F1800
G1 X116.651 Y122.914 E10.59249
M204 S3500
G1 X116.019 Y122.914 F18000
M204 S1000
G1 F1800
G1 X114.2 Y121.095 E10.71187
M204 S3500
G1 X113.569 Y121.095 F18000
M204 S1000
G1 F1800
G1 X115.388 Y122.914 E10.83125
M204 S3500
G1 X114.756 Y122.914 F18000
M204 S1000
G1 F1800
G1 X112.937 Y121.095 E10.95063
M204 S3500
G1 X112.306 Y121.095 F18000
M204 S1000
G1 F1800
G1 X114.125 Y122.914 E11.07001
M204 S3500
G1 X113.493 Y122.914 F18000
M204 S1000
G1 F1800
G1 X111.675 Y121.095 E11.18936
M204 S3500
G1 X111.043 Y121.095 F18000
M204 S1000
G1 F1800
G1 X112.862 Y122.914 E11.30874
M204 S3500
G1 X112.23 Y122.914 F18000
M204 S1000
G1 F1800
G1 X110.412 Y121.095 E11.42809
M204 S3500
G1 X109.78 Y121.095 F18000
M204 S1000
G1 F1800
G1 X111.599 Y122.914 E11.54747
M204 S3500
G1 X110.967 Y122.914 F18000
M204 S1000
G1 F1800
G1 X109.149 Y121.095 E11.66682
M204 S3500
G1 X108.517 Y121.095 F18000
M204 S1000
G1 F1800
G1 X110.336 Y122.914 E11.7862
M204 S3500
G1 X109.705 Y122.914 F18000
M204 S1000
G1 F1800
G1 X107.886 Y121.095 E11.90558
M204 S3500
G1 X107.254 Y121.095 F18000
M204 S1000
G1 F1800
G1 X109.073 Y122.914 E12.02496
M204 S3500
G1 X108.442 Y122.914 F18000
M204 S1000
G1 F1800
G1 X106.623 Y121.095 E12.14434
M204 S3500
G1 X105.991 Y121.095 F18000
M204 S1000
G1 F1800
G1 X107.81 Y122.914 E12.26372
M204 S3500
G1 X107.179 Y122.914 F18000
M204 S1000
G1 F1800
G1 X105.36 Y121.095 E12.3831
M204 S3500
G1 X104.729 Y121.095 F18000
M204 S1000
G1 F1800
G1 X106.547 Y122.914 E12.50245
M204 S3500
G1 X105.916 Y122.914 F18000
M204 S1000
G1 F1800
G1 X104.097 Y121.095 E12.62183
M204 S3500
G1 X103.466 Y121.095 F18000
M204 S1000
G1 F1800
G1 X105.284 Y122.914 E12.74118
M204 S3500
G1 X104.653 Y122.914 F18000
M204 S1000
G1 F1800
G1 X102.834 Y121.095 E12.86056
M204 S3500
G1 X102.203 Y121.095 F18000
M204 S1000
G1 F1800
G1 X104.021 Y122.914 E12.97991
M204 S3500
G1 X103.39 Y122.914 F18000
M204 S1000
G1 F1800
G1 X101.571 Y121.095 E13.09929
M204 S3500
G1 X100.94 Y121.095 F18000
M204 S1000
G1 F1800
G1 X102.759 Y122.914 E13.21867
M204 S3500
G1 X102.127 Y122.914 F18000
M204 S1000
G1 F1800
G1 X100.308 Y121.095 E13.33805
M204 S3500
G1 X99.677 Y121.095 F18000
M204 S1000
G1 F1800
G1 X101.496 Y122.914 E13.45743
M204 S3500
G1 X100.864 Y122.914 F18000
M204 S1000
G1 F1800
G1 X99.045 Y121.095 E13.57681
M204 S3500
G1 X98.414 Y121.095 F18000
M204 S1000
G1 F1800
G1 X100.233 Y122.914 E13.69619
M204 S3500
G1 X99.601 Y122.914 F18000
M204 S1000
G1 F1800
G1 X97.783 Y121.095 E13.81554
M204 S3500
G1 X97.151 Y121.095 F18000
M204 S1000
G1 F1800
G1 X98.97 Y122.914 E13.93492
M204 S3500
G1 X98.338 Y122.914 F18000
M204 S1000
G1 F1800
G1 X96.52 Y121.095 E14.05427
M204 S3500
G1 X95.888 Y121.095 F18000
M204 S1000
G1 F1800
G1 X97.707 Y122.914 E14.17365
M204 S3500
G1 X97.075 Y122.914 F18000
M204 S1000
G1 F1800
G1 X95.257 Y121.095 E14.293
M204 S3500
G1 X94.625 Y121.095 F18000
M204 S1000
G1 F1800
G1 X96.444 Y122.914 E14.41238
M204 S3500
G1 X95.813 Y122.914 F18000
M204 S1000
G1 F1800
G1 X93.994 Y121.095 E14.53176
M204 S3500
G1 X93.362 Y121.095 F18000
M204 S1000
G1 F1800
G1 X95.181 Y122.914 E14.65114
M204 S3500
G1 X94.55 Y122.914 F18000
M204 S1000
G1 F1800
G1 X92.731 Y121.095 E14.77052
M204 S3500
G1 X92.099 Y121.095 F18000
M204 S1000
G1 F1800
G1 X93.918 Y122.914 E14.8899
M204 S3500
G1 X93.287 Y122.914 F18000
M204 S1000
G1 F1800
G1 X91.468 Y121.095 E15.00928
M204 S3500
G1 X90.837 Y121.095 F18000
M204 S1000
G1 F1800
G1 X92.655 Y122.914 E15.12863
M204 S3500
G1 X92.024 Y122.914 F18000
M204 S1000
G1 F1800
G1 X90.205 Y121.095 E15.24801
M204 S3500
G1 X89.574 Y121.095 F18000
M204 S1000
G1 F1800
G1 X91.392 Y122.914 E15.36736
M204 S3500
G1 X90.761 Y122.914 F18000
M204 S1000
G1 F1800
G1 X88.942 Y121.095 E15.48674
M204 S3500
G1 X88.595 Y121.38 F18000
M204 S1000
G1 F1800
G1 X90.129 Y122.914 E15.58742
M204 S3500
G1 X89.498 Y122.914 F18000
M204 S1000
G1 F1800
G1 X88.595 Y122.011 E15.64669
M204 S3500
; stop printing object SV06_Plus_SuperPINDA_Mount.stl id:0 copy 0
EXCLUDE_OBJECT_END NAME=SV06_Plus_SuperPINDA_Mount_stl_id_0_copy_0
;LAYER_CHANGE
;Z:0.45
;HEIGHT:0.2
G1 Z.45 F18000
M104 S240 ; set temperature
M140 S70 ; set bed temperature
; printing object SV06_Plus_SuperPINDA_Mount.stl id:0 copy 0
EXCLUDE_OBJECT_START NAME=SV06_Plus_SuperPINDA_Mount_stl_id_0_copy_0
G1 X129.492 Y120.532
M204 S1000
;TYPE:Perimeter
;WIDTH:0.4
G1 F9000
G1 X129.492 Y111.524 E15.91415
G1 X136.967 Y111.524 E16.13609
G1 X136.967 Y123.476 E16.49096
G1 X88.033 Y123.476 E17.94387
G1 X88.033 Y120.532 E18.03128
G1 X129.432 Y120.532 E19.26047
M204 S3500
G1 X129.135 Y120.175 F18000
M204 S1000
G1 F9000
G1 X129.135 Y111.167 E19.52793
G1 X137.324 Y111.167 E19.77107
G1 X137.324 Y123.833 E20.14714
G1 X87.676 Y123.833 E21.62125
G1 X87.676 Y120.175 E21.72986
G1 X129.075 Y120.175 E22.95905
M204 S3500
G1 X128.778 Y119.818 F18000
M204 S750
;TYPE:External perimeter
G1 F4800
G1 X128.778 Y110.81 E23.22651
G1 X137.681 Y110.81 E23.49085
G1 X137.681 Y124.19 E23.88812
G1 X87.319 Y124.19 E25.38343
G1 X87.319 Y119.818 E25.51324
G1 X128.718 Y119.818 E26.74243
M204 S3500
G1 X129.177 Y119.804 F18000
G1 X130.73 Y111.62
M204 S3000
;TYPE:Solid infill
;WIDTH:0.38292
G1 F12000
G1 X130.659 Y111.601 E26.74451
G1 X130.678 Y111.672 E26.74659
G1 X130.719 Y111.661 E26.74779
;WIDTH:0.42719
G1 F11710.523
G1 X130.661 Y111.709 E26.7502
;WIDTH:0.47146
G1 F10500.782
G1 X130.604 Y111.757 E26.75286
;WIDTH:0.51573
G1 F9517.58
G1 X130.547 Y111.804 E26.75576
;WIDTH:0.559999
G1 F8702.733
G1 X130.49 Y111.852 E26.75896
G1 X129.82 Y112.522 E26.7997
G1 X129.82 Y113.253 E26.83113
G1 X131.221 Y111.852 E26.91632
G1 X131.953 Y111.852 E26.94779
G1 X129.82 Y113.985 E27.07749
G1 X129.82 Y114.716 E27.10892
G1 X132.684 Y111.852 E27.28306
G1 X133.415 Y111.852 E27.31449
G1 X129.82 Y115.447 E27.53308
G1 X129.82 Y116.179 E27.56455
G1 X134.146 Y111.852 E27.82762
G1 X134.878 Y111.852 E27.85909
G1 X129.82 Y116.91 E28.16664
G1 X129.82 Y117.641 E28.19807
G1 X135.609 Y111.852 E28.55007
G1 X136.34 Y111.852 E28.5815
G1 X129.82 Y118.372 E28.97795
G1 X129.82 Y119.104 E29.00942
G1 X136.639 Y112.284 E29.42408
G1 X136.639 Y113.015 E29.45551
G1 X129.82 Y119.835 E29.87017
M204 S3500
G1 X129.365 Y120.86 F18000
M204 S3000
G1 F8702.733
G1 X88.361 Y120.86 E31.63315
G1 X88.361 Y123.148 E31.73152
G1 X127.42 Y123.148 E33.41087
G1 X127.42 Y122.965 E33.41874
G1 X136.639 Y113.747 E33.97927
G1 X136.639 Y114.478 E34.0107
G1 X127.969 Y123.148 E34.53788
G1 X128.7 Y123.148 E34.56931
G1 X136.639 Y115.209 E35.05204
G1 X136.639 Y115.94 E35.08347
G1 X129.431 Y123.148 E35.52175
G1 X130.163 Y123.148 E35.55322
G1 X136.639 Y116.672 E35.94699
G1 X136.639 Y117.403 E35.97842
G1 X130.894 Y123.148 E36.32774
G1 X131.625 Y123.148 E36.35917
G1 X136.639 Y118.134 E36.66404
G1 X136.639 Y118.865 E36.69547
G1 X132.356 Y123.148 E36.9559
G1 X133.088 Y123.148 E36.98737
G1 X136.639 Y119.597 E37.20329
G1 X136.639 Y120.328 E37.23472
G1 X133.819 Y123.148 E37.40619
G1 X134.55 Y123.148 E37.43762
G1 X136.639 Y121.059 E37.56464
G1 X136.639 Y121.791 E37.59611
G1 X135.281 Y123.148 E37.67865
G1 X136.013 Y123.148 E37.71012
G1 X136.639 Y122.522 E37.74818
M204 S3500
G1 X128.277 Y121.377 F18000
M204 S3000
G1 F8702.733
G1 X88.878 Y121.377 E39.44215
G1 X88.878 Y122.631 E39.49607
G1 X127.055 Y122.631 E41.1375
G1 X127.207 Y122.447 E41.14776
G1 X128.094 Y121.56 E41.20169
G1 X127.208 Y121.82 E41.24139
;WIDTH:0.411292
G1 F12000
G1 X89.321 Y121.82 E42.40188
G1 X89.321 Y122.188 E42.41315
G1 X126.84 Y122.188 E43.56237
G1 X127.026 Y122.003 E43.57041
M204 S3500
; stop printing object SV06_Plus_SuperPINDA_Mount.stl id:0 copy 0
EXCLUDE_OBJECT_END NAME=SV06_Plus_SuperPINDA_Mount_stl_id_0_copy_0
M106 S127.5
;LAYER_CHANGE
;Z:0.65
;HEIGHT:0.2
G1 Z.65 F18000
; printing object SV06_Plus_SuperPINDA_Mount.stl id:0 copy 0
EXCLUDE_OBJECT_START NAME=SV06_Plus_SuperPINDA_Mount_stl_id_0_copy_0
G1 X129.492 Y120.532
M204 S1000
;TYPE:Perimeter
;WIDTH:0.4
G1 F9000
G1 X129.492 Y111.524 E43.83787
G1 X136.967 Y111.524 E44.05981
G1 X136.967 Y123.476 E44.41468
G1 X88.033 Y123.476 E45.86759
G1 X88.033 Y120.532 E45.955
G1 X129.432 Y120.532 E47.18419
M204 S3500
G1 X129.135 Y120.175 F18000
M204 S1000
G1 F9000
G1 X129.135 Y111.167 E47.45165
G1 X137.324 Y111.167 E47.69479
G1 X137.324 Y123.833 E48.07086
G1 X87.676 Y123.833 E49.54497
G1 X87.676 Y120.175 E49.65358
G1 X129.075 Y120.175 E50.88277
M204 S3500
G1 X128.778 Y119.818 F18000
M204 S750
;TYPE:External perimeter
G1 F4800
G1 X128.778 Y110.81 E51.15023
G1 X137.681 Y110.81 E51.41457
G1 X137.681 Y124.19 E51.81184
G1 X87.319 Y124.19 E53.30715
G1 X87.319 Y119.818 E53.43696
G1 X128.718 Y119.818 E54.66615
M204 S3500
G1 X129.177 Y119.804 F18000
G1 X88.361 Y120.86
M204 S3000
;TYPE:Solid infill
;WIDTH:0.559999
G1 F8702.733
G1 X88.361 Y123.148 E54.76452
G1 X132.451 Y123.148 E56.66018
G1 X129.82 Y120.517 E56.82016
G1 X129.82 Y120.602 E56.82381
G1 X129.561 Y120.86 E56.83953
G1 X88.619 Y120.86 E58.59984
G1 X88.878 Y121.377 E58.6247
G1 X88.878 Y122.631 E58.67862
G1 X131.202 Y122.631 E60.49835
G1 X129.78 Y121.209 E60.58481
G1 X129.628 Y121.374 E60.59446
G1 X129.561 Y121.377 E60.59734
G1 X89.136 Y121.377 E62.33542
G1 X89.198 Y121.525 E62.34232
;WIDTH:0.51043
G1 F9625.463
G1 X89.259 Y121.672 E62.34851
;WIDTH:0.460861
G1 F10767.069
G1 X89.321 Y121.82 E62.35409
;WIDTH:0.411292
G1 F12000
G1 X89.321 Y122.188 E62.36536
G1 X129.561 Y122.188 E63.59792
;WIDTH:0.413915
G1 X130.13 Y122.187 E63.61547
G1 X129.711 Y121.768 E63.63375
G1 X129.666 Y121.817 E63.6358
G1 X129.561 Y121.82 E63.63904
;WIDTH:0.411292
G1 X89.579 Y121.82 E64.8637
M204 S3500
G1 E64.1637 F2400
G92 E0
