; generated by PrusaSlicer 2.6.1+win64 on 2023-10-09 at 23:06:03 UTC

; 

; external perimeters extrusion width = 0.40mm
; perimeters extrusion width = 0.46mm
; infill extrusion width = 0.46mm
; solid infill extrusion width = 0.56mm
; top infill extrusion width = 0.40mm
; support material extrusion width = 0.46mm
; first layer extrusion width = 0.50mm

;TYPE:Custom
M104 S0 ; Stops PS/SS from sending temp waits separately


; Pre-Processed for Cancel-Object support by preprocess_cancellation v0.2.0
; 1 known objects
EXCLUDE_OBJECT_DEFINE NAME=TPU_welle_38mm_stl_id_0_copy_0 CENTER=112.472,117.985 POLYGON=[[102.7,110.2],[102.7,124.8],[122.3,124.8],[122.3,110.2]]
M140 S0
PRINT_START BED=60 HOTEND=200
PURGE_LINE
G21 ; set units to millimeters
G90 ; use absolute coordinates
M82 ; use absolute distances for extrusion
G92 E0
; Filament gcode
M107
;LAYER_CHANGE
;Z:0.26
;HEIGHT:0.26
G1 Z.26 F18000
G1 E-2 F2400
G92 E0
M204 S3500
G1 X102.618 Y108.764 F18000
G1 E2 F2400
M204 S1000
;TYPE:Skirt/Brim
;WIDTH:0.5
G1 F1800
G1 X104.398 Y107.421 E2.10707
G1 X105.287 Y106.89 E2.15679
G1 X106.678 Y106.216 E2.23101
G1 X108.579 Y105.56 E2.32757
G1 X110.767 Y105.138 E2.43457
G1 X112.805 Y105.04 E2.53254
G1 X114.672 Y105.195 E2.62249
G1 X116.321 Y105.533 E2.70332
G1 X118.127 Y106.135 E2.79473
G1 X119.901 Y106.995 E2.88939
G1 X121.06 Y107.726 E2.95519
G1 X122.541 Y108.906 E3.04611
G1 X123.849 Y110.249 E3.13613
G1 X125.033 Y111.825 E3.23078
G1 X125.965 Y113.473 E3.32169
G1 X126.675 Y115.208 E3.4117
G1 X127.183 Y117.114 E3.50641
G1 X127.429 Y118.997 E3.59759
G1 X127.446 Y120.72 E3.68033
G1 X127.233 Y122.616 E3.77194
G1 X126.762 Y124.528 E3.86649
G1 X126.086 Y126.271 E3.95626
G1 X125.648 Y127.143 E4.00312
G1 X124.379 Y128.733 E4.1008
G1 X122.6 Y129.717 E4.19842
G1 X121.01 Y129.965 E4.27569
G1 X103.99 Y129.965 E5.09293
G1 X101.995 Y129.569 E5.19059
G1 X100.302 Y128.44 E5.2883
G1 X99.352 Y127.143 E5.3655
G1 X98.914 Y126.271 E5.41236
G1 X98.341 Y124.839 E5.48642
G1 X97.828 Y122.935 E5.5811
G1 X97.554 Y120.72 E5.68827
G1 X97.599 Y118.642 E5.78807
G1 X97.817 Y117.114 E5.86218
G1 X98.038 Y116.161 E5.90915
G1 X98.822 Y113.932 E6.02261
G1 X99.705 Y112.243 E6.11412
G1 X100.272 Y111.376 E6.16386
G1 X101.226 Y110.161 E6.23803
G1 X102.576 Y108.807 E6.32984
M204 S3500
G1 X102.89 Y109.12 F18000
M204 S1000
G1 F1800
G1 X102.918 Y109.092 E6.33174
G1 X104.63 Y107.799 E6.43475
G1 X105.493 Y107.284 E6.48301
G1 X106.859 Y106.621 E6.55592
G1 X108.705 Y105.986 E6.64966
G1 X110.809 Y105.58 E6.75255
G1 X112.786 Y105.484 E6.84759
G1 X114.598 Y105.633 E6.93489
G1 X116.217 Y105.965 E7.01425
G1 X117.968 Y106.55 E7.10289
G1 X119.689 Y107.386 E7.19476
G1 X120.799 Y108.086 E7.25777
G1 X122.236 Y109.229 E7.34593
G1 X123.506 Y110.531 E7.43326
G1 X124.657 Y112.061 E7.52519
G1 X125.561 Y113.658 E7.61331
G1 X126.251 Y115.341 E7.70065
G1 X126.745 Y117.191 E7.79259
G1 X126.986 Y119.016 E7.88098
G1 X127.002 Y120.708 E7.96223
G1 X126.794 Y122.546 E8.05105
G1 X126.335 Y124.403 E8.1429
G1 X125.678 Y126.094 E8.23001
G1 X125.253 Y126.939 E8.27543
G1 X124.027 Y128.448 E8.36879
G1 X122.301 Y129.343 E8.46215
G1 X121.01 Y129.521 E8.52473
G1 X103.99 Y129.521 E9.34197
G1 X102.086 Y129.125 E9.43535
G1 X100.497 Y128.003 E9.52875
G1 X99.747 Y126.939 E9.59126
G1 X98.758 Y124.688 E9.70932
G1 X98.261 Y122.839 E9.80125
G1 X97.998 Y120.708 E9.90435
G1 X98.04 Y118.692 E10.00117
G1 X98.469 Y116.265 E10.11951
G1 X99.225 Y114.12 E10.22871
G1 X100.079 Y112.482 E10.31741
G1 X100.629 Y111.64 E10.3657
G1 X101.566 Y110.447 E10.43854
G1 X102.847 Y109.163 E10.52563
M204 S3500
G1 X103.161 Y109.476 F18000
M204 S1000
G1 F1800
G1 X103.219 Y109.419 E10.52953
G1 X104.861 Y108.178 E10.62836
G1 X105.699 Y107.677 E10.67524
G1 X107.039 Y107.027 E10.74675
G1 X108.832 Y106.412 E10.83777
G1 X110.851 Y106.022 E10.93651
G1 X112.768 Y105.928 E11.02867
G1 X114.524 Y106.071 E11.11327
G1 X116.114 Y106.397 E11.1912
G1 X117.809 Y106.964 E11.27702
G1 X119.478 Y107.777 E11.36616
G1 X120.538 Y108.445 E11.42632
G1 X121.931 Y109.552 E11.51176
G1 X123.163 Y110.813 E11.59641
G1 X124.28 Y112.296 E11.68556
G1 X125.157 Y113.843 E11.77095
G1 X125.828 Y115.474 E11.85563
G1 X126.308 Y117.268 E11.9448
G1 X126.542 Y119.036 E12.03043
G1 X126.558 Y120.697 E12.11019
G1 X126.356 Y122.477 E12.19621
G1 X125.909 Y124.278 E12.28531
G1 X125.271 Y125.916 E12.36972
G1 X124.859 Y126.734 E12.4137
G1 X123.677 Y128.159 E12.5026
G1 X122.008 Y128.96 E12.59149
G1 X121.01 Y129.077 E12.63974
G1 X103.99 Y129.077 E13.45698
G1 X102.181 Y128.681 E13.5459
G1 X100.703 Y127.567 E13.63477
G1 X100.141 Y126.734 E13.68302
G1 X99.176 Y124.536 E13.79828
G1 X98.644 Y122.477 E13.90039
G1 X98.46 Y120.993 E13.97219
G1 X98.425 Y120.018 E14.01904
G1 X98.554 Y118.1 E14.11134
G1 X98.981 Y116.085 E14.21024
G1 X99.627 Y114.308 E14.30103
G1 X100.454 Y112.72 E14.387
G1 X100.987 Y111.904 E14.4338
G1 X101.907 Y110.732 E14.50534
G1 X103.119 Y109.519 E14.58768
M204 S3500
G1 X103.448 Y109.875 F18000
M204 S1000
G1 F1800
G1 X104.148 Y109.227 E14.63348
G1 X105.673 Y108.202 E14.72171
G1 X107.445 Y107.341 E14.81631
G1 X109.215 Y106.771 E14.9056
G1 X110.893 Y106.464 E14.98751
G1 X112.749 Y106.371 E15.07674
G1 X114.45 Y106.509 E15.15868
G1 X116.01 Y106.829 E15.23515
G1 X117.65 Y107.379 E15.31821
G1 X119.267 Y108.167 E15.40458
G1 X120.74 Y109.141 E15.48937
G1 X122.098 Y110.321 E15.57575
G1 X123.231 Y111.595 E15.65761
G1 X124.207 Y113.018 E15.74046
G1 X125.024 Y114.62 E15.82681
G1 X125.597 Y116.224 E15.9086
G1 X125.97 Y117.91 E15.99151
G1 X126.128 Y119.735 E16.07947
G1 X126.098 Y120.951 E16.13788
G1 X125.872 Y122.646 E16.21999
G1 X125.407 Y124.384 E16.30638
G1 X124.753 Y125.972 E16.38884
G1 X124.464 Y126.53 E16.41901
G1 X123.329 Y127.865 E16.50315
G1 X121.01 Y128.632 E16.62043
G1 X103.99 Y128.632 E17.43767
G1 X102.282 Y128.238 E17.52184
G1 X100.536 Y126.53 E17.63912
G1 X100.247 Y125.972 E17.66929
G1 X99.517 Y124.152 E17.76345
G1 X98.994 Y121.842 E17.87718
G1 X98.869 Y120.006 E17.96554
G1 X99.03 Y117.91 E18.06648
G1 X99.404 Y116.218 E18.14968
G1 X99.698 Y115.32 E18.19505
G1 X100.272 Y113.977 E18.26518
G1 X101.194 Y112.386 E18.35347
G1 X102.409 Y110.836 E18.44804
G1 X103.404 Y109.916 E18.51311
M204 S3500
G1 X103.705 Y110.241 F18000
M204 S1000
G1 F1800
G1 X104.428 Y109.572 E18.56041
G1 X105.905 Y108.581 E18.64581
G1 X107.6 Y107.757 E18.73631
G1 X109.311 Y107.205 E18.82264
G1 X110.935 Y106.906 E18.90193
G1 X112.73 Y106.815 E18.98823
G1 X114.376 Y106.947 E19.06752
G1 X115.906 Y107.261 E19.14252
G1 X117.491 Y107.794 E19.22281
G1 X119.055 Y108.558 E19.30639
G1 X120.479 Y109.501 E19.3884
G1 X121.793 Y110.644 E19.47202
G1 X122.888 Y111.877 E19.5512
G1 X123.83 Y113.253 E19.63127
G1 X124.62 Y114.805 E19.71489
G1 X125.174 Y116.357 E19.79402
G1 X125.532 Y117.987 E19.87415
G1 X125.684 Y119.755 E19.95936
G1 X125.655 Y120.91 E20.01484
G1 X125.438 Y122.549 E20.09423
G1 X124.989 Y124.233 E20.17791
G1 X124.358 Y125.768 E20.2576
G1 X124.07 Y126.326 E20.28775
G1 X122.984 Y127.566 E20.3669
G1 X121.01 Y128.188 E20.46628
G1 X103.99 Y128.188 E21.28352
G1 X102.39 Y127.794 E21.36264
G1 X100.93 Y126.326 E21.46205
G1 X100.642 Y125.768 E21.4922
G1 X100.206 Y124.771 E21.54445
G1 X99.76 Y123.402 E21.61358
G1 X99.406 Y121.558 E21.70374
G1 X99.316 Y119.755 E21.79042
G1 X99.467 Y117.987 E21.87562
G1 X99.828 Y116.352 E21.95602
G1 X100.674 Y114.164 E22.06866
G1 X101.568 Y112.625 E22.15412
G1 X102.731 Y111.143 E22.24458
G1 X103.661 Y110.282 E22.30543
M204 S3500
; printing object TPU_welle_38mm.stl id:0 copy 0
EXCLUDE_OBJECT_START NAME=TPU_welle_38mm_stl_id_0_copy_0
G1 E20.30543 F2400
G92 E0
G1 X116.647 Y123.606 F18000
G1 E2 F2400
M204 S1000
;TYPE:Perimeter
G1 F1800
G1 X116.993 Y123.164 E2.02695
G1 X117.243 Y122.775 E2.04915
G1 X117.484 Y122.315 E2.07409
G1 X117.656 Y121.899 E2.0957
G1 X117.816 Y121.394 E2.12114
G1 X117.929 Y120.851 E2.14777
G1 X117.978 Y120.434 E2.16793
G1 X117.995 Y120.002 E2.18869
G1 X117.972 Y119.494 E2.21311
G1 X117.911 Y119.038 E2.2352
G1 X117.788 Y118.505 E2.26147
G1 X117.616 Y117.994 E2.28736
G1 X117.441 Y117.596 E2.30824
G1 X117.244 Y117.226 E2.32837
G1 X116.94 Y116.761 E2.35505
G1 X116.607 Y116.349 E2.38049
G1 X116.286 Y116.017 E2.40266
G1 X115.856 Y115.648 E2.42987
G1 X115.428 Y115.35 E2.45491
G1 X115.028 Y115.12 E2.47707
G1 X114.509 Y114.885 E2.50443
G1 X114.072 Y114.735 E2.52661
G1 X113.564 Y114.608 E2.55175
G1 X113.008 Y114.528 E2.57872
G1 X112.574 Y114.505 E2.59959
G1 X112.037 Y114.524 E2.62539
G1 X111.579 Y114.582 E2.64756
G1 X111.054 Y114.698 E2.67338
G1 X110.532 Y114.869 E2.69976
G1 X110.107 Y115.053 E2.722
G1 X109.628 Y115.315 E2.74822
G1 X109.182 Y115.619 E2.77414
G1 X108.847 Y115.895 E2.79498
G1 X108.544 Y116.186 E2.81515
G1 X108.179 Y116.604 E2.8418
G1 X107.872 Y117.037 E2.86729
G1 X107.639 Y117.436 E2.88948
G1 X107.401 Y117.949 E2.91663
G1 X107.231 Y118.442 E2.94167
G1 X107.118 Y118.89 E2.96386
G1 X107.031 Y119.455 E2.99131
G1 X107.006 Y119.914 E3.01338
G1 X107.022 Y120.437 E3.0385
G1 X107.095 Y120.994 E3.06547
G1 X107.185 Y121.397 E3.0853
G1 X107.314 Y121.818 E3.10644
G1 X107.512 Y122.306 E3.13173
G1 X107.714 Y122.7 E3.15299
G1 X108 Y123.155 E3.17879
G1 X108.351 Y123.606 E3.20623
G1 X104.69 Y123.606 E3.38202
G1 X104.501 Y123.173 E3.40471
G1 X104.33 Y122.701 E3.42882
G1 X104.167 Y122.147 E3.45655
G1 X104.043 Y121.589 E3.484
G1 X103.965 Y121.093 E3.50811
G1 X103.911 Y120.519 E3.53579
G1 X103.895 Y119.918 E3.56466
G1 X103.922 Y119.318 E3.5935
G1 X103.986 Y118.75 E3.62095
G1 X104.074 Y118.256 E3.64504
G1 X104.209 Y117.696 E3.6727
G1 X104.391 Y117.122 E3.70161
G1 X104.6 Y116.589 E3.7291
G1 X104.812 Y116.135 E3.75316
G1 X105.088 Y115.629 E3.78084
G1 X105.411 Y115.122 E3.8097
G1 X105.751 Y114.661 E3.8372
G1 X106.074 Y114.277 E3.86129
G1 X106.471 Y113.86 E3.88894
G1 X106.894 Y113.472 E3.9165
G1 X107.283 Y113.157 E3.94053
G1 X107.752 Y112.824 E3.96815
G1 X108.265 Y112.509 E3.99706
G1 X108.773 Y112.244 E4.02457
G1 X109.232 Y112.04 E4.04869
G1 X109.77 Y111.84 E4.07625
G1 X110.347 Y111.669 E4.10515
G1 X110.907 Y111.544 E4.1327
G1 X111.403 Y111.465 E4.15682
G1 X111.974 Y111.411 E4.18436
G1 X112.576 Y111.395 E4.21328
G1 X113.15 Y111.42 E4.24087
G1 X113.648 Y111.472 E4.26491
G1 X114.214 Y111.567 E4.29247
G1 X114.799 Y111.708 E4.32136
G1 X115.347 Y111.88 E4.34894
G1 X115.816 Y112.06 E4.37306
G1 X116.338 Y112.298 E4.40061
G1 X116.841 Y112.571 E4.42809
G1 X117.352 Y112.894 E4.45712
G1 X117.757 Y113.188 E4.48115
G1 X118.199 Y113.553 E4.50867
G1 X118.618 Y113.949 E4.53635
G1 X118.96 Y114.316 E4.56044
G1 X119.324 Y114.758 E4.58793
G1 X119.66 Y115.227 E4.61563
G1 X119.926 Y115.652 E4.6397
G1 X120.199 Y116.156 E4.66722
G1 X120.439 Y116.681 E4.69494
G1 X120.619 Y117.149 E4.71902
G1 X120.791 Y117.695 E4.74651
G1 X120.926 Y118.256 E4.77422
G1 X121.014 Y118.75 E4.79831
G1 X121.078 Y119.318 E4.82576
G1 X121.105 Y119.918 E4.8546
G1 X121.089 Y120.519 E4.88347
G1 X121.035 Y121.093 E4.91115
G1 X120.957 Y121.589 E4.93526
G1 X120.833 Y122.147 E4.96271
G1 X120.67 Y122.701 E4.99044
G1 X120.499 Y123.173 E5.01455
G1 X120.31 Y123.606 E5.03724
G1 X116.707 Y123.606 E5.21024
M204 S3500
G1 X115.536 Y124.05 F18000
M204 S1000
G1 F1800
G1 X116.015 Y123.626 E5.24096
G1 X116.306 Y123.32 E5.26124
G1 X116.631 Y122.907 E5.28647
G1 X116.858 Y122.551 E5.30674
G1 X117.081 Y122.127 E5.32974
G1 X117.239 Y121.747 E5.3495
G1 X117.386 Y121.281 E5.37296
G1 X117.49 Y120.78 E5.39753
G1 X117.535 Y120.399 E5.41595
G1 X117.551 Y120.003 E5.43498
G1 X117.529 Y119.534 E5.45752
G1 X117.473 Y119.117 E5.47772
G1 X117.36 Y118.626 E5.50191
G1 X117.201 Y118.154 E5.52583
G1 X117.042 Y117.79 E5.5449
G1 X116.861 Y117.453 E5.56327
G1 X116.58 Y117.023 E5.58793
G1 X116.274 Y116.644 E5.61132
G1 X115.981 Y116.34 E5.63159
G1 X115.584 Y115.999 E5.65672
G1 X115.19 Y115.726 E5.67974
G1 X114.825 Y115.516 E5.69996
G1 X114.345 Y115.298 E5.72527
G1 X113.946 Y115.161 E5.74553
G1 X113.479 Y115.045 E5.76864
G1 X112.964 Y114.971 E5.79362
G1 X112.57 Y114.95 E5.81257
G1 X112.073 Y114.967 E5.83645
G1 X111.655 Y115.021 E5.85669
G1 X111.171 Y115.127 E5.88048
G1 X110.689 Y115.285 E5.90484
G1 X110.302 Y115.453 E5.9251
G1 X109.86 Y115.694 E5.94927
G1 X109.449 Y115.975 E5.97318
G1 X109.142 Y116.227 E5.99225
G1 X108.866 Y116.493 E6.01066
G1 X108.529 Y116.879 E6.03526
G1 X108.246 Y117.277 E6.05871
G1 X108.034 Y117.642 E6.07898
G1 X107.814 Y118.116 E6.10407
G1 X107.657 Y118.569 E6.12709
G1 X107.554 Y118.978 E6.14734
G1 X107.474 Y119.501 E6.17274
G1 X107.45 Y119.92 E6.19289
G1 X107.465 Y120.401 E6.216
G1 X107.533 Y120.916 E6.24094
G1 X107.615 Y121.283 E6.259
G1 X107.733 Y121.67 E6.27843
G1 X107.916 Y122.121 E6.3018
G1 X108.1 Y122.48 E6.32117
G1 X108.364 Y122.9 E6.34499
G1 X108.675 Y123.299 E6.36928
G1 X108.964 Y123.606 E6.38953
G1 X109.463 Y124.05 E6.4216
G1 X104.412 Y124.05 E6.66413
G1 X104.328 Y123.888 E6.67289
G1 X104.089 Y123.337 E6.70173
G1 X103.908 Y122.84 E6.72713
G1 X103.737 Y122.258 E6.75626
G1 X103.606 Y121.672 E6.78509
G1 X103.524 Y121.149 E6.81051
G1 X103.467 Y120.546 E6.83959
G1 X103.451 Y119.914 E6.86995
G1 X103.479 Y119.283 E6.90028
G1 X103.546 Y118.686 E6.92913
G1 X103.639 Y118.165 E6.95454
G1 X103.781 Y117.577 E6.98359
G1 X103.972 Y116.973 E7.01401
G1 X104.191 Y116.414 E7.04284
G1 X104.415 Y115.934 E7.06827
G1 X104.705 Y115.403 E7.09732
G1 X105.045 Y114.87 E7.12768
G1 X105.402 Y114.386 E7.15656
G1 X105.742 Y113.981 E7.18195
G1 X106.16 Y113.543 E7.21102
G1 X106.603 Y113.136 E7.23991
G1 X107.015 Y112.803 E7.26535
G1 X107.507 Y112.453 E7.29434
G1 X108.046 Y112.122 E7.32471
G1 X108.58 Y111.844 E7.35362
G1 X109.064 Y111.628 E7.37907
G1 X109.629 Y111.418 E7.40801
G1 X110.236 Y111.238 E7.43841
G1 X110.824 Y111.107 E7.46734
G1 X111.347 Y111.024 E7.49277
G1 X111.947 Y110.967 E7.52171
G1 X112.579 Y110.951 E7.55207
G1 X113.182 Y110.976 E7.58105
G1 X113.708 Y111.032 E7.60645
G1 X114.303 Y111.132 E7.63542
G1 X114.918 Y111.28 E7.66579
G1 X115.494 Y111.46 E7.69477
G1 X115.988 Y111.65 E7.72018
G1 X116.536 Y111.9 E7.7491
G1 X117.066 Y112.187 E7.77804
G1 X117.602 Y112.526 E7.80849
G1 X118.03 Y112.837 E7.83389
G1 X118.494 Y113.22 E7.86278
G1 X118.933 Y113.636 E7.89182
G1 X119.294 Y114.023 E7.91723
G1 X119.677 Y114.488 E7.94616
G1 X120.029 Y114.98 E7.97521
G1 X120.31 Y115.429 E8.00064
G1 X120.596 Y115.958 E8.02952
G1 X120.849 Y116.508 E8.05859
G1 X121.038 Y117.002 E8.08399
G1 X121.219 Y117.576 E8.11289
G1 X121.361 Y118.165 E8.14198
G1 X121.453 Y118.686 E8.16738
G1 X121.521 Y119.283 E8.19623
G1 X121.549 Y119.914 E8.22656
G1 X121.533 Y120.546 E8.25692
G1 X121.476 Y121.149 E8.286
G1 X121.394 Y121.672 E8.31142
G1 X121.263 Y122.258 E8.34025
G1 X121.092 Y122.84 E8.36938
G1 X120.911 Y123.337 E8.39478
G1 X120.672 Y123.888 E8.42362
G1 X120.588 Y124.05 E8.43238
G1 X115.596 Y124.05 E8.67208
M204 S3500
G1 X114.196 Y124.283 F18000
M204 S1000
;TYPE:External perimeter
G1 F1800
G1 X114.566 Y124.117 E8.69155
G1 X114.988 Y123.877 E8.71486
G1 X115.38 Y123.595 E8.73805
G1 X115.706 Y123.306 E8.75897
G1 X115.97 Y123.029 E8.77734
G1 X116.268 Y122.649 E8.80053
G1 X116.474 Y122.328 E8.81884
G1 X116.679 Y121.938 E8.84
G1 X116.821 Y121.595 E8.85783
G1 X116.955 Y121.169 E8.87927
G1 X117.051 Y120.708 E8.90188
G1 X117.092 Y120.364 E8.91851
G1 X117.106 Y120.005 E8.93576
G1 X117.086 Y119.574 E8.95648
G1 X117.035 Y119.197 E8.97475
G1 X116.932 Y118.746 E8.99696
G1 X116.787 Y118.315 E9.01879
G1 X116.642 Y117.984 E9.03614
G1 X116.479 Y117.679 E9.05275
G1 X116.221 Y117.285 E9.07536
G1 X115.941 Y116.938 E9.09677
G1 X115.676 Y116.664 E9.11507
G1 X115.312 Y116.351 E9.13812
G1 X114.952 Y116.101 E9.15917
G1 X114.622 Y115.912 E9.17743
G1 X114.181 Y115.711 E9.2007
G1 X113.82 Y115.587 E9.21903
G1 X113.393 Y115.481 E9.24016
G1 X112.921 Y115.413 E9.26306
G1 X112.566 Y115.394 E9.28013
G1 X112.109 Y115.41 E9.30209
G1 X111.731 Y115.459 E9.32039
G1 X111.288 Y115.556 E9.34217
G1 X110.847 Y115.701 E9.36446
G1 X110.497 Y115.852 E9.38276
G1 X110.092 Y116.073 E9.40491
G1 X109.716 Y116.331 E9.42681
G1 X109.437 Y116.56 E9.44414
G1 X109.187 Y116.799 E9.46075
G1 X108.878 Y117.154 E9.48335
G1 X108.62 Y117.518 E9.50477
G1 X108.428 Y117.847 E9.52306
G1 X108.226 Y118.282 E9.54609
G1 X108.083 Y118.697 E9.56717
G1 X107.989 Y119.066 E9.58545
