; generated by PrusaSlicer 2.6.1+win64 on 2023-10-09 at 20:58:55 UTC

; 

; external perimeters extrusion width = 0.40mm
; perimeters extrusion width = 0.46mm
; infill extrusion width = 0.46mm
; solid infill extrusion width = 0.56mm
; top infill extrusion width = 0.40mm
; support material extrusion width = 0.46mm
; first layer extrusion width = 0.50mm

;TYPE:Custom
M104 S0 ; Stops PS/SS from sending temp waits separately


; Pre-Processed for Cancel-Object support by preprocess_cancellation v0.2.0
; 1 known objects
EXCLUDE_OBJECT_DEFINE NAME=welle_4mm_stl_id_0_copy_0 CENTER=112.428,117.720 POLYGON=[[102.7,110.2],[102.7,124.8],[122.3,124.8],[122.3,110.2]]
M140 S0
PRINT_START BED=60 HOTEND=200
PURGE_LINE
G21 ; set units to millimeters
G90 ; use absolute coordinates
M82 ; use absolute distances for extrusion
G92 E0
; Filament gcode
M107
;LAYER_CHANGE
;Z:0.26
;HEIGHT:0.26
G1 Z.26 F18000
G1 E-2 F2400
G92 E0
M204 S3500
G1 X102.658 Y108.748 F18000
G1 E2 F2400
M204 S1000
;TYPE:Skirt/Brim
;WIDTH:0.5
G1 F1800
G1 X104.434 Y107.414 E2.10665
G1 X105.295 Y106.902 E2.15475
G1 X106.681 Y106.23 E2.22871
G1 X108.583 Y105.573 E2.32533
G1 X110.593 Y105.173 E2.42374
G1 X112.813 Y105.054 E2.53049
G1 X114.494 Y105.184 E2.61145
G1 X116.324 Y105.548 E2.70104
G1 X118.119 Y106.147 E2.7919
G1 X119.897 Y107.009 E2.88678
G1 X121.512 Y108.072 E2.97962
G1 X123.006 Y109.365 E3.07449
G1 X124.248 Y110.756 E3.16403
G1 X125.323 Y112.315 E3.25496
G1 X126.224 Y114.073 E3.34981
G1 X126.855 Y115.828 E3.43936
G1 X127.268 Y117.676 E3.53028
G1 X127.415 Y118.998 E3.59415
G1 X127.432 Y120.719 E3.67679
G1 X127.22 Y122.609 E3.76811
G1 X126.747 Y124.527 E3.86296
G1 X126.073 Y126.264 E3.95242
G1 X125.641 Y127.126 E3.99872
G1 X124.373 Y128.717 E4.09641
G1 X122.594 Y129.702 E4.19405
G1 X121.002 Y129.951 E4.27142
G1 X103.998 Y129.951 E5.08789
G1 X102.003 Y129.555 E5.18555
G1 X100.311 Y128.426 E5.28322
G1 X99.359 Y127.126 E5.36059
G1 X98.355 Y124.837 E5.48061
G1 X97.841 Y122.928 E5.57554
G1 X97.568 Y120.719 E5.68242
G1 X97.613 Y118.642 E5.78217
G1 X97.831 Y117.119 E5.85604
G1 X98.051 Y116.165 E5.90305
G1 X98.776 Y114.073 E6.00936
G1 X99.713 Y112.256 E6.10752
G1 X100.577 Y110.982 E6.18143
G1 X101.192 Y110.222 E6.22837
G1 X102.615 Y108.791 E6.32527
M204 S3500
G1 X102.93 Y109.104 F18000
M204 S1000
G1 F1800
G1 X102.958 Y109.076 E6.32717
G1 X104.665 Y107.793 E6.4297
G1 X105.501 Y107.296 E6.4764
G1 X106.862 Y106.635 E6.54905
G1 X108.709 Y105.999 E6.64285
G1 X110.659 Y105.612 E6.73831
G1 X112.793 Y105.498 E6.84092
G1 X114.444 Y105.626 E6.92043
G1 X116.22 Y105.98 E7.00738
G1 X117.96 Y106.561 E7.09546
G1 X119.685 Y107.4 E7.18757
G1 X121.251 Y108.432 E7.27762
G1 X122.701 Y109.688 E7.36973
G1 X123.905 Y111.038 E7.45659
G1 X124.946 Y112.551 E7.54477
G1 X125.82 Y114.258 E7.63685
G1 X126.431 Y115.961 E7.72373
G1 X126.83 Y117.754 E7.81193
G1 X126.972 Y119.017 E7.87296
G1 X126.988 Y120.708 E7.95416
G1 X126.781 Y122.54 E8.04269
G1 X126.321 Y124.402 E8.13478
G1 X125.666 Y126.087 E8.22159
G1 X125.246 Y126.923 E8.26651
G1 X124.021 Y128.432 E8.35984
G1 X122.295 Y129.329 E8.45324
G1 X121.002 Y129.507 E8.51591
G1 X103.998 Y129.507 E9.33238
G1 X102.094 Y129.111 E9.42576
G1 X100.506 Y127.989 E9.51912
G1 X99.754 Y126.923 E9.58176
G1 X98.772 Y124.686 E9.69907
G1 X98.274 Y122.832 E9.79125
G1 X98.012 Y120.708 E9.89401
G1 X98.054 Y118.692 E9.99083
G1 X98.483 Y116.27 E10.10894
G1 X99.18 Y114.258 E10.21118
G1 X100.088 Y112.494 E10.30644
G1 X101.535 Y110.505 E10.42454
G1 X102.887 Y109.147 E10.51655
M204 S3500
G1 X103.206 Y109.478 F18000
M204 S1000
G1 F1800
G1 X103.483 Y109.211 E10.53502
G1 X104.897 Y108.172 E10.61927
G1 X107.042 Y107.041 E10.73571
G1 X108.835 Y106.425 E10.82674
G1 X110.725 Y106.052 E10.91924
G1 X112.774 Y105.942 E11.01777
G1 X114.394 Y106.067 E11.09579
G1 X116.116 Y106.412 E11.18012
G1 X117.801 Y106.976 E11.26544
G1 X119.474 Y107.791 E11.3548
G1 X120.99 Y108.791 E11.442
G1 X122.395 Y110.011 E11.53135
G1 X123.562 Y111.321 E11.61559
G1 X124.57 Y112.786 E11.70098
G1 X125.416 Y114.443 E11.79031
G1 X126.008 Y116.094 E11.87453
G1 X126.393 Y117.831 E11.95996
G1 X126.528 Y119.037 E12.01823
G1 X126.544 Y120.696 E12.09789
G1 X126.342 Y122.471 E12.18367
G1 X125.895 Y124.276 E12.27296
G1 X125.259 Y125.91 E12.35715
G1 X124.851 Y126.719 E12.40066
G1 X123.67 Y128.144 E12.48953
G1 X122.002 Y128.946 E12.5784
G1 X121.002 Y129.063 E12.62674
G1 X103.998 Y129.063 E13.44321
G1 X102.19 Y128.667 E13.53208
G1 X100.711 Y127.553 E13.62099
G1 X100.149 Y126.719 E13.66928
G1 X99.19 Y124.534 E13.78386
G1 X98.848 Y123.368 E13.84221
G1 X98.569 Y121.912 E13.91339
G1 X98.439 Y120.018 E14.00455
G1 X98.607 Y117.831 E14.10987
G1 X98.992 Y116.094 E14.1953
G1 X99.855 Y113.85 E14.31074
G1 X100.811 Y112.185 E14.40293
G1 X102.074 Y110.566 E14.50153
G1 X103.162 Y109.519 E14.57403
M204 S3500
G1 X103.469 Y109.838 F18000
M204 S1000
G1 F1800
G1 X103.76 Y109.558 E14.59342
G1 X105.128 Y108.551 E14.67498
G1 X107.223 Y107.447 E14.78869
G1 X108.961 Y106.851 E14.87691
G1 X110.791 Y106.491 E14.96646
G1 X112.754 Y106.386 E15.06085
G1 X114.345 Y106.509 E15.13747
G1 X116.011 Y106.844 E15.21907
G1 X117.642 Y107.391 E15.30167
G1 X119.263 Y108.181 E15.38826
G1 X120.729 Y109.15 E15.47264
G1 X122.09 Y110.333 E15.55923
G1 X123.219 Y111.603 E15.64082
G1 X124.193 Y113.022 E15.72346
G1 X125.012 Y114.628 E15.81002
G1 X125.584 Y116.227 E15.89156
G1 X125.956 Y117.908 E15.97423
G1 X126.114 Y119.735 E16.06228
G1 X126.084 Y120.951 E16.12069
G1 X125.859 Y122.639 E16.20246
G1 X125.393 Y124.382 E16.28909
G1 X124.741 Y125.965 E16.37129
G1 X124.457 Y126.515 E16.40101
G1 X123.322 Y127.85 E16.48515
G1 X121.002 Y128.618 E16.60249
G1 X103.998 Y128.618 E17.41896
G1 X102.29 Y128.224 E17.50313
G1 X100.543 Y126.515 E17.62048
G1 X100.259 Y125.965 E17.6502
G1 X99.531 Y124.151 E17.74405
G1 X99.008 Y121.843 E17.85768
G1 X98.883 Y120.006 E17.94609
G1 X99.044 Y117.909 E18.04708
G1 X99.416 Y116.227 E18.1298
G1 X100.259 Y114.035 E18.24257
G1 X101.186 Y112.423 E18.33186
G1 X102.396 Y110.872 E18.42632
G1 X103.426 Y109.88 E18.49498
M204 S3500
G1 X103.734 Y110.198 F18000
M204 S1000
G1 F1800
G1 X104.037 Y109.906 E18.51519
G1 X105.36 Y108.93 E18.59413
G1 X107.403 Y107.853 E18.70502
G1 X109.087 Y107.277 E18.79048
G1 X110.857 Y106.93 E18.87709
G1 X112.735 Y106.829 E18.9674
G1 X114.295 Y106.95 E19.04253
G1 X115.907 Y107.275 E19.12149
G1 X117.483 Y107.806 E19.20134
G1 X119.051 Y108.572 E19.28513
G1 X120.468 Y109.51 E19.36673
G1 X121.785 Y110.656 E19.45056
G1 X122.876 Y111.885 E19.52947
G1 X123.817 Y113.257 E19.60935
G1 X124.608 Y114.813 E19.69316
G1 X125.16 Y116.361 E19.77207
G1 X125.518 Y117.986 E19.85197
G1 X125.67 Y119.755 E19.93722
G1 X125.641 Y120.909 E19.99265
G1 X125.425 Y122.543 E20.07179
G1 X124.975 Y124.231 E20.15567
G1 X124.346 Y125.761 E20.2351
G1 X124.062 Y126.311 E20.26482
G1 X122.978 Y127.551 E20.3439
G1 X121.002 Y128.174 E20.44338
G1 X103.998 Y128.174 E21.25985
G1 X102.398 Y127.78 E21.33897
G1 X100.938 Y126.311 E21.43842
G1 X100.654 Y125.761 E21.46814
G1 X99.958 Y124.026 E21.5579
G1 X99.447 Y121.773 E21.66883
G1 X99.327 Y119.995 E21.7544
G1 X99.482 Y117.986 E21.85115
G1 X99.84 Y116.361 E21.93105
G1 X100.663 Y114.22 E22.04119
G1 X101.561 Y112.662 E22.12754
G1 X102.718 Y111.178 E22.21789
G1 X103.69 Y110.24 E22.28275
M204 S3500
; printing object welle_4mm.stl id:0 copy 0
EXCLUDE_OBJECT_START NAME=welle_4mm_stl_id_0_copy_0
G1 E20.28275 F2400
G92 E0
G1 X116.743 Y123.592 F18000
G1 E2 F2400
M204 S1000
;TYPE:Perimeter
G1 F1800
G1 X117.02 Y123.238 E2.02158
G1 X117.304 Y122.796 E2.04681
G1 X117.512 Y122.406 E2.06803
G1 X117.675 Y122.03 E2.08771
G1 X117.853 Y121.5 E2.11456
G1 X117.95 Y121.097 E2.13446
G1 X118.034 Y120.535 E2.16174
G1 X118.059 Y120.009 E2.18703
G1 X118.041 Y119.551 E2.20904
G1 X117.966 Y118.985 E2.23645
G1 X117.863 Y118.538 E2.25848
G1 X117.703 Y118.039 E2.28364
G1 X117.472 Y117.512 E2.31127
G1 X117.249 Y117.111 E2.3333
G1 X116.959 Y116.68 E2.35824
G1 X116.673 Y116.328 E2.38002
G1 X116.307 Y115.948 E2.40535
G1 X115.872 Y115.58 E2.43271
G1 X115.495 Y115.317 E2.45478
G1 X115.035 Y115.052 E2.48027
G1 X114.518 Y114.82 E2.50748
G1 X114.084 Y114.671 E2.52951
G1 X113.565 Y114.543 E2.55518
G1 X113.009 Y114.464 E2.58215
G1 X112.576 Y114.441 E2.60297
G1 X112.034 Y114.46 E2.62901
G1 X111.579 Y114.518 E2.65103
G1 X111.053 Y114.632 E2.67687
G1 X110.52 Y114.805 E2.70378
G1 X110.099 Y114.986 E2.72578
G1 X109.622 Y115.243 E2.7518
G1 X109.161 Y115.555 E2.77853
G1 X108.806 Y115.846 E2.80057
G1 X108.417 Y116.226 E2.82668
G1 X108.062 Y116.651 E2.85327
G1 X107.801 Y117.029 E2.87533
G1 X107.531 Y117.505 E2.90161
G1 X107.309 Y118.009 E2.92805
G1 X107.163 Y118.444 E2.95008
G1 X107.035 Y118.979 E2.97649
G1 X106.961 Y119.522 E3.0028
G1 X106.941 Y119.981 E3.02486
G1 X106.965 Y120.526 E3.05105
G1 X107.023 Y120.952 E3.07169
G1 X107.142 Y121.484 E3.09787
G1 X107.272 Y121.892 E3.11843
G1 X107.483 Y122.396 E3.14467
G1 X107.682 Y122.774 E3.16518
G1 X107.979 Y123.235 E3.19151
G1 X108.255 Y123.592 E3.21318
G1 X104.699 Y123.592 E3.38393
G1 X104.513 Y123.165 E3.40629
G1 X104.344 Y122.699 E3.43009
G1 X104.181 Y122.143 E3.45791
G1 X104.056 Y121.583 E3.48546
G1 X103.979 Y121.094 E3.50923
G1 X103.925 Y120.518 E3.53701
G1 X103.909 Y119.919 E3.56578
G1 X103.936 Y119.319 E3.59462
G1 X104.001 Y118.749 E3.62217
G1 X104.087 Y118.261 E3.64596
G1 X104.223 Y117.699 E3.67372
G1 X104.395 Y117.15 E3.70134
G1 X104.573 Y116.689 E3.72507
G1 X104.813 Y116.163 E3.75283
G1 X105.1 Y115.635 E3.78169
G1 X105.409 Y115.15 E3.8093
G1 X105.7 Y114.75 E3.83305
G1 X106.068 Y114.305 E3.86078
G1 X106.481 Y113.87 E3.88958
G1 X106.924 Y113.465 E3.9184
G1 X107.373 Y113.106 E3.946
G1 X107.779 Y112.823 E3.96976
G1 X108.272 Y112.522 E3.9975
G1 X108.782 Y112.255 E4.02514
G1 X109.234 Y112.054 E4.04889
G1 X109.775 Y111.853 E4.0766
G1 X110.35 Y111.682 E4.1054
G1 X110.936 Y111.553 E4.13421
G1 X111.505 Y111.467 E4.16184
G1 X111.998 Y111.424 E4.1856
G1 X112.574 Y111.409 E4.21327
G1 X113.174 Y111.436 E4.24211
G1 X113.747 Y111.5 E4.26979
G1 X114.234 Y111.586 E4.29354
G1 X114.795 Y111.721 E4.32125
G1 X115.345 Y111.894 E4.34893
G1 X115.808 Y112.071 E4.37273
G1 X116.331 Y112.311 E4.40036
G1 X116.837 Y112.584 E4.42797
G1 X117.347 Y112.907 E4.45696
G1 X117.746 Y113.197 E4.48064
G1 X118.19 Y113.564 E4.5083
G1 X118.61 Y113.961 E4.53605
G1 X118.948 Y114.323 E4.55983
G1 X119.313 Y114.767 E4.58743
G1 X119.65 Y115.237 E4.6152
G1 X119.912 Y115.657 E4.63897
G1 X120.186 Y116.163 E4.6666
G1 X120.427 Y116.689 E4.69438
G1 X120.605 Y117.15 E4.71811
G1 X120.777 Y117.699 E4.74573
G1 X120.913 Y118.261 E4.77349
G1 X120.999 Y118.749 E4.79728
G1 X121.064 Y119.319 E4.82483
G1 X121.091 Y119.919 E4.85367
G1 X121.075 Y120.518 E4.88244
G1 X121.021 Y121.094 E4.91022
G1 X120.944 Y121.583 E4.93399
G1 X120.819 Y122.143 E4.96154
G1 X120.656 Y122.699 E4.98936
G1 X120.487 Y123.165 E5.01316
G1 X120.301 Y123.592 E5.03552
G1 X116.803 Y123.592 E5.20348
M204 S3500
G1 X115.631 Y124.036 F18000
M204 S1000
G1 F1800
G1 X116.074 Y123.66 E5.23138
G1 X116.405 Y123.302 E5.25479
G1 X116.657 Y122.98 E5.27442
G1 X116.921 Y122.571 E5.29779
G1 X117.111 Y122.213 E5.31725
G1 X117.26 Y121.871 E5.33516
G1 X117.426 Y121.378 E5.36014
G1 X117.514 Y121.013 E5.37817
G1 X117.591 Y120.492 E5.40346
G1 X117.614 Y120.007 E5.42677
G1 X117.598 Y119.589 E5.44686
G1 X117.529 Y119.064 E5.47229
G1 X117.434 Y118.656 E5.4924
G1 X117.287 Y118.197 E5.51554
G1 X117.074 Y117.71 E5.54106
G1 X116.87 Y117.344 E5.56118
G1 X116.602 Y116.944 E5.5843
G1 X116.341 Y116.623 E5.60417
G1 X116.003 Y116.272 E5.62757
G1 X115.601 Y115.932 E5.65285
G1 X115.257 Y115.692 E5.67299
G1 X114.833 Y115.448 E5.69648
G1 X114.355 Y115.233 E5.72165
G1 X113.958 Y115.098 E5.74178
G1 X113.48 Y114.98 E5.76542
G1 X112.965 Y114.906 E5.7904
G1 X112.572 Y114.886 E5.80929
G1 X112.069 Y114.903 E5.83346
G1 X111.654 Y114.956 E5.85355
G1 X111.169 Y115.061 E5.87738
G1 X110.677 Y115.221 E5.90222
G1 X110.292 Y115.386 E5.92233
G1 X109.853 Y115.623 E5.94628
G1 X109.427 Y115.911 E5.97097
G1 X109.103 Y116.177 E5.9911
G1 X108.744 Y116.528 E6.01521
G1 X108.416 Y116.921 E6.03979
G1 X108.178 Y117.265 E6.05988
G1 X107.929 Y117.705 E6.08416
G1 X107.724 Y118.17 E6.10856
G1 X107.59 Y118.567 E6.12868
G1 X107.472 Y119.061 E6.15307
G1 X107.404 Y119.562 E6.17735
G1 X107.385 Y119.981 E6.19749
G1 X107.408 Y120.486 E6.22176
G1 X107.46 Y120.873 E6.24051
G1 X107.571 Y121.368 E6.26487
G1 X107.69 Y121.738 E6.28353
G1 X107.886 Y122.207 E6.30794
G1 X108.066 Y122.55 E6.32654
G1 X108.342 Y122.978 E6.35099
G1 X108.577 Y123.282 E6.36944
G1 X108.9 Y123.633 E6.39234
G1 X109.339 Y124.036 E6.42095
G1 X104.42 Y124.036 E6.65714
G1 X104.341 Y123.882 E6.66545
G1 X104.1 Y123.329 E6.69442
G1 X103.922 Y122.838 E6.7195
G1 X103.75 Y122.254 E6.74873
G1 X103.62 Y121.666 E6.77765
G1 X103.538 Y121.15 E6.80274
G1 X103.481 Y120.545 E6.83192
G1 X103.465 Y119.914 E6.86223
G1 X103.493 Y119.284 E6.89251
G1 X103.561 Y118.685 E6.92146
G1 X103.652 Y118.17 E6.94657
G1 X103.795 Y117.58 E6.97572
G1 X103.976 Y117.004 E7.00471
G1 X104.163 Y116.516 E7.0298
G1 X104.416 Y115.964 E7.05896
G1 X104.717 Y115.41 E7.08923
G1 X105.041 Y114.9 E7.11824
G1 X105.349 Y114.478 E7.14333
G1 X105.735 Y114.01 E7.17246
G1 X106.169 Y113.553 E7.20272
G1 X106.635 Y113.127 E7.23304
G1 X107.107 Y112.751 E7.26202
G1 X107.535 Y112.451 E7.28712
G1 X108.053 Y112.135 E7.31626
G1 X108.589 Y111.855 E7.3453
G1 X109.066 Y111.642 E7.37038
G1 X109.634 Y111.431 E7.39947
G1 X110.239 Y111.252 E7.42976
G1 X110.855 Y111.116 E7.46005
G1 X111.453 Y111.026 E7.48909
G1 X111.973 Y110.98 E7.51416
G1 X112.578 Y110.965 E7.54322
G1 X113.209 Y110.992 E7.57355
G1 X113.811 Y111.06 E7.60264
G1 X114.325 Y111.151 E7.6277
G1 X114.913 Y111.293 E7.65675
G1 X115.492 Y111.474 E7.68588
G1 X115.98 Y111.662 E7.71099
G1 X116.53 Y111.913 E7.74002
G1 X117.061 Y112.201 E7.76903
G1 X117.596 Y112.539 E7.79942
G1 X118.019 Y112.846 E7.82452
G1 X118.485 Y113.231 E7.85354
G1 X118.925 Y113.648 E7.88265
G1 X119.282 Y114.03 E7.90776
G1 X119.666 Y114.496 E7.93675
G1 X120.019 Y114.99 E7.9659
G1 X120.296 Y115.433 E7.99099
G1 X120.584 Y115.964 E8.02
G1 X120.837 Y116.516 E8.04916
G1 X121.024 Y117.004 E8.07425
G1 X121.205 Y117.58 E8.10324
G1 X121.348 Y118.17 E8.13239
G1 X121.439 Y118.685 E8.1575
G1 X121.507 Y119.284 E8.18645
G1 X121.535 Y119.914 E8.21673
G1 X121.519 Y120.545 E8.24704
G1 X121.462 Y121.15 E8.27622
G1 X121.38 Y121.666 E8.30131
G1 X121.25 Y122.254 E8.33023
G1 X121.078 Y122.838 E8.35946
G1 X120.9 Y123.329 E8.38454
G1 X120.659 Y123.882 E8.41351
G1 X120.58 Y124.036 E8.42182
G1 X115.691 Y124.036 E8.65657
M204 S3500
G1 X114.379 Y124.276 F18000
M204 S1000
;TYPE:External perimeter
G1 F1800
G1 X114.849 Y124.037 E8.68189
G1 X115.263 Y123.766 E8.70565
G1 X115.766 Y123.339 E8.73733
G1 X116.067 Y123.014 E8.7586
G1 X116.295 Y122.722 E8.77639
G1 X116.537 Y122.346 E8.79786
G1 X116.711 Y122.019 E8.81565
G1 X116.846 Y121.711 E8.8318
G1 X116.999 Y121.255 E8.8549
G1 X117.077 Y120.928 E8.87104
G1 X117.149 Y120.449 E8.8943
G1 X117.17 Y120.005 E8.91564
G1 X117.155 Y119.627 E8.9338
G1 X117.091 Y119.144 E8.95719
G1 X117.006 Y118.774 E8.97542
G1 X116.871 Y118.354 E8.9966
G1 X116.675 Y117.907 E9.02004
G1 X116.491 Y117.576 E9.03822
G1 X116.244 Y117.209 E9.05946
G1 X116.008 Y116.917 E9.07749
G1 X115.698 Y116.597 E9.09888
G1 X115.329 Y116.284 E9.12211
G1 X115.019 Y116.068 E9.14025
G1 X114.63 Y115.844 E9.1618
G1 X114.192 Y115.647 E9.18486
G1 X113.833 Y115.524 E9.20308
G1 X113.396 Y115.416 E9.22469
G1 X112.922 Y115.349 E9.24768
G1 X112.568 Y115.33 E9.2647
G1 X112.105 Y115.347 E9.28695
G1 X111.729 Y115.394 E9.30514
G1 X111.285 Y115.491 E9.32696
G1 X110.834 Y115.637 E9.34972
G1 X110.486 Y115.787 E9.36792
G1 X110.083 Y116.004 E9.3899
G1 X109.692 Y116.268 E9.41255
G1 X109.399 Y116.508 E9.43074
G1 X109.07 Y116.83 E9.45284
G1 X108.77 Y117.19 E9.47534
G1 X108.554 Y117.502 E9.49356
G1 X108.326 Y117.904 E9.51575
G1 X108.138 Y118.331 E9.53815
G1 X108.017 Y118.69 E9.55634
G1 X107.909 Y119.143 E9.5787
G1 X107.847 Y119.602 E9.60094
G1 X107.83 Y119.981 E9.61916
G1 X107.851 Y120.447 E9.64156
G1 X107.898 Y120.795 E9.65842
G1 X108 Y121.251 E9.68086
G1 X108.107 Y121.585 E9.6977
G1 X108.288 Y122.017 E9.72019
